zeyangz2/LSTM/data/srikar and zeyang_clockwise 2.csv
Timestamp,Therapist joint angle 0,Therapist joint angle 1,Therapist joint angle 2,Therapist joint angle 3,Therapist joint angle 4,Therapist joint angle 5,Patient joint angle 0,Patient joint angle 1,Patient joint angle 2,Patient joint angle 3,Patient joint angle 4,Patient joint angle 5,Virtual joint angle 0,Virtual joint angle 1,Virtual joint angle 2,Therapist position x,Therapist position y,Therapist position z,Patient position x,Patient position y,Patient position z,Virtual position x,Virtual position y,Virtual position z,Assistive Force, Obstacle Force Magnitude, Therapist Constant Force, Patient Constant Force, Recovery Factor, Assistance Level
6.38259E+17,0,0,0,0,0,0,0,0,0,0,0,0,0,0,0,0,0,0,0,0,0,0,0,0,0,0.3,0,0,0,0
6.38259E+17,-2.332436,-16.59852,50.19662,41.75596,-37.67262,20.88108,8.929225,38.36363,62.17377,68.27071,-11.15786,41.38973,0,0,0,-9.370134,-100.1079,61.69812,34.53339,43.86705,51.44209,0.001067912,-0.1257102,0.09433498,0,0.3,0,0.7535425,0.001064771,0.7535425
6.38259E+17,-2.332436,-16.59852,50.19662,41.75596,-37.67262,20.95433,8.929225,38.31688,62.12708,68.12422,-11.08462,41.31649,0,0,0,-9.370134,-100.1079,61.69812,34.53599,43.6856,51.45862,0.001067912,-0.1257102,0.09433498,0,0.3,0,0.7523512,0.00149557,0.7523512
6.38259E+17,-2.332436,-16.59852,50.19662,41.75596,-37.67262,20.88108,8.929225,38.19999,61.9403,67.90449,-11.01137,41.31649,0,0,0,-9.370134,-100.1079,61.69812,34.53049,43.08804,51.42365,0.001067912,-0.1257102,0.09433498,0,0.3,0,0.7486047,0.00270027,0.7486047
6.38259E+17,-2.332436,-16.59852,50.19662,41.75596,-37.67262,20.95433,8.929225,38.15323,61.82356,67.68475,-10.93813,41.31649,0,0,0,-9.370134,-100.1079,61.69812,34.52106,42.76287,51.3636,0.001067912,-0.1257102,0.09433498,0,0.3,0,0.7464949,0.003461341,0.7464949
6.38259E+17,-2.332436,-16.59852,50.19662,41.75596,-37.67262,20.95433,8.929225,38.03634,61.56674,67.02554,-10.93813,41.31649,0,0,0,-9.370134,-100.1079,61.69812,34.50312,42.02251,51.24943,0.001067912,-0.1257102,0.09433498,0,0.3,0,0.7416551,0.005253438,0.7416551
6.38259E+17,-2.332436,-16.59852,50.19662,41.75596,-37.67262,20.88108,8.929225,37.9662,61.40331,66.29308,-10.93813,41.38973,0,0,0,-9.370134,-100.1079,61.69812,34.49054,41.55966,51.16933,0.001067912,-0.1257102,0.09433498,0,0.3,0,0.738171,0.00700189,0.738171
6.38259E+17,-2.332436,-16.59852,50.19662,41.75596,-37.67262,20.88108,8.929225,37.89607,61.14649,65.78037,-11.01137,41.75596,0,0,0,-9.370134,-100.1079,61.69812,34.46152,40.90675,50.98466,0.001067912,-0.1257102,0.09433498,0,0.3,0,0.7337958,0.008771558,0.7337958
6.38259E+17,-2.332436,-16.59852,50.19662,41.75596,-37.67262,20.95433,8.929225,37.84931,60.98306,65.56064,-11.01137,42.04893,0,0,0,-9.370134,-100.1079,61.69812,34.44333,40.48796,50.86886,0.001067912,-0.1257102,0.09433498,0,0.3,0,0.7311209,0.009737824,0.7311209
6.38259E+17,-2.355996,-16.59852,50.19662,41.75596,-37.67262,20.88108,8.952785,37.77918,60.72623,64.82819,-10.93813,42.70815,0,0,0,-9.464729,-100.1079,61.69425,34.50374,39.83697,50.66598,0.001067912,-0.1257102,0.09433498,0,0.3,0,0.7269182,0.01169107,0.7269182
6.38259E+17,-2.355996,-16.59852,50.19662,41.75596,-37.67262,20.88108,8.952785,37.70904,60.46942,64.24223,-10.5719,43.29411,0,0,0,-9.464729,-100.1079,61.69425,34.47362,39.18716,50.47481,0.001067912,-0.1257102,0.09433498,0,0.3,0,0.7224795,0.01361834,0.7224795
6.38259E+17,-2.355996,-16.59852,50.19662,41.75596,-37.67262,20.95433,8.952785,37.63891,60.35268,63.94925,-10.42541,43.58709,0,0,0,-9.464729,-100.1079,61.69425,34.46827,38.8217,50.44084,0.001067912,-0.1257102,0.09433498,0,0.3,0,0.7200505,0.01460411,0.7200505
6.38259E+17,-2.355996,-16.59852,50.19662,41.75596,-37.67262,20.95433,8.952785,37.47526,60.09586,63.50977,-9.839451,44.39278,0,0,0,-9.464729,-100.1079,61.69425,34.45821,38.00096,50.37696,0.001067912,-0.1257102,0.09433498,0,0.3,0,0.7147109,0.01667617,0.7147109
6.38259E+17,-2.355996,-16.59852,50.19662,41.75596,-37.67262,20.95433,8.952785,37.26486,59.95578,63.0703,-9.180244,44.9055,0,0,0,-9.464729,-100.1079,61.69425,34.47911,37.32936,50.50965,0.001067912,-0.1257102,0.09433498,0,0.3,0,0.7100484,0.01875812,0.7100484
6.38259E+17,-2.355996,-16.59852,50.19662,41.75596,-37.67262,20.95433,8.952785,37.12459,59.83904,62.85057,-8.960509,45.05199,0,0,0,-9.464729,-100.1079,61.69425,34.48862,36.83426,50.57,0.001067912,-0.1257102,0.09433498,0,0.3,0,0.7069485,0.01984623,0.7069485
6.38259E+17,-2.355996,-16.59852,50.19662,41.75596,-37.67262,20.95433,8.952785,36.86742,59.58222,62.41109,-8.447793,45.5647,0,0,0,-9.464729,-100.1079,61.69425,34.49775,35.84011,50.62798,0.001067912,-0.1257102,0.09433498,0,0.3,0,0.7006786,0.02213237,0.7006786
6.38259E+17,-2.355996,-16.59852,50.19662,41.75596,-37.67262,20.95433,8.952785,36.51675,59.30205,61.97163,-7.935077,46.00418,0,0,0,-9.464729,-100.1079,61.69425,34.52205,34.62417,50.78222,0.001067912,-0.1257102,0.09433498,0,0.3,0,0.6932594,0.02460926,0.6932594
6.38259E+17,-2.355996,-16.59852,50.19662,41.75596,-37.67262,20.95433,8.952785,36.18946,58.88181,61.6054,-7.349115,46.5169,0,0,0,-9.464729,-100.1079,61.69425,34.51413,33.17149,50.73197,0.001067912,-0.1257102,0.09433498,0,0.3,0,0.684644,0.02732438,0.684644
6.38259E+17,-2.355996,-16.59852,50.19662,41.75596,-37.67262,20.88108,8.952785,36.04919,58.55495,61.45891,-7.202625,46.80988,0,0,0,-9.464729,-100.1079,61.69425,34.48261,32.25763,50.53187,0.001067912,-0.1257102,0.09433498,0,0.3,0,0.6794226,0.02881662,0.6794226
6.38259E+17,-2.355996,-16.59852,50.19662,41.75596,-37.67262,20.95433,8.999906,35.62838,57.38758,60.7997,-6.763155,47.76206,0,0,0,-9.464729,-100.1079,61.69425,34.52691,29.16036,49.64667,0.001067912,-0.1257102,0.09433498,0,0.3,0,0.6632228,0.0323506,0.6632228
6.38259E+17,-2.355996,-16.59852,50.19662,41.75596,-37.67262,20.95433,9.047026,34.8569,55.65988,59.92076,-5.737722,49.08047,0,0,0,-9.464729,-100.1079,61.69425,34.52035,24.34005,48.45111,0.001067912,-0.1257102,0.09433498,0,0.3,0,0.6387578,0.03696441,0.6387578
6.38259E+17,-2.355996,-16.59852,50.19662,41.75596,-37.67262,20.95433,9.047026,34.27245,54.53922,59.3348,-5.078516,49.88617,0,0,0,-9.464729,-100.1079,61.69425,34.40704,21.08079,47.73951,0.001067912,-0.1257102,0.09433498,0,0.3,0,0.6223484,0.0398719,0.6223484
6.38259E+17,-2.355996,-16.59852,50.19662,41.75596,-37.67262,20.88108,9.047026,32.68273,51.80758,57.94314,-3.467122,51.64405,0,0,0,-9.464729,-100.1079,61.69425,34.1288,12.90633,45.99202,0.001067912,-0.1257102,0.09433498,0,0.3,0,0.5819282,0.04714465,0.5819282
6.38259E+17,-2.355996,-16.59852,50.19662,41.75596,-37.67262,20.95433,9.023465,30.48518,49.0526,56.03876,-0.8302955,53.62167,0,0,0,-9.464729,-100.1079,61.69425,33.82021,3.607479,44.61788,0.001067912,-0.1257102,0.09433498,0,0.3,0,0.5362912,0.05645087,0.5362912
6.38259E+17,-2.355996,-16.59852,50.19662,41.75596,-37.67262,20.95433,8.952785,27.93695,46.99805,54.20764,2.758718,55.59929,0,0,0,-9.464729,-100.1079,61.69425,33.5102,-5.123373,44.35938,0.001067912,-0.1257102,0.09433498,0,0.3,0,0.4927843,0.06745078,0.4927843
6.38259E+17,-2.355996,-16.59852,50.19662,41.75596,-37.67262,20.95433,8.952785,26.67453,46.22758,53.54843,4.443357,56.33175,0,0,0,-9.464729,-100.1079,61.69425,33.52826,-9.037218,44.47402,0.001067912,-0.1257102,0.09433498,0,0.3,0,0.473353,0.07340558,0.473353
6.38259E+17,-2.355996,-16.59852,50.19662,41.75596,-37.67262,20.95433,8.976345,24.36009,44.38315,52.66949,7.226673,57.35718,0,0,0,-9.464729,-100.1079,61.69425,33.50674,-16.9495,43.77002,0.001067912,-0.1257102,0.09433498,0,0.3,0,0.4355252,0.08604442,0.4355252
6.38259E+17,-2.355996,-16.59852,50.19662,41.75596,-37.67262,20.95433,8.976345,22.48983,42.11847,51.64405,9.790254,58.23612,0,0,0,-9.464729,-100.1079,61.69425,33.17777,-24.55469,41.68741,0.001067912,-0.1257102,0.09433498,0,0.3,0,0.4009006,0.09943777,0.4009006
6.38259E+17,-2.355996,-16.59852,50.19662,41.75596,-37.67262,20.88108,8.976345,21.62484,41.18458,51.13134,10.96218,58.74884,0,0,0,-9.464729,-100.1079,61.69425,33.04234,-27.86502,40.83001,0.001067912,-0.1257102,0.09433498,0,0.3,0,0.385988,0.1062843,0.385988
6.38259E+17,-2.355996,-16.59852,50.19662,41.75596,-37.67262,20.95433,8.976345,20.0585,39.64366,50.32565,13.23278,60.06725,0,0,0,-9.464729,-100.1079,61.69425,32.81867,-33.59684,39.41407,0.001067912,-0.1257102,0.09433498,0,0.3,0,0.3603545,0.1200399,0.3603545
6.38259E+17,-2.355996,-16.59852,50.19662,41.75596,-37.67262,20.95433,8.976345,18.79608,37.84592,49.88617,15.06391,61.6054,0,0,0,-9.464729,-100.1079,61.69425,32.46201,-38.98615,37.15612,0.001067912,-0.1257102,0.09433498,0,0.3,0,0.3381506,0.1337897,0.3381506
6.38259E+17,-2.355996,-16.59852,50.19662,41.75596,-37.67262,20.95433,8.952785,18.21162,36.81864,49.73968,16.08934,62.48434,0,0,0,-9.464729,-100.1079,61.69425,32.14884,-41.72599,35.71801,0.001067912,-0.1257102,0.09433498,0,0.3,0,0.3276674,0.1406068,0.3276674
6.38259E+17,-2.355996,-16.59852,50.19662,41.75596,-37.67262,20.95433,8.929225,17.18298,34.88082,49.4467,17.77398,64.31547,0,0,0,-9.464729,-100.1079,61.69425,31.61049,-46.64797,32.83895,0.001067912,-0.1257102,0.09433498,0,0.3,0,0.3101865,0.154036,0.3101865
6.38259E+17,-2.355996,-16.59852,50.19662,41.75596,-37.67262,20.95433,8.929225,16.22447,33.2932,49.22696,18.9459,66.51283,0,0,0,-9.464729,-100.1079,61.69425,31.23505,-50.85544,30.44938,0.001067912,-0.1257102,0.09433498,0,0.3,0,0.296204,0.1670687,0.296204
6.38259E+17,-2.355996,-16.59852,50.19662,41.68271,-37.67262,20.95433,8.929225,15.24259,31.75228,49.22696,19.53186,68.92992,0,0,0,-9.464729,-100.1079,61.69425,30.86189,-54.9831,28.07436,0.001067912,-0.1257102,0.09433498,0,0.3,0,0.2839592,0.1796635,0.2839592
6.38259E+17,-2.355996,-16.59852,50.19662,41.68271,-37.67262,20.88108,8.905665,14.65813,30.86509,49.37346,19.67835,70.24833,0,0,0,-9.464729,-100.1079,61.69425,30.56234,-57.3703,26.69084,0.001067912,-0.1257102,0.09433498,0,0.3,0,0.2777193,0.1858076,0.2777193
6.38259E+17,-2.355996,-16.59852,50.19662,41.75596,-37.67262,20.95433,8.811425,13.55936,29.18408,49.73968,19.53186,72.88515,0,0,0,-9.464729,-100.1079,61.69425,29.81812,-61.80797,24.00958,0.001067912,-0.1257102,0.09433498,0,0.3,0,0.2669774,0.1977777,0.2669774
6.38259E+17,-2.355996,-16.59852,50.19662,41.75596,-37.67262,20.95433,8.693625,12.27356,27.97002,50.10591,19.16564,76.10795,0,0,0,-9.464729,-100.1079,61.69425,29.14862,-66.07633,22.2789,0.001067912,-0.1257102,0.09433498,0,0.3,0,0.2562889,0.2093301,0.2562889
6.38259E+17,-2.355996,-16.59852,50.19662,41.75596,-37.67262,20.95433,8.670066,11.57221,27.50308,50.2524,19.16564,77.64609,0,0,0,-9.464729,-100.1079,61.69425,28.97606,-68.17921,21.67334,0.001067912,-0.1257102,0.09433498,0,0.3,0,0.2512949,0.2149727,0.2512949
6.38259E+17,-2.355996,-16.59852,50.19662,41.75596,-37.67262,20.95433,8.622946,10.52019,26.54584,50.76511,19.23888,80.42941,0,0,0,-9.464729,-100.1079,61.69425,28.59256,-71.59454,20.19877,0.001067912,-0.1257102,0.09433498,0,0.3,0,0.2442786,0.2259003,0.2442786
6.38259E+17,-2.355996,-16.59852,50.19662,41.75596,-37.74586,20.88108,8.458026,9.538307,25.5886,51.13134,19.45862,83.5057,0,0,0,-9.464729,-100.1079,61.69425,27.81391,-74.8238,18.69447,0.001067912,-0.1257102,0.09433498,0,0.3,0,0.2377766,0.236345,0.2377766
6.38259E+17,-2.355996,-16.59852,50.19662,41.75596,-37.67262,20.95433,8.410906,8.72007,24.93488,51.27783,19.89809,86.87498,0,0,0,-9.464729,-100.1079,61.69425,27.50301,-77.35332,17.65501,0.001067912,-0.1257102,0.09433498,0,0.3,0,0.2330299,0.2463115,0.2330299
6.38259E+17,-2.355996,-16.59852,50.19662,41.68271,-37.67262,20.95433,8.410906,8.416153,24.63136,51.27783,20.11782,88.19339,0,0,0,-9.464729,-100.1079,61.69425,27.42461,-78.34887,17.12481,0.001067912,-0.1257102,0.09433498,0,0.3,0,0.2314563,0.2510951,0.2314563
6.38259E+17,-2.355996,-16.59852,50.19662,41.75596,-37.67262,20.95433,8.387346,7.948589,24.32785,51.35107,20.63054,90.17101,0,0,0,-9.464729,-100.1079,61.69425,27.27716,-79.7187,16.65328,0.001067912,-0.1257102,0.09433498,0,0.3,0,0.2278219,0.2603006,0.2278219
6.38259E+17,-2.355996,-16.59852,50.19662,41.75596,-37.67262,20.88108,8.434465,7.621294,24.23446,51.35107,20.92352,91.26969,0,0,0,-9.464729,-100.1079,61.69425,27.41537,-80.56281,16.53686,0.001067912,-0.1257102,0.09433498,0,0.3,0,0.2247402,0.2690499,0.2247402
6.38259E+17,-2.355996,-16.59852,50.19662,41.75596,-37.67262,20.95433,8.434465,7.504403,24.23446,51.42432,21.07001,91.56267,0,0,0,-9.464729,-100.1079,61.69425,27.42062,-80.83249,16.57228,0.001067912,-0.1257102,0.09433498,0,0.3,0,0.2230517,0.2732643,0.2230517
6.38259E+17,-2.355996,-16.59852,50.19662,41.75596,-37.74586,20.88108,8.458026,7.247243,24.21111,51.35107,21.43624,92.14863,0,0,0,-9.464729,-100.1079,61.69425,27.50067,-81.44834,16.58797,0.001067912,-0.1257102,0.09433498,0,0.3,0,0.2176389,0.289118,0.2176389
6.38259E+17,-2.355996,-16.59852,50.19662,41.75596,-37.67262,20.95433,8.458026,7.177108,24.21111,51.27783,21.50948,92.36837,0,0,0,-9.464729,-100.1079,61.69425,27.50369,-81.61028,16.60825,0.001067912,-0.1257102,0.09433498,0,0.3,0,0.2162767,0.2928482,0.2162767
6.38259E+17,-2.355996,-16.59852,50.19662,41.75596,-37.67262,20.95433,8.458026,7.106974,24.21111,51.27783,21.58273,92.5881,0,0,0,-9.464729,-100.1079,61.69425,27.50667,-81.77225,16.62832,0.001067912,-0.1257102,0.09433498,0,0.3,0,0.2138584,0.3000486,0.2138584
6.38259E+17,-2.355996,-16.59852,50.19662,41.75596,-37.67262,20.95433,8.481586,7.060217,24.21111,51.20458,21.65597,92.80784,0,0,0,-9.464729,-100.1079,61.69425,27.58471,-81.88024,16.63027,0.001067912,-0.1257102,0.09433498,0,0.3,0,0.2118064,0.3069178,0.2118064
6.38259E+17,-2.355996,-16.59852,50.19662,41.68271,-37.67262,20.88108,8.481586,7.013461,24.21111,51.13134,21.80246,92.88109,0,0,0,-9.464729,-100.1079,61.69425,27.58668,-81.98824,16.64345,0.001067912,-0.1257102,0.09433498,0,0.3,0,0.2096624,0.3134769,0.2096624
6.38259E+17,-2.355996,-16.59852,50.19662,41.75596,-37.67262,20.95433,8.481586,6.990083,24.21111,51.13134,21.87571,92.95433,0,0,0,-9.464729,-100.1079,61.69425,27.58766,-82.04224,16.65001,0.001067912,-0.1257102,0.09433498,0,0.3,0,0.2076786,0.3197473,0.2076786
6.38259E+17,-2.355996,-16.59852,50.19662,41.75596,-37.67262,20.95433,8.481586,6.990083,24.21111,51.13134,21.87571,92.95433,0,0,0,-9.464729,-100.1079,61.69425,27.58766,-82.04224,16.65001,0.001067912,-0.1257102,0.09433498,0,0.3,0,0.2067527,0.3227799,0.2067527
6.38259E+17,-2.355996,-16.59852,50.19662,41.75596,-37.67262,20.95433,8.481586,6.943326,24.21111,51.13134,21.87571,92.95433,0,0,0,-9.464729,-100.1079,61.69425,27.5896,-82.15026,16.66306,0.001067912,-0.1257102,0.09433498,0,0.3,0,0.2048241,0.3286538,0.2048241
6.38259E+17,-2.355996,-16.59852,50.19662,41.75596,-37.67262,20.95433,8.481586,6.89657,24.21111,51.13134,21.94895,92.95433,0,0,0,-9.464729,-100.1079,61.69425,27.59154,-82.25829,16.67603,0.001067912,-0.1257102,0.09433498,0,0.3,0,0.2029723,0.3342859,0.2029723
6.38259E+17,-2.355996,-16.59852,50.19662,41.75596,-37.67262,20.95433,8.481586,6.873192,24.21111,51.13134,21.94895,92.95433,0,0,0,-9.464729,-100.1079,61.69425,27.5925,-82.31231,16.68248,0.001067912,-0.1257102,0.09433498,0,0.3,0,0.2020737,0.3370161,0.2020737
6.38259E+17,-2.355996,-16.59852,50.19662,41.75596,-37.67262,20.95433,8.481586,6.803057,24.21111,51.13134,21.94895,92.95433,0,0,0,-9.464729,-100.1079,61.69425,27.59536,-82.47438,16.70171,0.001067912,-0.1257102,0.09433498,0,0.3,0,0.2002624,0.3423159,0.2002624
6.38259E+17,-2.355996,-16.59852,50.19662,41.68271,-37.67262,20.95433,8.481586,6.756301,24.21111,51.13134,21.94895,92.95433,0,0,0,-9.464729,-100.1079,61.69425,27.59726,-82.58244,16.71441,0.001067912,-0.1257102,0.09433498,0,0.3,0,0.1985825,0.3474104,0.1985825
6.38259E+17,-2.355996,-16.59852,50.19662,41.75596,-37.67262,20.95433,8.481586,6.732923,24.23446,51.13134,21.94895,92.95433,0,0,0,-9.464729,-100.1079,61.69425,27.60551,-82.61417,16.76974,0.001067912,-0.1257102,0.09433498,0,0.3,0,0.1969456,0.3523108,0.1969456
6.38259E+17,-2.355996,-16.59852,50.19662,41.68271,-37.67262,20.95433,8.481586,6.732923,24.23446,51.13134,21.94895,92.95433,0,0,0,-9.464729,-100.1079,61.69425,27.60551,-82.61417,16.76974,0.001067912,-0.1257102,0.09433498,0,0.3,0,0.1962222,0.3546897,0.1962222
6.38259E+17,-2.355996,-16.59852,50.19662,41.68271,-37.67262,20.95433,8.458026,6.732923,24.28116,51.13134,21.94895,92.95433,0,0,0,-9.464729,-100.1079,61.69425,27.54396,-82.56953,16.87909,0.001067912,-0.1257102,0.09433498,0,0.3,0,0.1944767,0.3593198,0.1944767
6.38259E+17,-2.355996,-16.59852,50.19662,41.75596,-37.67262,20.88108,8.458026,6.709544,24.28116,51.13134,21.94895,92.80784,0,0,0,-9.464729,-100.1079,61.69425,27.5449,-82.62357,16.88538,0.001067912,-0.1257102,0.09433498,0,0.3,0,0.193059,0.3637841,0.193059
6.38259E+17,-2.355996,-16.59852,50.19662,41.75596,-37.67262,20.88108,8.458026,6.709544,24.3045,51.13134,21.87571,92.7346,0,0,0,-9.464729,-100.1079,61.69425,27.55218,-82.60121,16.93437,0.001067912,-0.1257102,0.09433498,0,0.3,0,0.1916732,0.3680878,0.1916732
6.38259E+17,-2.355996,-16.59852,50.19662,41.68271,-37.67262,20.95433,8.458026,6.709544,24.3045,51.13134,21.87571,92.7346,0,0,0,-9.464729,-100.1079,61.69425,27.55218,-82.60121,16.93437,0.001067912,-0.1257102,0.09433498,0,0.3,0,0.1910384,0.3701808,0.1910384
6.38259E+17,-2.355996,-16.59852,50.19662,41.75596,-37.67262,20.88108,8.458026,6.709544,24.32785,51.13134,21.87571,92.29513,0,0,0,-9.464729,-100.1079,61.69425,27.55947,-82.57883,16.98335,0.001067912,-0.1257102,0.09433498,0,0.3,0,0.1897228,0.3742579,0.1897228
6.38259E+17,-2.355996,-16.59852,50.19662,41.68271,-37.67262,20.95433,8.458026,6.709544,24.37455,51.20458,21.80246,91.70916,0,0,0,-9.464729,-100.1079,61.69425,27.57403,-82.53403,17.08128,0.001067912,-0.1257102,0.09433498,0,0.3,0,0.1883724,0.3781962,0.1883724
6.38259E+17,-2.355996,-16.59852,50.19662,41.75596,-37.67262,20.95433,8.458026,6.709544,24.39789,51.13134,21.80246,91.41618,0,0,0,-9.464729,-100.1079,61.69425,27.58131,-82.51159,17.13024,0.001067912,-0.1257102,0.09433498,0,0.3,0,0.187713,0.3801162,0.187713
6.38259E+17,-2.355996,-16.59852,50.19662,41.75596,-37.67262,20.95433,8.458026,6.709544,24.46794,51.20458,21.72922,90.61049,0,0,0,-9.464729,-100.1079,61.69425,27.60314,-82.44416,17.27704,0.001067912,-0.1257102,0.09433498,0,0.3,0,0.1863476,0.3838633,0.1863476
6.38259E+17,-2.355996,-16.59852,50.19662,41.68271,-37.67262,20.95433,8.458026,6.709544,24.70141,50.98485,21.58273,87.53419,0,0,0,-9.464729,-100.1079,61.69425,27.67582,-82.21809,17.76579,0.001067912,-0.1257102,0.09433498,0,0.3,0,0.1844911,0.3875066,0.1844911
6.38259E+17,-2.355996,-16.59852,50.19662,41.68271,-37.67262,20.95433,8.387346,6.709544,24.98158,50.54538,21.36299,82.99299,0,0,0,-9.464729,-100.1079,61.69425,27.53251,-81.94415,18.38518,0.001067912,-0.1257102,0.09433498,0,0.3,0,0.1820279,0.3910708,0.1820279
6.38259E+17,-2.355996,-16.59852,50.19662,41.75596,-37.67262,20.95433,8.340226,6.732923,25.12166,50.10591,21.2165,79.98994,0,0,0,-9.464729,-100.1079,61.69425,27.42085,-81.75207,18.6937,0.001067912,-0.1257102,0.09433498,0,0.3,0,0.1807933,0.3928299,0.1807933
6.38259E+17,-2.497356,-16.59852,50.19662,40.73053,-37.9656,21.10082,8.269547,6.89657,25.44852,49.08047,21.2165,73.54436,0,0,0,-10.03226,-100.1079,61.6702,27.28253,-81.04896,19.36336,0.001067912,-0.1257102,0.09433498,0,0.3,0,0.1797426,0.3962714,0.1797426
6.38259E+17,-2.732955,-16.59852,50.19662,36.04284,-38.55156,20.5881,8.151747,7.714807,25.91546,48.34802,21.43624,67.53825,0,0,0,-10.97802,-100.1079,61.627,27.00107,-78.68909,20.14885,0.001067912,-0.1257102,0.09433498,0,0.3,0,0.1806742,0.3995526,0.1806742
6.38259E+17,-3.015675,-16.59852,50.19662,29.15779,-38.99103,16.70611,8.128186,9.257769,26.52249,47.54232,21.58273,62.33785,0,0,0,-12.11267,-100.1079,61.57003,27.02783,-74.51326,20.89003,0.001067912,-0.1257102,0.09433498,0,0.3,0,0.1851514,0.4025764,0.1851514
6.38259E+17,-3.157035,-16.59852,50.17327,25.935,-39.06427,14.43551,8.128186,10.4033,26.89605,47.1761,21.50948,59.55453,0,0,0,-12.67798,-100.1497,61.50471,27.07328,-71.49557,21.20825,0.001067912,-0.1257102,0.09433498,0,0.3,0,0.1890758,0.4039513,0.1890758
6.38259E+17,-2.874315,-16.59852,50.12658,21.24731,-39.13752,11.87193,8.104627,13.23206,27.7132,46.07742,20.63054,54.7936,0,0,0,-11.54014,-100.2331,61.49492,27.04351,-64.17972,21.5577,0.001067912,-0.1257102,0.09433498,0,0.3,0,0.1964973,0.4064262,0.1964973
6.38259E+17,-2.638716,-16.6219,50.12658,18.83022,-38.91778,10.62676,8.033947,15.99069,28.95061,44.75901,19.01915,50.83836,0,0,0,-10.59421,-100.2852,61.52489,26.93716,-56.60081,22.49737,0.001067912,-0.1257102,0.09433498,0,0.3,0,0.2057469,0.4085242,0.2057469
6.38259E+17,-2.638716,-16.64528,50.12658,17.95128,-38.77129,10.26054,7.869027,17.46352,29.93119,44.24629,18.21345,48.86074,0,0,0,-10.5935,-100.3374,61.50933,26.52476,-52.19634,23.5656,0.001067912,-0.1257102,0.09433498,0,0.3,0,0.2116107,0.4093974,0.2116107
6.38259E+17,-2.638716,-16.69204,50.12658,16.55962,-38.47831,9.747819,7.515628,20.43255,33.31655,43.4406,16.30907,43.36735,0,0,0,-10.59206,-100.4416,61.47815,25.92448,-41.53068,28.15178,0.001067912,-0.1257102,0.09433498,0,0.3,0,0.22659,0.4107386,0.22659
6.38259E+17,-2.662276,-16.69204,50.12658,15.75392,-38.03884,9.528083,6.950189,22.34956,35.8147,43.51384,14.77092,37.94721,0,0,0,-10.68656,-100.4416,61.47377,24.36642,-34.07815,31.53508,0.001067912,-0.1257102,0.09433498,0,0.3,0,0.2377116,0.4116279,0.2377116
6.38259E+17,-2.662276,-16.69204,50.12658,15.31445,-37.81911,9.601329,6.47899,23.35482,37.02876,43.51384,13.89198,34.28495,0,0,0,-10.68656,-100.4416,61.47377,22.8758,-30.24458,33.08501,0.001067912,-0.1257102,0.09433498,0,0.3,0,0.2435405,0.4119155,0.2435405
6.38259E+17,-2.662276,-16.69204,50.12658,14.14253,-37.01341,10.40703,5.230311,25.17833,39.52692,43.51384,12.35384,25.56878,0,0,0,-10.68656,-100.4416,61.47377,18.73778,-22.77425,36.34368,0.001067912,-0.1257102,0.09433498,0,0.3,0,0.2550282,0.4121938,0.2550282
6.38259E+17,-2.662276,-16.69204,50.12658,12.82412,-36.13447,11.35921,3.628234,26.69791,41.11454,43.4406,11.25516,17.43856,0,0,0,-10.68656,-100.4416,61.47377,13.08803,-17.2031,38.0552,0.001067912,-0.1257102,0.09433498,0,0.3,0,0.263578,0.412174,0.263578
6.38259E+17,-2.662276,-16.69204,50.12658,11.65219,-35.18228,12.67763,1.955477,27.93695,41.95504,43.00113,10.37621,11.21272,0,0,0,-10.68656,-100.4416,61.47377,7.062094,-13.34392,38.49012,0.001067912,-0.1257102,0.09433498,0,0.3,0,0.2699533,0.4119373,0.2699533
6.38259E+17,-2.638716,-16.64528,50.14993,11.06623,-34.52307,13.48332,1.036638,28.38114,42.37529,42.48841,9.8635,8.575896,0,0,0,-10.5951,-100.2957,61.54412,3.748573,-11.77592,38.81384,0.001067912,-0.1257102,0.09433498,0,0.3,0,0.2720867,0.4117697,0.2720867
6.38259E+17,-2.544476,-16.31799,50.17327,9.967555,-32.76519,14.72849,-0.4711992,28.61492,43.19244,41.53622,9.350782,4.400921,0,0,0,-10.2281,-99.52349,61.81191,-1.713314,-10.00596,39.97689,0.001067912,-0.1257102,0.09433498,0,0.3,0,0.272314,0.4114334,0.272314
6.38259E+17,-2.191077,-15.40624,50.21997,9.381593,-30.86081,15.46094,-1.602077,28.6383,43.91621,40.73053,9.643764,0.5189275,0,0,0,-8.833109,-97.39882,62.5197,-5.857977,-8.797527,41.09674,0.001067912,-0.1257102,0.09433498,0,0.3,0,0.2685048,0.4111929,0.2685048
6.38259E+17,-1.837677,-14.49449,50.26667,9.235103,-29.68889,15.60743,-2.214636,28.6383,44.33646,40.29105,10.00999,-1.458692,0,0,0,-7.428734,-95.26512,63.18641,-8.12396,-8.11654,41.72369,0.001067912,-0.1257102,0.09433498,0,0.3,0,0.264259,0.4111566,0.264259
6.38259E+17,-0.8481586,-11.96964,50.80365,9.747819,-27.49154,15.82717,-3.251275,28.77857,44.63997,39.41211,11.10867,-4.608234,0,0,0,-3.460777,-88.58043,65.41926,-11.94292,-7.335191,41.8889,0.001067912,-0.1257102,0.09433498,0,0.3,0,0.2501905,0.411374,0.2501905
6.38259E+17,0.3769594,-8.486288,52.04106,11.35921,-25.95339,15.53419,-4.005194,29.01235,44.61663,38.0937,12.06085,-7.171815,0,0,0,1.559452,-78.35196,68.67488,-14.68714,-6.897,41.4127,0.001067912,-0.1257102,0.09433498,0,0.3,0,0.2298091,0.4121446,0.2298091
6.38259E+17,1.743437,-3.740513,54.00222,14.14253,-25.73365,14.582,-4.452833,29.12924,44.63997,36.6288,12.79331,-9.808641,0,0,0,7.33071,-63.72645,72.48985,-16.31825,-6.621049,41.19832,0.001067912,-0.1257102,0.09433498,0,0.3,0,0.203118,0.4136159,0.203118
6.38259E+17,2.450236,-0.7714807,55.30967,15.75392,-26.24637,14.06928,-4.570632,29.15262,44.68667,35.89634,13.01304,-10.98056,0,0,0,10.38795,-54.3404,74.41148,-16.75309,-6.497132,41.21497,0.001067912,-0.1257102,0.09433498,0,0.3,0,0.1880386,0.4146348,0.1880386
6.38259E+17,3.463314,4.652263,58.83511,19.1232,-28.22399,13.04385,-4.570632,29.12924,44.94349,34.94416,13.01304,-12.95818,0,0,0,14.92208,-34.84323,78.21465,-16.78899,-6.123369,41.66404,0.001067912,-0.1257102,0.09433498,0,0.3,0,0.1639824,0.4171638,0.1639824
6.38259E+17,3.722474,8.603179,63.27109,23.44467,-31.0073,10.70001,-4.429273,29.12924,45.01353,34.50468,12.28059,-14.2766,0,0,0,16.29263,-16.67894,82.07094,-16.2797,-6.008143,41.81979,0.001067912,-0.1257102,0.09433498,0,0.3,0,0.153317,0.4199958,0.153317
6.38259E+17,3.722474,10.14614,65.23226,25.935,-32.39896,7.696954,-4.311473,29.12924,45.13026,34.3582,11.54814,-14.71607,0,0,0,16.38339,-9.0249,83.46583,-15.86198,-5.815788,42.04415,0.001067912,-0.1257102,0.09433498,0,0.3,0,0.1521412,0.4214178,0.1521412
6.38259E+17,3.416194,12.36707,67.77711,30.03673,-34.59632,-1.824918,-4.099433,29.10587,45.71395,34.28495,10.08323,-15.22878,0,0,0,15.11763,1.475711,84.89957,-15.15331,-4.8957,43.07885,0.001067912,-0.1257102,0.09433498,0,0.3,0,0.1497464,0.4242542,0.1497464
6.38259E+17,3.133475,12.9749,68.54758,31.64813,-35.5485,-9.808641,-3.816714,29.10587,46.22758,34.72442,9.204292,-15.44852,0,0,0,13.88732,4.520399,85.32726,-14.16516,-4.036197,43.98007,0.001067912,-0.1257102,0.09433498,0,0.3,0,0.1452077,0.4271059,0.1452077
6.38259E+17,3.274835,12.95152,69.27133,31.50163,-35.32877,-16.03448,-3.581114,29.10587,46.71788,35.31038,8.618331,-15.59501,0,0,0,14.54847,6.039014,85.90956,-13.34103,-3.208844,44.82086,0.001067912,-0.1257102,0.09433498,0,0.3,0,0.1439813,0.4299311,0.1439813
6.38259E+17,3.510434,13.02166,69.73828,31.20865,-35.10904,-19.03753,-3.486874,29.10587,46.99805,35.60336,8.471841,-15.66825,0,0,0,15.61491,7.216044,86.19077,-13.01751,-2.733062,45.28757,0.001067912,-0.1257102,0.09433498,0,0.3,0,0.1447634,0.4313016,0.1447634
6.38259E+17,4.358593,13.13855,70.20523,30.84243,-34.44983,-26.14231,-3.345515,29.08249,47.51169,35.96959,8.105616,-15.81474,0,0,0,19.40468,8.502078,86.24147,-12.53928,-1.9027,46.15546,0.001067912,-0.1257102,0.09433498,0,0.3,0,0.1480381,0.4339171,0.1480381
6.38259E+17,5.630831,13.02166,70.22857,30.91567,-33.2779,-36.39664,-3.321954,29.01235,48.14206,36.26257,7.519653,-16.18097,0,0,0,25.06041,8.288216,85.82745,-12.51274,-0.9580824,47.22306,0.001067912,-0.1257102,0.09433498,0,0.3,0,0.1540508,0.4363137,0.1540508
6.38259E+17,6.29051,12.90477,70.11184,31.20865,-32.39896,-42.40274,-3.321954,28.94222,48.49227,36.33582,7.080183,-16.40071,0,0,0,27.98176,7.767516,85.49112,-12.54873,-0.4921511,47.84312,0.001067912,-0.1257102,0.09433498,0,0.3,0,0.1573297,0.4374186,0.1573297
6.38259E+17,7.138669,12.83463,69.06121,31.79461,-30.27485,-54.78117,-3.321954,28.75519,48.98256,36.33582,6.05475,-16.62044,0,0,0,31.63474,5.316752,84.23893,-12.60451,-0.01565331,48.8041,0.001067912,-0.1257102,0.09433498,0,0.3,0,0.1595428,0.4395252,0.1595428
6.38259E+17,7.303588,12.85801,67.84715,31.42839,-27.63803,-68.47802,-3.298395,28.52141,49.58959,36.40906,5.029318,-16.47395,0,0,0,32.22821,2.741697,83.10558,-12.58324,0.5776686,49.98962,0.001067912,-0.1257102,0.09433498,0,0.3,0,0.1556784,0.4416339,0.1556784
6.38259E+17,7.444948,12.88139,66.95996,30.54945,-25.07445,-86.93581,-3.298395,28.17073,50.26667,36.55555,3.78415,-15.59501,0,0,0,32.74413,0.8884127,82.22658,-12.66391,1.065238,51.38922,0.001067912,-0.1257102,0.09433498,0,0.3,0,0.1526556,0.4437717,0.1526556
6.38259E+17,7.492068,12.88139,66.44632,30.10997,-23.5363,-99.53397,-3.298395,28.03047,50.47679,36.70204,3.271434,-15.30203,0,0,0,32.88854,-0.2095604,81.73081,-12.6907,1.153921,51.85413,0.001067912,-0.1257102,0.09433498,0,0.3,0,0.1513229,0.4448445,0.1513229
6.38259E+17,7.492068,12.88139,65.32565,29.37753,-20.75298,-117.5523,-3.251275,27.93695,50.66357,36.99502,2.392492,-15.00905,0,0,0,32.7496,-2.590153,80.67432,-12.53105,1.297494,52.24211,0.001067912,-0.1257102,0.09433498,0,0.3,0,0.148226,0.4470027,0.148226
6.38259E+17,7.515628,12.92815,64.13494,28.35209,-17.82317,-127.5869,-3.086355,27.93695,50.66357,37.288,1.66004,-15.22878,0,0,0,32.69409,-4.990105,79.46393,-11.89605,1.297494,52.27726,0.001067912,-0.1257102,0.09433498,0,0.3,0,0.1448684,0.4491865,0.1448684
6.38259E+17,7.633427,12.9749,63.78473,27.39991,-14.89337,-128.9053,-2.992115,27.93695,50.59352,37.58098,1.147324,-16.40071,0,0,0,33.15275,-5.616386,79.01736,-11.52775,1.171476,52.19326,0.001067912,-0.1257102,0.09433498,0,0.3,0,0.1441689,0.4513527,0.1441689
6.38259E+17,7.704108,12.99828,63.80808,27.03368,-13.35522,-129.2715,-2.968555,27.93695,50.40675,37.58098,0.9275885,-17.05991,0,0,0,33.45946,-5.514613,78.98794,-11.42274,0.8360448,51.92185,0.001067912,-0.1257102,0.09433498,0,0.3,0,0.1445512,0.4524061,0.1445512
6.38259E+17,7.774787,13.16193,64.15829,26.66745,-10.71839,-133.4465,-2.732955,27.93695,50.07989,37.36125,0.5613627,-18.0121,0,0,0,33.80125,-4.411144,79.21531,-10.49369,0.251216,51.481,0.001067912,-0.1257102,0.09433498,0,0.3,0,0.1431104,0.454493,0.1431104
6.38259E+17,7.774787,13.5126,64.88205,26.44772,-8.667529,-140.6245,-2.355996,27.93695,50.05654,37.21476,0.04864649,-18.59806,0,0,0,33.87381,-2.096363,79.74676,-9.045735,0.2095489,51.51043,0.001067912,-0.1257102,0.09433498,0,0.3,0,0.1397267,0.4565974,0.1397267
6.38259E+17,7.845467,13.93341,66.53971,26.59421,-7.349115,-140.478,-2.002597,27.91357,50.03319,37.43449,-0.171089,-18.89104,0,0,0,34.36474,2.371457,81.04667,-7.689147,0.1198212,51.55264,0.001067912,-0.1257102,0.09433498,0,0.3,0,0.1391574,0.4586889,0.1391574
6.38259E+17,8.057507,14.0503,67.21678,26.96043,-7.202625,-137.9877,-1.837677,27.91357,49.9865,37.58098,-0.2443342,-18.96429,0,0,0,35.36498,4.084659,81.46535,-7.053911,0.03655803,51.50405,0.001067912,-0.1257102,0.09433498,0,0.3,0,0.140725,0.459691,0.140725
6.38259E+17,8.222426,14.75165,67.68372,27.91262,-6.763155,-137.3285,-1.413598,28.07722,49.68298,37.94721,0.04864649,-19.03753,0,0,0,36.08545,6.669348,81.3732,-5.410815,-0.1669574,50.91603,0.001067912,-0.1257102,0.09433498,0,0.3,0,0.1397688,0.4616621,0.1397688
6.38259E+17,8.222426,16.80893,68.03393,28.35209,-6.689909,-140.0385,-0.7774788,28.49803,49.68298,38.38668,0.5613627,-18.96429,0,0,0,35.94316,12.03172,80.38857,-2.969861,0.6954684,50.4985,0.001067912,-0.1257102,0.09433498,0,0.3,0,0.1350465,0.4636775,0.1350465
6.38259E+17,8.198866,18.04797,68.26741,28.49858,-7.056135,-141.2837,-0.3298394,28.59154,49.86976,38.67966,0.6346079,-18.8178,0,0,0,35.74654,15.28738,79.74861,-1.26099,1.218565,50.69174,0.001067912,-0.1257102,0.09433498,0,0.3,0,0.131436,0.464728,0.131436
6.38259E+17,8.198866,20.47931,69.06121,28.57183,-8.154812,-141.9429,0.5418791,28.59154,50.75696,39.48536,0.707853,-18.74455,0,0,0,35.57619,22.3497,78.56625,2.084077,2.807557,52.0041,0.001067912,-0.1257102,0.09433498,0,0.3,0,0.1252812,0.4669082,0.1252812
6.38259E+17,8.175306,22.32619,69.66824,28.71832,-9.546471,-142.0162,1.366478,28.49803,52.08775,40.29105,0.4148723,-18.74455,0,0,0,35.32241,27.67367,77.52111,5.303617,5.037663,53.98605,0.001067912,-0.1257102,0.09433498,0,0.3,0,0.1177208,0.4691948,0.1177208
6.38259E+17,8.175306,23.86915,69.85503,28.79156,-10.49866,-142.0162,2.214636,28.14736,53.55863,41.24324,-0.171089,-18.74455,0,0,0,35.14347,31.38465,76.27554,8.689091,7.046747,56.33714,0.001067912,-0.1257102,0.09433498,0,0.3,0,0.1085931,0.4716442,0.1085931
6.38259E+17,8.175306,24.54711,69.92506,28.64507,-10.71839,-142.0162,2.615156,28.05384,54.14231,41.68271,-0.2443342,-18.74455,0,0,0,35.05943,32.97686,75.69057,10.30076,7.951684,57.17382,0.001067912,-0.1257102,0.09433498,0,0.3,0,0.1048257,0.4729182,0.1048257
6.38259E+17,8.175306,25.87967,70.13519,28.42534,-11.01137,-142.0162,3.369075,27.93695,55.21629,42.48841,-0.171089,-18.74455,0,0,0,34.89531,36.24235,74.54819,13.35973,9.750903,58.58885,0.001067912,-0.1257102,0.09433498,0,0.3,0,0.09882807,0.4755265,0.09882807
6.38259E+17,8.175306,27.09534,70.11184,27.83937,-10.5719,-142.0162,4.122993,27.82006,56.57042,43.14762,0.04864649,-18.74455,0,0,0,34.71325,38.72355,73.28086,16.48084,12.11989,60.28291,0.001067912,-0.1257102,0.09433498,0,0.3,0,0.09071102,0.4782589,0.09071102
6.38259E+17,8.175306,27.63304,70.32196,27.32666,-9.619716,-142.0162,4.806232,27.72655,57.78448,43.80682,0.268382,-18.74455,0,0,0,34.65498,40.29513,72.87533,19.34282,14.30178,61.69736,0.001067912,-0.1257102,0.09433498,0,0.3,0,0.0834709,0.4811026,0.0834709
6.38259E+17,8.175306,27.7733,70.55544,27.10692,-9.106999,-142.0162,5.159632,27.65641,58.29812,44.17305,0.3416272,-18.74455,0,0,0,34.65928,41.09619,72.90519,20.82509,15.17149,62.27942,0.001067912,-0.1257102,0.09433498,0,0.3,0,0.08084351,0.4825537,0.08084351
6.38259E+17,8.175306,28.42789,71.23251,26.88719,-7.935077,-142.0162,5.93711,27.49277,59.3721,44.75901,0.4148723,-18.74455,0,0,0,34.63058,43.92909,72.70544,24.10465,16.97268,63.43754,0.001067912,-0.1257102,0.09433498,0,0.3,0,0.07817492,0.4854621,0.07817492
6.38259E+17,8.175306,29.29289,72.30648,26.7407,-6.909645,-142.0162,6.667469,27.30574,60.6562,45.34497,0.4881175,-18.8178,0,0,0,34.60359,48.06628,72.51761,27.25393,19.17475,64.79394,0.001067912,-0.1257102,0.09433498,0,0.3,0,0.07879116,0.4883024,0.07879116
6.38259E+17,8.057507,29.3864,73.54388,26.15474,-6.250438,-142.0162,7.492068,27.18885,61.8936,46.15067,0.6346079,-19.40376,0,0,0,34.21188,51.00894,73.3199,30.8031,21.45836,65.87334,0.001067912,-0.1257102,0.09433498,0,0.3,0,0.07802597,0.491098,0.07802597
6.38259E+17,8.057507,29.36302,74.22095,25.71527,-5.737722,-142.0162,7.892587,27.07196,62.50063,46.59014,0.7810982,-19.98972,0,0,0,34.27693,52.47539,73.77946,32.54716,22.46593,66.4279,0.001067912,-0.1257102,0.09433498,0,0.3,0,0.07852848,0.4924674,0.07852848
6.38259E+17,8.057507,29.3864,75.45837,24.68983,-4.639044,-142.0894,8.740746,26.65115,63.73803,47.24934,0.9275885,-21.52787,0,0,0,34.37876,55.30246,74.49875,36.28405,24.16093,67.64474,0.001067912,-0.1257102,0.09433498,0,0.3,0,0.08063832,0.4951228,0.08063832
6.38259E+17,8.128186,29.3864,76.509,23.15168,-3.467122,-142.0894,9.565345,25.92643,65.27895,48.20153,0.8543434,-23.21251,0,0,0,34.76204,57.67485,75.04243,40.05721,25.88577,69.35674,0.001067912,-0.1257102,0.09433498,0,0.3,0,0.0821915,0.4976803,0.0821915
6.38259E+17,8.175306,29.3864,77.37284,21.83327,-2.148709,-141.9429,10.31926,25.08481,66.98331,49.08047,1.000834,-25.11688,0,0,0,35.02679,59.63335,75.46342,43.62009,27.74522,71.21797,0.001067912,-0.1257102,0.09433498,0,0.3,0,0.0832167,0.5001619,0.0832167
6.38259E+17,8.198866,29.43316,77.90982,21.10082,-1.343012,-141.9429,10.6491,24.68738,67.80046,49.4467,1.074079,-26.14231,0,0,0,35.15757,60.94896,75.66087,45.20553,28.66182,72.06395,0.001067912,-0.1257102,0.09433498,0,0.3,0,0.08478172,0.5013614,0.08478172
6.38259E+17,8.198866,29.78383,78.72698,19.70916,-0.02459868,-141.8697,11.30878,24.03279,69.31803,50.03266,1.293814,-28.26642,0,0,0,35.15498,63.52098,75.64288,48.34689,30.56144,73.40972,0.001067912,-0.1257102,0.09433498,0,0.3,0,0.08827827,0.5036599,0.08827827
6.38259E+17,8.198866,30.39166,79.21727,18.90347,1.220569,-141.8697,11.87422,23.44834,70.74222,50.54538,1.51355,-29.95106,0,0,0,35.08497,65.86506,75.15697,51.07598,32.43155,74.56453,0.001067912,-0.1257102,0.09433498,0,0.3,0,0.0915823,0.5058374,0.0915823
6.38259E+17,8.198866,30.9995,79.59083,18.39075,2.246002,-141.6499,12.36898,23.09766,72.04967,51.05809,1.66004,-31.70894,0,0,0,35.00479,67.9361,74.60043,53.44868,34.56568,75.37764,0.001067912,-0.1257102,0.09433498,0,0.3,0,0.09383263,0.5079072,0.09383263
6.38259E+17,8.198866,31.25666,79.68422,18.24426,2.685472,-141.5767,12.60458,23.07429,72.68004,51.35107,1.586795,-32.51464,0,0,0,34.96624,68.66225,74.33289,54.55208,35.91381,75.61038,0.001067912,-0.1257102,0.09433498,0,0.3,0,0.09374648,0.5089211,0.09374648
6.38259E+17,8.198866,31.5372,79.70757,18.09777,3.271434,-139.9653,13.05222,23.09766,74.08087,52.01028,1.440305,-34.12604,0,0,0,34.91912,69.27303,74.00584,56.66217,39.08788,76.06433,0.001067912,-0.1257102,0.09433498,0,0.3,0,0.09110288,0.510959,0.09110288
6.38259E+17,8.198866,31.60733,79.68422,18.3175,3.78415,-139.8188,13.52342,23.1678,75.92531,52.81598,1.220569,-36.03041,0,0,0,34.90554,69.35863,73.91163,58.91504,43.38433,76.60771,0.001067912,-0.1257102,0.09433498,0,0.3,0,0.08636988,0.5130495,0.08636988
6.38259E+17,8.198866,31.60733,79.63753,18.46399,4.003886,-139.8921,13.73546,23.28469,76.76581,53.25545,1.147324,-36.83611,0,0,0,34.90276,69.25172,73.89233,59.90534,45.53521,76.73235,0.001067912,-0.1257102,0.09433498,0,0.3,0,0.08400483,0.51412,0.08400483
6.38259E+17,8.198866,31.60733,79.4274,18.90347,4.077131,-139.9653,14.13598,23.68212,78.28338,53.9879,0.8543434,-39.17995,0,0,0,34.89009,68.77082,73.80438,61.7134,49.83207,76.69004,0.001067912,-0.1257102,0.09433498,0,0.3,0,0.07971843,0.516301,0.07971843
6.38259E+17,8.198866,31.70084,79.38071,19.1232,4.223621,-139.8921,14.4187,24.14968,79.89434,54.7936,0.4881175,-41.5238,0,0,0,34.87095,68.84926,73.67155,62.98863,54.50829,76.64261,0.001067912,-0.1257102,0.09433498,0,0.3,0,0.07632203,0.518522,0.07632203
6.38259E+17,8.198866,31.86449,79.61417,19.1232,4.370111,-139.9653,14.48938,24.43022,80.59476,55.23307,-0.02459868,-42.47599,0,0,0,34.85647,69.7073,73.57104,63.29271,56.70998,76.57211,0.001067912,-0.1257102,0.09433498,0,0.3,0,0.07544031,0.5196338,0.07544031
6.38259E+17,8.198866,32.61259,80.43134,19.48943,4.003886,-140.185,14.56006,25.22508,81.71543,55.96552,-1.196521,-43.86765,0,0,0,34.771,73.05306,72.97787,63.50034,60.96612,76.13018,0.001067912,-0.1257102,0.09433498,0,0.3,0,0.07489867,0.5218329,0.07489867
6.38259E+17,8.198866,33.5711,81.34187,19.9289,3.124943,-140.6978,14.5365,26.2771,82.53259,56.77122,-1.928973,-44.74659,0,0,0,34.64518,77.01444,72.10457,63.19822,65.05528,75.37884,0.001067912,-0.1257102,0.09433498,0,0.3,0,0.07408617,0.5240065,0.07408617
6.38259E+17,8.198866,34.48285,82.41585,20.29512,2.319247,-141.5767,14.37158,27.11872,83.11626,57.35718,-2.58818,-45.18605,0,0,0,34.5262,81.24754,71.27877,62.3201,68.15302,74.8716,0.001067912,-0.1257102,0.09433498,0,0.3,0,0.07328768,0.5261585,0.07328768
6.38259E+17,8.198866,34.97379,83.04622,20.5881,1.733285,-141.5034,14.23022,27.39925,83.34974,57.50367,-2.807915,-45.33255,0,0,0,34.45984,83.64195,70.81823,61.66206,69.27303,74.79681,0.001067912,-0.1257102,0.09433498,0,0.3,0,0.07332882,0.5272196,0.07332882
6.38259E+17,8.198866,35.86216,84.0735,21.10082,0.4881175,-141.7964,14.01818,27.72655,83.58321,57.7234,-3.027651,-45.47904,0,0,0,34.3272,87.70268,69.89767,60.6914,70.48817,74.74136,0.001067912,-0.1257102,0.09433498,0,0.3,0,0.07497811,0.5292841,0.07497811
6.38259E+17,8.198866,36.65702,84.86732,21.68678,-0.7570504,-141.7964,13.80614,28.12398,83.62991,57.79665,-3.100896,-45.47904,0,0,0,34.19656,91.03326,68.99092,59.69087,71.41344,74.55538,0.001067912,-0.1257102,0.09433498,0,0.3,0,0.07651352,0.5312751,0.07651352
6.38259E+17,8.198866,37.28823,85.54439,22.34599,-2.002218,-141.9429,13.49986,28.45127,83.62991,57.7234,-3.393876,-45.47904,0,0,0,34.08934,93.77722,68.24676,58.30729,72.08422,74.51997,0.001067912,-0.1257102,0.09433498,0,0.3,0,0.07728375,0.5332073,0.07728375
6.38259E+17,8.198866,37.59215,85.8479,22.63897,-2.661425,-141.9429,13.3585,28.68506,83.62991,57.7234,-3.467122,-45.40579,0,0,0,34.03557,95.04324,67.87361,57.64779,72.56208,74.40994,0.001067912,-0.1257102,0.09433498,0,0.3,0,0.07745011,0.5341558,0.07745011
6.38259E+17,8.198866,38.05972,86.2915,23.15168,-3.833347,-142.0162,13.07578,29.33965,83.62991,57.65016,-3.906592,-45.2593,0,0,0,33.95049,96.93279,67.28312,56.28205,73.89439,73.97171,0.001067912,-0.1257102,0.09433498,0,0.3,0,0.07603059,0.5360459,0.07603059
6.38259E+17,8.198866,38.24674,86.6417,23.73765,-4.565799,-141.9429,12.81662,30.18126,83.69994,57.65016,-4.419309,-45.18605,0,0,0,33.91931,98.08861,67.06668,54.97372,75.75682,73.2933,0.001067912,-0.1257102,0.09433498,0,0.3,0,0.07234751,0.5379696,0.07234751
6.38259E+17,8.198866,38.2935,86.80514,23.95738,-4.785534,-142.0162,12.67526,30.62544,83.76999,57.57691,-4.639044,-45.18605,0,0,0,33.9128,98.55379,67.02149,54.26648,76.81049,72.93511,0.001067912,-0.1257102,0.09433498,0,0.3,0,0.06999751,0.5389544,0.06999751
6.38259E+17,8.198866,38.36363,87.132,24.4701,-5.00527,-142.0894,12.43966,31.60733,84.00346,57.65016,-5.444741,-45.18605,0,0,0,33.9041,99.44151,66.96111,53.03194,79.30719,72.0595,0.001067912,-0.1257102,0.09433498,0,0.3,0,0.06480329,0.5409843,0.06480329
6.38259E+17,8.198866,38.57404,87.43552,24.90957,-5.225006,-142.0894,12.27474,32.42557,84.33032,57.94314,-6.177193,-45.2593,0,0,0,33.86543,100.5305,66.69273,52.14152,81.67868,71.30016,0.001067912,-0.1257102,0.09433498,0,0.3,0,0.06090359,0.5430703,0.06090359
6.38259E+17,8.198866,38.73769,87.59894,25.34904,-5.371496,-142.1627,12.20406,33.10354,84.70388,58.30937,-6.836399,-45.2593,0,0,0,33.83385,101.208,66.47356,51.68289,83.87096,70.61086,0.001067912,-0.1257102,0.09433498,0,0.3,0,0.05736135,0.5451939,0.05736135
6.38259E+17,8.198866,38.80782,87.66898,25.64202,-5.444741,-142.1627,12.20406,33.40745,84.9607,58.60235,-7.12938,-45.2593,0,0,0,33.82023,101.4981,66.37904,51.61227,85.05775,70.28436,0.001067912,-0.1257102,0.09433498,0,0.3,0,0.05566736,0.5462686,0.05566736
6.38259E+17,8.198866,38.87795,87.73903,25.935,-5.517986,-142.1627,12.20406,33.85164,85.4043,59.04182,-7.422361,-45.33255,0,0,0,33.80656,101.7881,66.28418,51.50957,86.9473,69.80951,0.001067912,-0.1257102,0.09433498,0,0.3,0,0.05276122,0.5484363,0.05276122
6.38259E+17,8.222426,38.92471,87.76237,26.08149,-5.444741,-142.1627,12.20406,34.22569,85.8012,59.40804,-7.568851,-45.77202,0,0,0,33.89357,101.9271,66.20473,51.42153,88.58974,69.40245,0.001067912,-0.1257102,0.09433498,0,0.3,0,0.05000661,0.5506282,0.05000661
6.38259E+17,8.222426,39.01822,87.78572,26.22798,-5.371496,-142.2359,12.20406,34.59974,86.12807,59.70102,-7.715342,-46.28474,0,0,0,33.8743,102.1506,66.07135,51.32884,90.06679,68.97389,0.001067912,-0.1257102,0.09433498,0,0.3,0,0.04790672,0.5528319,0.04790672
6.38259E+17,8.222426,39.08836,87.85576,26.22798,-5.298251,-142.2359,12.20406,34.83352,86.26814,59.84751,-7.861832,-46.50447,0,0,0,33.86048,102.4403,65.9757,51.26791,90.83935,68.69215,0.001067912,-0.1257102,0.09433498,0,0.3,0,0.04704772,0.5539341,0.04704772
6.38259E+17,8.222426,39.29876,88.08924,26.37447,-5.225006,-142.2359,12.20406,35.23095,86.52496,60.06725,-8.008322,-47.01719,0,0,0,33.81897,103.3628,65.68845,51.1636,92.19328,68.20989,0.001067912,-0.1257102,0.09433498,0,0.3,0,0.04612619,0.5561262,0.04612619
6.38259E+17,8.222426,39.53254,88.34605,26.59421,-5.517986,-142.2359,12.20406,35.605,86.73509,60.21374,-8.154812,-47.31017,0,0,0,33.77222,104.3806,65.36492,51.06303,93.39095,67.74487,0.001067912,-0.1257102,0.09433498,0,0.3,0,0.04555168,0.5582961,0.04555168
6.38259E+17,8.222426,39.62605,88.46278,26.7407,-5.664476,-142.2359,12.20406,35.79203,86.87518,60.28699,-8.228058,-47.5299,0,0,0,33.75347,104.8199,65.23517,51.01318,94.06995,67.51437,0.001067912,-0.1257102,0.09433498,0,0.3,0,0.0450783,0.5593744,0.0450783
6.38259E+17,8.222426,39.74295,88.62622,26.96043,-5.810967,-142.2359,12.20406,36.09594,87.15534,60.50672,-8.374548,-47.82288,0,0,0,33.73001,105.4095,65.07279,50.93258,95.29379,67.14175,0.001067912,-0.1257102,0.09433498,0,0.3,0,0.04398662,0.5615225,0.04398662
6.38259E+17,8.222426,39.76632,88.71961,27.18017,-5.884212,-142.2359,12.22762,36.32973,87.41216,60.65321,-8.447793,-48.11587,0,0,0,33.72575,105.6687,65.04334,50.96733,96.32983,66.8343,0.001067912,-0.1257102,0.09433498,0,0.3,0,0.04295764,0.5636589,0.04295764
6.38259E+17,8.222426,39.83646,88.813,27.32666,-6.030703,-142.2359,12.27474,36.39986,87.5289,60.72646,-8.521038,-48.48209,0,0,0,33.71148,106.0114,64.94456,51.1427,96.7327,66.70946,0.001067912,-0.1257102,0.09433498,0,0.3,0,0.04304498,0.5657647,0.04304498
6.38259E+17,8.222426,39.88321,88.83634,27.32666,-6.030703,-142.2359,12.2983,36.42324,87.59894,60.87295,-8.447793,-48.62858,0,0,0,33.70166,106.1492,64.87663,51.23395,96.93935,66.66362,0.001067912,-0.1257102,0.09433498,0,0.3,0,0.04306956,0.5668044,0.04306956
6.38259E+17,8.222426,39.97673,88.95309,27.39991,-6.103948,-142.0162,12.32186,36.42324,87.64564,60.87295,-8.447793,-48.84832,0,0,0,33.68243,106.5878,64.74356,51.33155,97.04794,66.64694,0.001067912,-0.1257102,0.09433498,0,0.3,0,0.04344347,0.5688524,0.04344347
6.38259E+17,8.222426,40.14038,89.13986,27.39991,-6.177193,-142.0162,12.2983,36.42324,87.66898,60.94619,-8.374548,-48.9948,0,0,0,33.64841,107.3139,64.50813,51.23538,97.10223,66.6702,0.001067912,-0.1257102,0.09433498,0,0.3,0,0.04388226,0.5708605,0.04388226
6.38259E+17,8.222426,40.21051,89.2566,27.32666,-6.250438,-142.0162,12.2983,36.42324,87.66898,60.87295,-8.301303,-48.9948,0,0,0,33.63389,107.7103,64.40766,51.23538,97.10223,66.6702,0.001067912,-0.1257102,0.09433498,0,0.3,0,0.04426061,0.5718478,0.04426061
6.38259E+17,8.222426,40.44429,89.56011,27.39991,-6.396928,-142.0162,12.22762,36.42324,87.66898,60.94619,-8.228058,-49.06805,0,0,0,33.58458,108.8315,64.06638,50.94542,97.10223,66.73322,0.001067912,-0.1257102,0.09433498,0,0.3,0,0.04500954,0.5737885,0.04500954
6.38259E+17,8.222426,40.70145,90.00372,27.61964,-6.689909,-142.0894,12.20406,36.42324,87.66898,60.94619,-8.228058,-49.06805,0,0,0,33.52946,110.3185,63.68499,50.84875,97.10223,66.75415,0.001067912,-0.1257102,0.09433498,0,0.3,0,0.04667877,0.5756685,0.04667877
6.38259E+17,8.222426,41.00537,90.56405,27.76613,-7.202625,-142.2359,12.20406,36.42324,87.66898,61.01944,-8.154812,-49.1413,0,0,0,33.46237,112.1576,63.22067,50.84875,97.10223,66.75415,0.001067912,-0.1257102,0.09433498,0,0.3,0,0.04915858,0.577472,0.04915858
6.38259E+17,8.222426,41.19239,90.91425,27.91262,-7.495606,-142.2359,12.20406,36.42324,87.66898,61.01944,-8.228058,-49.1413,0,0,0,33.41994,113.3007,62.92707,50.84875,97.10223,66.75415,0.001067912,-0.1257102,0.09433498,0,0.3,0,0.05080955,0.5783399,0.05080955
6.38259E+17,8.222426,41.49631,91.49793,28.27885,-8.154812,-142.0162,12.20406,36.42324,87.66898,61.09268,-8.228058,-49.1413,0,0,0,33.34903,115.1898,62.43632,50.84875,97.10223,66.75415,0.001067912,-0.1257102,0.09433498,0,0.3,0,0.05362267,0.5800095,0.05362267
6.38259E+17,8.222426,41.65996,91.80145,28.57183,-8.594284,-142.0894,12.20406,36.42324,87.69233,61.09268,-8.228058,-49.1413,0,0,0,33.30997,116.1809,62.16603,50.84922,97.15652,66.7563,0.001067912,-0.1257102,0.09433498,0,0.3,0,0.05497448,0.5816197,0.05497448
6.38259E+17,8.222426,41.65996,91.84814,28.71832,-8.667529,-142.0162,12.20406,36.42324,87.71568,61.09268,-8.154812,-49.06805,0,0,0,33.30948,116.2895,62.1626,50.84968,97.21082,66.75843,0.001067912,-0.1257102,0.09433498,0,0.3,0,0.05495586,0.5824122,0.05495586
6.38259E+17,8.222426,41.65996,91.87149,28.79156,-8.740773,-142.0894,12.20406,36.42324,87.78572,61.09268,-8.154812,-49.06805,0,0,0,33.30923,116.3438,62.16085,50.85103,97.37371,66.76468,0.001067912,-0.1257102,0.09433498,0,0.3,0,0.05459072,0.5839836,0.05459072
6.38259E+17,8.222426,41.65996,91.87149,28.79156,-8.667529,-142.1627,12.20406,36.44662,87.83241,61.09268,-8.154812,-49.1413,0,0,0,33.30923,116.3438,62.16085,50.84508,97.52608,66.73716,0.001067912,-0.1257102,0.09433498,0,0.3,0,0.05414029,0.5855407,0.05414029
6.38259E+17,8.222426,41.70671,91.87149,28.79156,-8.594284,-142.1627,12.20406,36.47,87.90246,61.16593,-8.154812,-49.06805,0,0,0,33.29888,116.4251,62.08923,50.83953,97.73275,66.71149,0.001067912,-0.1257102,0.09433498,0,0.3,0,0.05377631,0.5870813,0.05377631
6.38259E+17,8.222426,41.75347,91.89484,28.86481,-8.521038,-142.1627,12.20406,36.47,87.94915,61.16593,-8.081567,-49.1413,0,0,0,33.28826,116.5606,62.01577,50.84036,97.84135,66.71533,0.001067912,-0.1257102,0.09433498,0,0.3,0,0.05376117,0.5878437,0.05376117
6.38259E+17,8.222426,41.8236,91.96488,28.86481,-8.447793,-142.0162,12.1805,36.49338,88.0192,61.23917,-8.154812,-49.1413,0,0,0,33.27192,116.8452,61.90269,50.73808,98.04801,66.7102,0.001067912,-0.1257102,0.09433498,0,0.3,0,0.05360108,0.5893552,0.05360108
6.38259E+17,8.222426,42.01063,92.15166,29.0113,-8.740773,-142.0894,12.15694,36.51675,88.06589,61.23917,-8.228058,-49.21454,0,0,0,33.2281,117.6035,61.59943,50.63538,98.20036,66.70303,0.001067912,-0.1257102,0.09433498,0,0.3,0,0.05434152,0.5908336,0.05434152
6.38259E+17,8.222426,42.1509,92.29174,29.0113,-8.887264,-142.0162,12.15694,36.51675,88.11259,61.31242,-8.301303,-49.21454,0,0,0,33.195,118.1716,61.37038,50.63615,98.30898,66.70657,0.001067912,-0.1257102,0.09433498,0,0.3,0,0.05507179,0.5915543,0.05507179
6.38259E+17,8.222426,42.4782,92.6186,29.15779,-9.399981,-142.0894,12.13338,36.54013,88.11259,61.31242,-8.301303,-49.28778,0,0,0,33.117,119.4949,60.83059,50.53268,98.3527,66.69571,0.001067912,-0.1257102,0.09433498,0,0.3,0,0.05701204,0.5929527,0.05701204
6.38259E+17,8.222426,42.78211,92.89877,29.30428,-9.985942,-142.0894,12.10982,36.54013,88.11259,61.23917,-8.374548,-49.28778,0,0,0,33.044,120.6667,60.32541,50.43602,98.3527,66.71647,0.001067912,-0.1257102,0.09433498,0,0.3,0,0.05883633,0.5942903,0.05883633
6.38259E+17,8.222426,43.01589,93.13225,29.45077,-10.42541,-142.0894,12.08626,36.54013,88.11259,61.31242,-8.447793,-49.28778,0,0,0,32.98694,121.6079,59.93055,50.33936,98.3527,66.73719,0.001067912,-0.1257102,0.09433498,0,0.3,0,0.06026591,0.5955763,0.06026591
6.38259E+17,8.222426,43.10941,93.22564,29.52402,-10.5719,-142.0894,12.0627,36.54013,88.11259,61.38566,-8.521038,-49.28778,0,0,0,32.96397,121.9839,59.77154,50.24269,98.3527,66.75787,0.001067912,-0.1257102,0.09433498,0,0.3,0,0.0607642,0.5962037,0.0607642
6.38259E+17,8.222426,43.2263,93.29567,29.67051,-10.86488,-142.1627,12.03914,36.54013,88.11259,61.38566,-8.521038,-49.28778,0,0,0,32.93602,122.3451,59.57816,50.14601,98.3527,66.7785,0.001067912,-0.1257102,0.09433498,0,0.3,0,0.06117316,0.5974367,0.06117316
6.38259E+17,8.222426,43.31981,93.36572,29.74375,-11.01137,-142.1627,12.03914,36.54013,88.11259,61.45891,-8.521038,-49.28778,0,0,0,32.91333,122.6663,59.42113,50.14601,98.3527,66.7785,0.001067912,-0.1257102,0.09433498,0,0.3,0,0.06160023,0.5986437,0.06160023
6.38259E+17,8.222426,43.4367,93.48245,29.817,-11.08462,-142.1627,12.03914,36.54013,88.11259,61.45891,-8.521038,-49.36103,0,0,0,32.88429,123.1352,59.22014,50.14601,98.3527,66.7785,0.001067912,-0.1257102,0.09433498,0,0.3,0,0.06229412,0.5998205,0.06229412
6.38259E+17,8.222426,43.50684,93.52915,29.89024,-11.23111,-142.1627,12.01558,36.54013,88.11259,61.45891,-8.521038,-49.36103,0,0,0,32.86728,123.3622,59.10242,50.04932,98.3527,66.79911,0.001067912,-0.1257102,0.09433498,0,0.3,0,0.06254551,0.600398,0.06254551
6.38259E+17,8.222426,43.62373,93.66923,29.96349,-11.45084,-142.1627,12.01558,36.54013,88.11259,61.45891,-8.521038,-49.43428,0,0,0,32.83754,123.8847,58.8966,50.04932,98.3527,66.79911,0.001067912,-0.1257102,0.09433498,0,0.3,0,0.06333639,0.6015272,0.06333639
6.38259E+17,8.222426,43.78737,93.80932,30.03673,-11.59733,-142.1627,11.96846,36.54013,88.11259,61.53215,-8.594284,-49.50752,0,0,0,32.79686,124.4853,58.61509,49.85592,98.3527,66.84019,0.001067912,-0.1257102,0.09433498,0,0.3,0,0.06412355,0.6026241,0.06412355
6.38259E+17,8.222426,43.95102,93.99609,30.03673,-11.74383,-142.1627,11.9449,36.54013,88.11259,61.53215,-8.667529,-49.50752,0,0,0,32.75488,125.1936,58.32457,49.7592,98.3527,66.86067,0.001067912,-0.1257102,0.09433498,0,0.3,0,0.06519486,0.6036854,0.06519486
6.38259E+17,8.222426,44.06791,94.13618,30.03673,-11.89032,-142.1627,11.9449,36.54013,88.11259,61.53215,-8.740773,-49.50752,0,0,0,32.72454,125.7145,58.11462,49.7592,98.3527,66.86067,0.001067912,-0.1257102,0.09433498,0,0.3,0,0.06609225,0.6041991,0.06609225
6.38259E+17,8.222426,44.34845,94.393,30.10997,-12.11005,-142.1627,11.89778,36.54013,88.11259,61.53215,-8.887264,-49.58077,0,0,0,32.65307,126.7786,57.62004,49.56575,98.3527,66.90151,0.001067912,-0.1257102,0.09433498,0,0.3,0,0.0678168,0.6051913,0.0678168
6.38259E+17,8.222426,44.60561,94.64982,30.32971,-12.32979,-142.1627,11.85066,36.54013,88.11259,61.6054,-8.887264,-49.58077,0,0,0,32.58636,127.8015,57.15839,49.37226,98.3527,66.94219,0.001067912,-0.1257102,0.09433498,0,0.3,0,0.06947887,0.6061356,0.06947887
6.38259E+17,8.222426,44.74588,94.76656,30.40295,-12.54952,-142.1627,11.8271,36.54013,88.11259,61.6054,-9.033754,-49.65401,0,0,0,32.55034,128.3044,56.90914,49.27551,98.3527,66.96248,0.001067912,-0.1257102,0.09433498,0,0.3,0,0.07031775,0.6065899,0.07031775
6.38259E+17,8.222426,44.97966,95.00002,30.54945,-12.8425,-142.1627,11.73286,36.54013,88.11259,61.6054,-9.180244,-49.65401,0,0,0,32.48884,129.2315,56.48349,48.8884,98.3527,67.04321,0.001067912,-0.1257102,0.09433498,0,0.3,0,0.07168278,0.6074684,0.07168278
6.38259E+17,8.222426,45.16669,95.11676,30.69594,-13.06224,-142.1627,11.66218,36.54013,88.08924,61.6054,-9.326735,-49.72726,0,0,0,32.44133,129.8095,56.15477,48.59762,98.29839,67.10157,0.001067912,-0.1257102,0.09433498,0,0.3,0,0.07258909,0.6083139,0.07258909
6.38259E+17,8.222426,45.28358,95.16345,30.76918,-13.20873,-142.1627,11.5915,36.54013,88.06589,61.6054,-9.399981,-49.72726,0,0,0,32.41232,130.1094,55.95399,48.30676,98.24409,67.15955,0.001067912,-0.1257102,0.09433498,0,0.3,0,0.07295643,0.6091363,0.07295643
6.38259E+17,8.222426,45.33034,95.16345,30.76918,-13.28197,-142.1627,11.5915,36.54013,88.06589,61.6054,-9.399981,-49.72726,0,0,0,32.40126,130.1859,55.87743,48.30676,98.24409,67.15955,0.001067912,-0.1257102,0.09433498,0,0.3,0,0.07298689,0.6099455,0.07298689
6.38259E+17,8.222426,45.33034,95.1868,30.76918,-13.20873,-142.1627,11.56794,36.54013,88.06589,61.6054,-9.473226,-49.72726,0,0,0,32.40056,130.24,55.87258,48.20992,98.24409,67.1794,0.001067912,-0.1257102,0.09433498,0,0.3,0,0.07293714,0.610346,0.07293714
6.38259E+17,8.222426,45.35371,95.1868,30.76918,-13.13548,-142.1627,11.56794,36.54013,88.06589,61.6054,-9.619716,-49.72726,0,0,0,32.39502,130.2783,55.83427,48.20992,98.24409,67.1794,0.001067912,-0.1257102,0.09433498,0,0.3,0,0.0728794,0.6111385,0.0728794
6.38259E+17,8.222426,45.35371,95.1868,30.76918,-13.06224,-142.2359,11.56794,36.58689,88.08924,61.67865,-9.619716,-49.72726,0,0,0,32.39502,130.2783,55.83427,48.19728,98.3858,67.11768,0.001067912,-0.1257102,0.09433498,0,0.3,0,0.07245051,0.6119249,0.07245051
6.38259E+17,8.222426,45.35371,95.1868,30.76918,-13.06224,-142.1627,11.56794,36.6804,88.20597,61.67865,-9.692961,-49.72726,0,0,0,32.39502,130.2783,55.83427,48.173,98.832,66.99905,0.001067912,-0.1257102,0.09433498,0,0.3,0,0.07154867,0.6123239,0.07154867
6.38259E+17,8.222426,45.35371,95.1868,30.76918,-12.98899,-142.1627,11.56794,36.98432,88.62622,61.89838,-10.13243,-49.87375,0,0,0,32.39502,130.2783,55.83427,48.0934,100.3759,66.61012,0.001067912,-0.1257102,0.09433498,0,0.3,0,0.06856894,0.6131526,0.06856894
6.38259E+17,8.222426,45.35371,95.21014,30.76918,-13.06224,-142.2359,11.49726,37.38175,89.16321,62.41109,-10.64515,-50.53296,0,0,0,32.39432,130.3324,55.8294,47.69689,102.3623,66.1451,0.001067912,-0.1257102,0.09433498,0,0.3,0,0.06466722,0.6140398,0.06466722
6.38259E+17,8.222426,45.35371,95.21014,30.76918,-13.06224,-142.2359,11.45014,37.80256,89.7002,62.85057,-11.23111,-51.4119,0,0,0,32.39432,130.3324,55.8294,47.38788,104.3881,65.61082,0.001067912,-0.1257102,0.09433498,0,0.3,0,0.06068025,0.6149883,0.06068025
6.38259E+17,8.222426,45.35371,95.21014,30.84243,-13.06224,-142.2359,11.40302,38.01296,89.98036,63.0703,-11.45084,-51.85137,0,0,0,32.39432,130.3324,55.8294,47.13633,105.4265,65.35657,0.001067912,-0.1257102,0.09433498,0,0.3,0,0.05857967,0.6154877,0.05857967
6.38259E+17,8.222426,45.35371,95.21014,30.76918,-12.98899,-142.2359,11.28522,38.45715,90.56405,63.65627,-11.74383,-52.73031,0,0,0,32.39432,130.3324,55.8294,46.52927,107.597,64.81922,0.001067912,-0.1257102,0.09433498,0,0.3,0,0.05414488,0.6165412,0.05414488
6.38259E+17,8.222426,45.35371,95.21014,30.76918,-12.8425,-142.1627,11.19098,38.8312,90.9843,64.31547,-11.89032,-53.46276,0,0,0,32.39432,130.3324,55.8294,46.03761,109.2549,64.34916,0.001067912,-0.1257102,0.09433498,0,0.3,0,0.05068791,0.6176498,0.05068791
6.38259E+17,8.222426,45.40047,95.28019,30.84243,-12.69601,-142.1627,11.16742,39.11173,91.21777,64.75494,-11.89032,-53.82899,0,0,0,32.38111,130.5712,55.73799,45.86037,110.3058,63.95496,0.001067912,-0.1257102,0.09433498,0,0.3,0,0.04896421,0.6187831,0.04896421
6.38259E+17,8.222426,45.44723,95.39693,30.76918,-12.69601,-142.1627,11.1203,39.22863,91.3345,64.97468,-11.81707,-53.97548,0,0,0,32.36641,130.918,55.63626,45.635,110.7884,63.81805,0.001067912,-0.1257102,0.09433498,0,0.3,0,0.04845615,0.6193516,0.04845615
6.38259E+17,8.222426,45.5875,95.5837,30.84243,-12.91575,-142.1627,11.1203,39.27538,91.35785,65.04792,-11.74383,-54.12197,0,0,0,32.32715,131.5795,55.36457,45.62147,110.927,63.74924,0.001067912,-0.1257102,0.09433498,0,0.3,0,0.04925019,0.6204695,0.04925019
6.38259E+17,8.222426,45.75114,95.86387,30.98892,-13.28197,-142.1627,11.1203,39.27538,91.35785,65.12117,-11.67058,-54.26846,0,0,0,32.27888,132.4945,55.03056,45.62147,110.927,63.74924,0.001067912,-0.1257102,0.09433498,0,0.3,0,0.05074672,0.6215452,0.05074672
6.38259E+17,8.222426,45.84466,95.98061,31.13541,-13.35522,-142.2359,11.1203,39.27538,91.35785,65.12117,-11.59733,-54.3417,0,0,0,32.25256,132.9164,54.8484,45.62147,110.927,63.74924,0.001067912,-0.1257102,0.09433498,0,0.3,0,0.05145603,0.622068,0.05145603
6.38259E+17,8.222426,45.93817,96.09735,31.42839,-13.35522,-142.1627,11.09674,39.27538,91.3345,65.19441,-11.45084,-54.41495,0,0,0,32.22612,133.3381,54.66544,45.52627,110.8726,63.76923,0.001067912,-0.1257102,0.09433498,0,0.3,0,0.05210537,0.623095,0.05210537
6.38259E+17,8.222426,46.0083,96.1207,31.64813,-13.35522,-142.1627,11.07318,39.27538,91.3345,65.26765,-11.52409,-54.41495,0,0,0,32.20851,133.5056,54.54356,45.43082,110.8726,63.78793,0.001067912,-0.1257102,0.09433498,0,0.3,0,0.0522395,0.624103,0.0522395
6.38259E+17,8.222426,46.10182,96.16739,31.72137,-13.35522,-142.2359,11.04962,39.25201,91.3345,65.26765,-11.59733,-54.41495,0,0,0,32.18444,133.7647,54.37695,45.34196,110.8305,63.84039,0.001067912,-0.1257102,0.09433498,0,0.3,0,0.05264265,0.6250921,0.05264265
6.38259E+17,8.222426,46.14857,96.23743,31.72137,-13.35522,-142.2359,11.04962,39.25201,91.3345,65.26765,-11.67058,-54.41495,0,0,0,32.1707,134.0022,54.28188,45.34196,110.8305,63.84039,0.001067912,-0.1257102,0.09433498,0,0.3,0,0.05300993,0.6255777,0.05300993
6.38259E+17,8.222426,46.24208,96.33082,31.79461,-13.35522,-142.2359,11.07318,39.25201,91.3345,65.26765,-11.59733,-54.48819,0,0,0,32.14483,134.3689,54.10288,45.43744,110.8305,63.82172,0.001067912,-0.1257102,0.09433498,0,0.3,0,0.05364199,0.6265311,0.05364199
6.38259E+17,8.222426,46.31222,96.44756,31.9411,-13.42846,-142.1627,11.09674,39.27538,91.35785,65.3409,-11.52409,-54.41495,0,0,0,32.12364,134.7517,53.9562,45.52603,110.927,63.76797,0.001067912,-0.1257102,0.09433498,0,0.3,0,0.05409848,0.6274631,0.05409848
6.38259E+17,8.222426,46.3356,96.49425,31.9411,-13.50171,-142.2359,11.09674,39.27538,91.40454,65.3409,-11.52409,-54.41495,0,0,0,32.11626,134.8972,53.90513,45.52552,111.0356,63.7654,0.001067912,-0.1257102,0.09433498,0,0.3,0,0.05412443,0.6279233,0.05412443
6.38259E+17,8.222426,46.47587,96.61098,32.01435,-13.50171,-142.1627,11.14386,39.29876,91.56798,65.3409,-11.45084,-54.41495,0,0,0,32.07801,135.3923,53.64044,45.70783,111.458,63.6844,0.001067912,-0.1257102,0.09433498,0,0.3,0,0.05440848,0.6288304,0.05440848
6.38259E+17,8.222426,46.6629,96.79776,32.08759,-13.57495,-142.1627,11.16742,39.36889,91.70806,65.3409,-11.3776,-54.56144,0,0,0,32.02554,136.1232,53.27736,45.7814,111.9101,63.55494,0.001067912,-0.1257102,0.09433498,0,0.3,0,0.05495685,0.6297184,0.05495685
6.38259E+17,8.222426,46.89668,97.05459,32.16084,-13.86794,-142.2359,11.16742,39.41565,91.8248,65.41415,-11.3776,-54.78117,0,0,0,31.95853,137.0892,52.81359,45.7664,112.2658,63.47897,0.001067912,-0.1257102,0.09433498,0,0.3,0,0.05604437,0.6305771,0.05604437
6.38259E+17,8.222426,47.01357,97.14797,32.23409,-14.01443,-142.2359,11.16742,39.43903,91.87149,65.41415,-11.45084,-54.85442,0,0,0,31.92625,137.4906,52.59022,45.75903,112.4164,63.44164,0.001067912,-0.1257102,0.09433498,0,0.3,0,0.05650142,0.6309959,0.05650142
6.38259E+17,8.222426,47.17721,97.33475,32.23409,-14.30741,-142.2359,11.16742,39.48579,91.96488,65.56064,-11.45084,-55.00091,0,0,0,31.87852,138.1811,52.25987,45.74422,112.7177,63.36664,0.001067912,-0.1257102,0.09433498,0,0.3,0,0.05715768,0.6318161,0.05715768
6.38259E+17,8.222426,47.27073,97.45148,32.30733,-14.4539,-142.2359,11.16742,39.50917,92.10497,65.63388,-11.67058,-55.36714,0,0,0,31.85067,138.5984,52.06716,45.73528,113.0855,63.32133,0.001067912,-0.1257102,0.09433498,0,0.3,0,0.05721973,0.6326227,0.05721973
6.38259E+17,8.222426,47.36424,97.49818,32.38057,-14.52714,-142.2359,11.16742,39.53254,92.19836,65.70713,-11.67058,-55.80661,0,0,0,31.82577,138.8537,51.89482,45.72699,113.3446,63.27936,0.001067912,-0.1257102,0.09433498,0,0.3,0,0.05719028,0.6334186,0.05719028
6.38259E+17,8.222426,47.38762,97.49818,32.38057,-14.52714,-142.2359,11.16742,39.55592,92.26839,65.70713,-11.59733,-55.9531,0,0,0,31.82004,138.8905,51.8552,45.71906,113.5495,63.23914,0.001067912,-0.1257102,0.09433498,0,0.3,0,0.05687489,0.6338159,0.05687489
6.38259E+17,8.222426,47.43437,97.49818,32.45382,-14.38065,-142.2359,11.16742,39.62605,92.36178,65.78037,-11.59733,-56.24608,0,0,0,31.80858,138.9642,51.77591,45.69721,113.8924,63.12847,0.001067912,-0.1257102,0.09433498,0,0.3,0,0.05632109,0.6346107,0.05632109
6.38259E+17,8.222426,47.48113,97.49818,32.60031,-14.38065,-142.2359,11.16742,39.71957,92.45517,65.78037,-11.59733,-56.46581,0,0,0,31.79712,139.0377,51.69655,45.66853,114.2771,62.9832,0.001067912,-0.1257102,0.09433498,0,0.3,0,0.05567944,0.6354063,0.05567944
6.38259E+17,8.222426,47.57465,97.49818,32.67356,-14.23416,-142.2359,11.16742,39.85984,92.57191,65.85361,-11.59733,-56.68555,0,0,0,31.77416,139.1847,51.53767,45.62576,114.7994,62.76654,0.001067912,-0.1257102,0.09433498,0,0.3,0,0.0549497,0.6362056,0.0549497
6.38259E+17,8.222426,47.64478,97.49818,32.7468,-14.08767,-142.1627,11.16742,39.92997,92.64194,65.85361,-11.59733,-56.68555,0,0,0,31.75691,139.2947,51.41835,45.60404,115.0875,62.65655,0.001067912,-0.1257102,0.09433498,0,0.3,0,0.05463112,0.6366054,0.05463112
6.38259E+17,8.222426,47.76167,97.49818,32.7468,-14.08767,-142.2359,11.14386,40.00011,92.68864,66.00011,-11.59733,-56.83204,0,0,0,31.72814,139.4778,51.21919,45.48781,115.3212,62.56746,0.001067912,-0.1257102,0.09433498,0,0.3,0,0.05443982,0.6374012,0.05443982
6.38259E+17,8.222426,47.97207,97.49818,32.7468,-14.01443,-142.2359,11.14386,40.04686,92.73534,66.07335,-11.59733,-56.83204,0,0,0,31.6762,139.8063,50.85978,45.47329,115.513,62.49375,0.001067912,-0.1257102,0.09433498,0,0.3,0,0.05474899,0.6381834,0.05474899
6.38259E+17,8.222426,48.08897,97.49818,32.82005,-14.01443,-142.2359,11.14386,40.07024,92.75869,66.1466,-11.59733,-56.90528,0,0,0,31.64727,139.9883,50.65958,45.46602,115.609,62.45683,0.001067912,-0.1257102,0.09433498,0,0.3,0,0.05494722,0.6385682,0.05494722
6.38259E+17,8.222426,48.34613,97.49818,32.7468,-14.01443,-142.2359,11.14386,40.117,92.78204,66.1466,-11.59733,-56.83204,0,0,0,31.58344,140.3871,50.21787,45.45197,115.7465,62.38549,0.001067912,-0.1257102,0.09433498,0,0.3,0,0.05551197,0.6393243,0.05551197
6.38259E+17,8.222426,48.57991,97.42814,32.89329,-14.01443,-142.1627,11.1203,40.14038,92.82873,66.21985,-11.52409,-56.83204,0,0,0,31.52822,140.5862,49.83574,45.34929,115.8966,62.36454,0.001067912,-0.1257102,0.09433498,0,0.3,0,0.05569026,0.6400646,0.05569026
6.38259E+17,8.222426,48.6968,97.26471,33.03978,-13.94118,-142.1627,11.1203,40.18713,92.85208,66.29308,-11.52409,-56.90528,0,0,0,31.50598,140.3887,49.68179,45.33524,116.0341,62.29303,0.001067912,-0.1257102,0.09433498,0,0.3,0,0.05516463,0.6408027,0.05516463
6.38259E+17,8.222426,48.72018,97.21802,33.11303,-13.86794,-142.1627,11.1203,40.21051,92.85208,66.29308,-11.52409,-56.90528,0,0,0,31.50209,140.3168,49.65488,45.32846,116.0756,62.25857,0.001067912,-0.1257102,0.09433498,0,0.3,0,0.05493876,0.6411717,0.05493876
6.38259E+17,8.222426,48.72018,97.19466,33.25952,-13.79469,-142.2359,11.1203,40.25727,92.87543,66.21985,-11.59733,-56.90528,0,0,0,31.50307,140.2629,49.66162,45.31438,116.213,62.18694,0.001067912,-0.1257102,0.09433498,0,0.3,0,0.05448494,0.6419096,0.05448494
6.38259E+17,8.222426,48.72018,97.19466,33.5525,-13.6482,-142.2359,11.09674,40.28064,92.92212,66.36633,-11.52409,-56.97853,0,0,0,31.50307,140.2629,49.66162,45.21176,116.363,62.16564,0.001067912,-0.1257102,0.09433498,0,0.3,0,0.05406224,0.642646,0.05406224
6.38259E+17,8.222426,48.72018,97.19466,33.69899,-13.50171,-142.2359,11.09674,40.3274,92.96881,66.29308,-11.59733,-56.97853,0,0,0,31.50307,140.2629,49.66162,45.19714,116.5546,62.09109,0.001067912,-0.1257102,0.09433498,0,0.3,0,0.05361478,0.6433806,0.05361478
6.38259E+17,8.222426,48.72018,97.19466,33.77223,-13.50171,-142.2359,11.09674,40.35078,92.99216,66.29308,-11.52409,-56.97853,0,0,0,31.50307,140.2629,49.66162,45.18981,116.6503,62.05375,0.001067912,-0.1257102,0.09433498,0,0.3,0,0.05339178,0.6437476,0.05339178
6.38259E+17,8.222426,48.72018,97.19466,33.91872,-13.42846,-142.2359,11.09674,40.42091,93.0622,66.36633,-11.52409,-56.97853,0,0,0,31.50307,140.2629,49.66162,45.1678,116.9374,61.94152,0.001067912,-0.1257102,0.09433498,0,0.3,0,0.05277953,0.6444836,0.05277953
6.38259E+17,8.222426,48.72018,97.19466,33.99197,-13.42846,-142.2359,11.09674,40.51442,93.13225,66.36633,-11.52409,-57.05178,0,0,0,31.50307,140.2629,49.66162,45.13892,117.2658,61.79427,0.001067912,-0.1257102,0.09433498,0,0.3,0,0.0520813,0.6452222,0.0520813
6.38259E+17,8.222426,48.72018,97.19466,33.99197,-13.42846,-142.2359,11.09674,40.5378,93.17894,66.36633,-11.52409,-57.05178,0,0,0,31.50307,140.2629,49.66162,45.13096,117.4156,61.7537,0.001067912,-0.1257102,0.09433498,0,0.3,0,0.05178288,0.6455921,0.05178288
6.38259E+17,8.222426,48.74355,97.21802,33.99197,-13.35522,-142.2359,11.09674,40.63132,93.29567,66.43958,-11.52409,-57.12502,0,0,0,31.49624,140.3527,49.6144,45.10076,117.8522,61.5997,0.001067912,-0.1257102,0.09433498,0,0.3,0,0.05109825,0.6463354,0.05109825
6.38259E+17,8.222426,48.83707,97.28806,33.99197,-13.20873,-142.2359,11.09674,40.70145,93.38906,66.51283,-11.52409,-57.12502,0,0,0,31.46988,140.6578,49.43198,45.07785,118.193,61.48288,0.001067912,-0.1257102,0.09433498,0,0.3,0,0.05099344,0.6470747,0.05099344
6.38259E+17,8.222426,48.97734,97.42814,33.99197,-13.13548,-142.2359,11.09674,40.74821,93.48245,66.58607,-11.52409,-57.19827,0,0,0,31.42872,141.1957,49.14715,45.06167,118.4924,61.40043,0.001067912,-0.1257102,0.09433498,0,0.3,0,0.05138512,0.6477995,0.05138512
6.38259E+17,8.198866,49.02409,97.52153,33.99197,-13.06224,-142.2359,11.09674,40.77158,93.50581,66.58607,-11.59733,-57.19827,0,0,0,31.32354,141.4826,49.05078,45.0542,118.5879,61.36232,0.001067912,-0.1257102,0.09433498,0,0.3,0,0.05171867,0.6481552,0.05171867
6.38259E+17,8.198866,49.11761,97.59158,34.06521,-13.06224,-142.2359,11.09674,40.77158,93.52915,66.65932,-11.59733,-57.27151,0,0,0,31.29703,141.7868,48.86681,45.05356,118.6421,61.35905,0.001067912,-0.1257102,0.09433498,0,0.3,0,0.05211206,0.6488553,0.05211206
6.38259E+17,8.198866,49.14098,97.59158,34.06521,-13.06224,-142.2359,11.09674,40.77158,93.59919,66.73256,-11.67058,-57.27151,0,0,0,31.29117,141.8224,48.82609,45.05161,118.8048,61.34911,0.001067912,-0.1257102,0.09433498,0,0.3,0,0.05186155,0.6495496,0.05186155
6.38259E+17,8.198866,49.21112,97.59158,34.13846,-13.06224,-142.2359,11.09674,40.79496,93.71593,66.73256,-11.67058,-57.34475,0,0,0,31.27355,141.9291,48.70383,45.04143,119.1171,61.29722,0.001067912,-0.1257102,0.09433498,0,0.3,0,0.05153862,0.6502409,0.05153862
6.38259E+17,8.198866,49.28125,97.59158,34.13846,-12.98899,-142.2359,11.07318,40.81834,93.83266,66.73256,-11.67058,-57.418,0,0,0,31.25592,142.0357,48.58144,44.93673,119.4294,61.26328,0.001067912,-0.1257102,0.09433498,0,0.3,0,0.05120533,0.6505869,0.05120533
6.38259E+17,8.198866,49.42152,97.59158,34.13846,-12.98899,-142.2359,11.0025,40.84172,94.06613,66.87905,-11.74383,-57.71098,0,0,0,31.22059,142.2484,48.33628,44.63951,120.0127,61.24688,0.001067912,-0.1257102,0.09433498,0,0.3,0,0.05056948,0.6512816,0.05056948
6.38259E+17,8.198866,49.53841,97.70831,34.13846,-12.98899,-142.2359,10.97894,40.88848,94.27626,66.95229,-11.74383,-57.93071,0,0,0,31.18594,142.6944,48.09579,44.52477,120.5827,61.1604,0.001067912,-0.1257102,0.09433498,0,0.3,0,0.05035963,0.6519744,0.05035963
6.38259E+17,8.198866,49.6553,97.91843,34.13846,-13.06224,-142.2359,10.95538,40.91186,94.41634,67.02554,-11.74383,-58.07721,0,0,0,31.14692,143.3552,47.82493,44.41892,120.9489,61.11945,0.001067912,-0.1257102,0.09433498,0,0.3,0,0.05083036,0.6523138,0.05083036
6.38259E+17,8.175306,49.9826,98.52546,34.3582,-13.57495,-142.2359,10.93182,40.95861,94.64982,67.17203,-11.74383,-58.51668,0,0,0,30.94654,145.245,47.06167,44.3029,121.5728,61.02552,0.001067912,-0.1257102,0.09433498,0,0.3,0,0.05302301,0.6529607,0.05302301
6.38259E+17,8.151747,50.47354,99.20254,34.79766,-14.23416,-142.2359,10.8847,40.95861,94.92999,67.46501,-11.81707,-58.8829,0,0,0,30.699,147.5329,45.96468,44.10396,122.2226,61.00841,0.001067912,-0.1257102,0.09433498,0,0.3,0,0.05604032,0.6535534,0.05604032
6.38259E+17,8.033947,50.98786,99.59944,35.16389,-14.89337,-142.2359,10.8847,40.95861,95.16345,67.68475,-11.89032,-59.17588,0,0,0,30.1077,149.202,44.96032,44.09494,122.7639,60.96147,0.001067912,-0.1257102,0.09433498,0,0.3,0,0.05866874,0.6540885,0.05866874
6.38259E+17,7.963267,51.29178,99.78622,35.38363,-15.25959,-142.2359,10.83758,40.98199,95.25684,67.75799,-11.81707,-59.32237,0,0,0,29.75809,150.0742,44.37934,43.89592,123.0214,60.94323,0.001067912,-0.1257102,0.09433498,0,0.3,0,0.06002202,0.6543395,0.06002202
6.38259E+17,7.656987,51.99313,100.0197,35.60336,-15.84556,-142.2359,10.79046,41.00537,95.46697,67.97772,-11.89032,-59.61535,0,0,0,28.43751,151.6225,43.17419,43.69209,123.5494,60.8993,0.001067912,-0.1257102,0.09433498,0,0.3,0,0.06306341,0.6548005,0.06306341
6.38259E+17,7.091548,52.95163,100.2298,35.67661,-16.50476,-142.2359,10.7669,41.0755,95.60706,68.05097,-11.96356,-59.83509,0,0,0,26.11965,153.4628,41.6036,43.57192,123.997,60.78106,0.001067912,-0.1257102,0.09433498,0,0.3,0,0.06766983,0.6551883,0.06766983
6.38259E+17,6.431869,54.1673,100.6267,35.45687,-17.38371,-142.2359,10.71978,41.23915,95.77048,68.12422,-12.03681,-60.05483,0,0,0,23.42696,156.0518,39.4625,43.32983,124.6623,60.53348,0.001067912,-0.1257102,0.09433498,0,0.3,0,0.07359796,0.6554796,0.07359796
6.38259E+17,6.172709,54.705,100.9069,35.31038,-17.96966,-142.2359,10.67266,41.33266,95.81718,68.19746,-12.03681,-60.12807,0,0,0,22.36419,157.4203,38.43313,43.11296,124.934,60.41714,0.001067912,-0.1257102,0.09433498,0,0.3,0,0.07641704,0.6555877,0.07641704
6.38259E+17,5.72507,55.71026,101.584,35.09065,-19.58106,-142.2359,10.55486,41.63658,95.93391,68.27071,-12.1833,-60.27456,0,0,0,20.52565,160.3008,36.38401,42.5516,125.7341,60.01733,0.001067912,-0.1257102,0.09433498,0,0.3,0,0.0814407,0.6557375,0.0814407
6.38259E+17,5.371671,56.34147,101.9342,34.94416,-20.82623,-142.2359,10.48418,41.91712,96.05065,68.34396,-12.25654,-60.34781,0,0,0,19.13287,161.9197,35.1284,42.18554,126.4912,59.61402,0.001067912,-0.1257102,0.09433498,0,0.3,0,0.08405975,0.655833,0.08405975
6.38259E+17,5.230311,56.50512,101.9809,34.94416,-21.2657,-142.2359,10.43706,42.03401,96.07401,68.34396,-12.32979,-60.42105,0,0,0,18.59981,162.2367,34.83656,41.96405,126.7475,59.46405,0.001067912,-0.1257102,0.09433498,0,0.3,0,0.08450195,0.6558731,0.08450195
6.38259E+17,4.924032,56.78566,102.0742,34.94416,-21.99815,-142.2359,10.36638,42.29117,96.19073,68.4172,-12.47628,-60.56754,0,0,0,17.4627,162.8083,34.3446,41.60547,127.4613,59.09191,0.001067912,-0.1257102,0.09433498,0,0.3,0,0.08505723,0.6559453,0.08505723
6.38259E+17,4.547072,57.15971,102.2844,35.0174,-22.43762,-142.2359,10.22502,42.78211,96.40086,68.49045,-12.62277,-60.78728,0,0,0,16.06273,163.7608,33.62466,40.89756,128.7893,58.38088,0.001067912,-0.1257102,0.09433498,0,0.3,0,0.08517847,0.6560125,0.08517847
6.38259E+17,4.052313,57.65065,102.5412,35.0174,-23.02358,-142.2359,9.871624,43.85751,96.70438,68.63693,-12.91575,-61.1535,0,0,0,14.24095,164.9601,32.66742,39.19011,131.312,56.8577,0.001067912,-0.1257102,0.09433498,0,0.3,0,0.08317474,0.6561016,0.08317474
6.38259E+17,3.816714,57.90781,102.6813,34.94416,-23.31656,-142.2359,9.659584,44.58223,96.79776,68.78342,-13.06224,-61.29999,0,0,0,13.37581,165.5973,32.14803,38.15473,132.7367,55.81635,0.001067912,-0.1257102,0.09433498,0,0.3,0,0.0816207,0.656163,0.0816207
6.38259E+17,3.321954,58.30524,103.0081,34.79766,-23.82928,-142.2359,9.211945,46.10182,97.07793,69.14965,-13.42846,-61.59297,0,0,0,11.58869,166.8277,31.30321,35.98689,135.8697,53.54668,0.001067912,-0.1257102,0.09433498,0,0.3,0,0.07777159,0.6563321,0.07777159
6.38259E+17,2.897875,58.58578,103.265,34.72442,-24.41524,-142.2359,8.764306,47.43437,97.45148,69.51588,-13.86794,-61.9592,0,0,0,10.07564,167.7515,30.69217,33.89114,138.8564,51.47921,0.001067912,-0.1257102,0.09433498,0,0.3,0,0.07354315,0.6565621,0.07354315
6.38259E+17,2.450236,58.70267,103.335,34.50468,-24.92796,-142.2359,8.340226,48.81369,97.87174,69.8821,-14.52714,-62.47192,0,0,0,8.508741,168.0517,30.49524,31.89752,141.9686,49.23005,0.001067912,-0.1257102,0.09433498,0,0.3,0,0.06816014,0.6568707,0.06816014
6.38259E+17,2.238196,58.7728,103.3583,34.43144,-25.07445,-142.2359,8.104627,49.42152,98.10521,70.02859,-14.89337,-62.98463,0,0,0,7.766861,168.1893,30.37341,30.84113,143.4326,48.22573,0.001067912,-0.1257102,0.09433498,0,0.3,0,0.06560975,0.6570547,0.06560975
6.38259E+17,1.766997,58.95983,103.4284,34.2117,-25.44067,-142.2359,7.680547,50.4034,98.6422,70.54131,-15.40608,-63.79033,0,0,0,6.119668,168.5729,30.02042,28.97931,146.1406,46.53506,0.001067912,-0.1257102,0.09433498,0,0.3,0,0.06171561,0.6574663,0.06171561
6.38259E+17,1.248678,59.17023,103.6152,33.91872,-25.8069,-142.2359,7.280028,51.15151,99.10915,70.98078,-15.69907,-64.59603,0,0,0,4.31354,169.2473,29.54611,27.28432,148.3154,45.22809,0.001067912,-0.1257102,0.09433498,0,0.3,0,0.05954001,0.6579132,0.05954001
6.38259E+17,0.6832389,59.42739,103.872,33.69899,-26.17312,-142.2359,6.926629,51.89961,99.436,71.42025,-16.06529,-65.18199,0,0,0,2.35254,170.1335,28.92245,25.78729,150.1494,43.91749,0.001067912,-0.1257102,0.09433498,0,0.3,0,0.05851149,0.6583765,0.05851149
6.38259E+17,0.3769594,59.61442,103.9887,33.5525,-26.4661,-142.2359,6.738149,52.27366,99.55274,71.71323,-16.28502,-65.47498,0,0,0,1.295076,170.618,28.49168,25.00303,150.9523,43.27458,0.001067912,-0.1257102,0.09433498,0,0.3,0,0.05832032,0.6586096,0.05832032
6.38259E+17,-0.2591596,59.96509,104.1755,33.33276,-26.83233,-142.2359,6.408309,52.83474,99.73952,72.07946,-16.7245,-65.84119,0,0,0,-0.8866995,171.4503,27.68286,23.66051,152.1748,42.31236,0.001067912,-0.1257102,0.09433498,0,0.3,0,0.05875815,0.6590695,0.05875815
6.38259E+17,-1.013078,60.52617,104.2455,33.11303,-27.41829,-142.2359,6.10203,53.34906,99.83291,72.29919,-17.01748,-66.20742,0,0,0,-3.445268,172.2564,26.4807,22.42839,153.1079,41.44737,0.001067912,-0.1257102,0.09433498,0,0.3,0,0.06043518,0.6595016,0.06043518
6.38259E+17,-1.413598,60.85346,104.2689,32.89329,-27.71127,-142.2359,5.96067,53.58284,99.85625,72.37244,-17.01748,-66.28067,0,0,0,-4.790398,172.682,25.77446,21.86435,153.4853,41.05801,0.001067912,-0.1257102,0.09433498,0,0.3,0,0.06164389,0.6597029,0.06164389
6.38259E+17,-2.355996,61.60157,104.2689,32.45382,-28.51697,-142.2359,5.677951,54.07378,99.9263,72.66542,-17.23721,-66.5004,0,0,0,-7.919818,173.52,24.14454,20.73676,154.3203,40.21762,0.001067912,-0.1257102,0.09433498,0,0.3,0,0.06446317,0.6612093,0.06446317
6.38259E+17,-3.369075,62.32629,104.2689,31.57488,-29.39591,-142.2359,5.418791,54.54135,99.94965,72.8119,-17.5302,-66.64689,0,0,0,-11.23451,174.3128,22.48822,19.70881,155.0087,39.4201,0.001067912,-0.1257102,0.09433498,0,0.3,0,0.06751644,0.664179,0.06751644
6.38259E+17,-4.405713,63.02763,104.2689,30.54945,-30.27485,-142.2359,5.159632,55.07904,99.97299,73.03164,-17.89642,-66.72014,0,0,0,-14.57387,175.0621,20.80783,18.67601,155.7834,38.47918,0.001067912,-0.1257102,0.09433498,0,0.3,0,0.07041537,0.6670861,0.07041537
6.38259E+17,-4.829792,63.21466,104.2689,30.03673,-30.64108,-142.2359,5.065392,55.28945,99.99634,73.17814,-18.04291,-66.79338,0,0,0,-15.94084,175.2589,20.3079,18.29946,156.1165,38.09977,0.001067912,-0.1257102,0.09433498,0,0.3,0,0.07139233,0.6685139,0.07139233
6.38259E+17,-5.513031,63.42507,104.2689,28.93805,-31.44678,-142.2359,4.782672,55.78039,100.0897,73.32462,-18.48238,-67.01311,0,0,0,-18.14732,175.4787,19.66887,17.19884,156.9772,37.21101,0.001067912,-0.1257102,0.09433498,0,0.3,0,0.07161999,0.6713318,0.07161999
6.38259E+17,-5.96067,63.44844,104.2689,28.05911,-32.10598,-142.2359,4.476392,56.38823,100.2765,73.47112,-18.84861,-67.52583,0,0,0,-19.68788,175.5031,19.46487,16.00213,158.1944,36.053,0.001067912,-0.1257102,0.09433498,0,0.3,0,0.07005388,0.6741269,0.07005388
6.38259E+17,-6.384749,63.47182,104.2689,27.39991,-32.47221,-142.2359,4.028753,57.11295,100.5333,73.69085,-19.43457,-68.40478,0,0,0,-20.99487,175.5274,19.27428,14.29801,159.707,34.657,0.001067912,-0.1257102,0.09433498,0,0.3,0,0.06723566,0.6769325,0.06723566
6.38259E+17,-6.620349,63.4952,104.2689,27.03368,-32.69194,-142.2359,3.769594,57.51038,100.6734,73.98383,-19.87404,-68.99074,0,0,0,-21.76058,175.5517,19.13801,13.3245,160.5271,33.88294,0.001067912,-0.1257102,0.09433498,0,0.3,0,0.06580474,0.6783419,0.06580474
6.38259E+17,-7.138669,63.54195,104.2689,26.37447,-33.05817,-142.2359,3.180595,58.35199,100.8135,74.49654,-20.89947,-70.01617,0,0,0,-23.44365,175.6002,18.83683,11.14942,161.8873,32.29123,0.001067912,-0.1257102,0.09433498,0,0.3,0,0.06307907,0.6811731,0.06307907
6.38259E+17,-7.774787,63.65885,104.2689,25.64202,-33.35115,-142.0894,2.497356,59.42739,100.8602,74.93602,-21.99815,-70.89511,0,0,0,-25.48742,175.7211,18.32358,8.661822,163.2873,30.24867,0.001067912,-0.1257102,0.09433498,0,0.3,0,0.06042816,0.6840268,0.06042816
6.38259E+17,-8.175306,63.72898,104.2689,25.27579,-33.57088,-142.0162,2.120397,59.96509,100.8602,75.08251,-22.43762,-71.11485,0,0,0,-26.7709,175.7935,17.99602,7.315052,163.9187,29.22166,0.001067912,-0.1257102,0.09433498,0,0.3,0,0.05944879,0.6854602,0.05944879
6.38259E+17,-8.999906,63.84587,104.2689,24.39685,-33.86386,-142.0894,1.366478,60.90022,100.8602,75.37549,-23.02358,-71.48107,0,0,0,-29.41174,175.9137,17.35038,4.669632,164.9927,27.40837,0.001067912,-0.1257102,0.09433498,0,0.3,0,0.05793133,0.6883307,0.05793133
6.38259E+17,-9.871624,63.96276,104.2689,23.51791,-34.0836,-142.0162,0.612559,61.85873,100.8602,75.66847,-23.5363,-71.77406,0,0,0,-32.19165,176.0333,16.64072,2.072506,166.0612,25.49476,0.001067912,-0.1257102,0.09433498,0,0.3,0,0.05677034,0.6911951,0.05677034
6.38259E+17,-10.95538,64.12641,104.2455,22.63897,-34.37658,-141.8697,-0.09423985,62.70034,100.8602,75.88821,-24.19551,-72.06703,0,0,0,-35.62227,176.1474,15.67568,-0.3160011,166.9724,23.77164,0.001067912,-0.1257102,0.09433498,0,0.3,0,0.05716249,0.6940445,0.05716249
6.38259E+17,-11.61506,64.21992,104.2455,22.05301,-34.59632,-141.8697,-0.4711992,63.1679,100.8602,75.96145,-24.56173,-72.21353,0,0,0,-37.69921,176.2422,15.06146,-1.572019,167.4675,22.79641,0.001067912,-0.1257102,0.09433498,0,0.3,0,0.05782369,0.6954536,0.05782369
6.38259E+17,-12.93442,64.45371,104.2455,21.10082,-34.8893,-140.478,-1.177998,63.91601,100.8602,76.10795,-25.29418,-72.5065,0,0,0,-41.80251,176.4778,13.66682,-3.89777,168.2432,21.20404,0.001067912,-0.1257102,0.09433498,0,0.3,0,0.05962208,0.698226,0.05962208
6.38259E+17,-14.1831,64.61736,104.2455,19.70916,-35.40202,-138.0609,-2.002597,64.66412,100.8602,76.25443,-26.31961,-72.79948,0,0,0,-45.6748,176.6416,12.37925,-6.570507,168.9986,19.56053,0.001067912,-0.1257102,0.09433498,0,0.3,0,0.06054117,0.7009293,0.06054117
6.38259E+17,-15.19618,64.68748,104.1988,18.46399,-35.91473,-135.2776,-2.827195,65.29533,100.8602,76.54742,-27.2718,-73.01923,0,0,0,-48.8314,176.6061,11.42685,-9.208473,169.6199,18.11691,0.001067912,-0.1257102,0.09433498,0,0.3,0,0.0604515,0.7035712,0.0604515
6.38259E+17,-15.64381,64.68748,104.1755,17.87803,-36.13447,-134.1057,-3.157035,65.55248,100.8602,76.6939,-27.63803,-73.09246,0,0,0,-50.23804,176.5534,11.05268,-10.25179,169.8688,17.51735,0.001067912,-0.1257102,0.09433498,0,0.3,0,0.06058091,0.7048673,0.06058091
6.38259E+17,-16.58621,64.71087,104.1055,16.63286,-36.42745,-131.6154,-3.840273,66.09018,100.8602,76.91364,-28.51697,-73.38544,0,0,0,-53.17925,176.4186,10.19316,-12.39097,170.3814,16.2428,0.001067912,-0.1257102,0.09433498,0,0.3,0,0.06097277,0.7073828,0.06097277
6.38259E+17,-17.50505,64.73425,104.0821,15.16796,-36.79367,-129.6377,-4.429273,66.58112,100.8368,77.20662,-29.46916,-74.55737,0,0,0,-56.02472,176.3891,9.283117,-14.20786,170.7866,15.07246,0.001067912,-0.1257102,0.09433498,0,0.3,0,0.06180325,0.7097475,0.06180325
6.38259E+17,-17.99981,64.73425,104.0588,14.36226,-36.94016,-128.7588,-4.711992,66.79153,100.8135,77.27986,-29.98187,-75.28983,0,0,0,-57.56059,176.3364,8.805282,-15.07666,170.9271,14.5621,0.001067912,-0.1257102,0.09433498,0,0.3,0,0.06247307,0.7108539,0.06247307
6.38259E+17,-18.91865,64.73425,103.942,12.82412,-37.23314,-126.6347,-5.324551,67.23571,100.7668,77.4996,-31.0073,-76.242,0,0,0,-60.41537,176.0728,7.921636,-16.94487,171.224,13.46311,0.001067912,-0.1257102,0.09433498,0,0.3,0,0.0632947,0.7128822,0.0632947
6.38259E+17,-19.86105,64.73425,103.7086,11.5057,-37.45288,-124.4373,-6.07847,67.79679,100.6968,77.71934,-31.813,-77.04771,0,0,0,-63.35049,175.5452,7.026252,-19.21115,171.5632,12.0548,0.001067912,-0.1257102,0.09433498,0,0.3,0,0.06363323,0.7146681,0.06363323
6.38259E+17,-20.89769,64.71087,103.4284,10.26054,-37.52613,-122.9724,-6.997309,68.38125,100.6267,77.93907,-32.83843,-77.8534,0,0,0,-66.58511,174.8881,6.040305,-21.9516,171.9106,10.50087,0.001067912,-0.1257102,0.09433498,0,0.3,0,0.06378205,0.7162376,0.06378205
6.38259E+17,-21.39244,64.71087,103.335,9.601329,-37.52613,-122.0202,-7.397828,68.6384,100.6034,78.08556,-33.2779,-78.07314,0,0,0,-68.10685,174.6766,5.505674,-23.13087,172.0765,9.80071,0.001067912,-0.1257102,0.09433498,0,0.3,0,0.06404786,0.716949,0.06404786
6.38259E+17,-22.54688,64.71087,103.1716,7.843444,-37.59937,-119.2369,-8.410906,69.1761,100.4866,78.23206,-34.37658,-78.36612,0,0,0,-71.6292,174.3064,4.178747,-26.11356,172.2598,8.258052,0.001067912,-0.1257102,0.09433498,0,0.3,0,0.06444712,0.7182263,0.06444712
6.38259E+17,-23.15944,64.66412,103.0548,6.232051,-37.67262,-117.8453,-9.306185,69.57353,100.3932,78.3053,-35.32877,-78.51261,0,0,0,-73.53253,173.9952,3.55022,-28.73624,172.3718,7.013043,0.001067912,-0.1257102,0.09433498,0,0.3,0,0.0630913,0.7193401,0.0630913
6.38259E+17,-23.48928,64.54722,102.8914,4.913638,-37.67262,-117.1128,-10.2957,69.99434,100.2298,78.37854,-36.57394,-78.51261,0,0,0,-74.65289,173.5079,3.427777,-31.60829,172.336,5.653369,0.001067912,-0.1257102,0.09433498,0,0.3,0,0.0602876,0.7203601,0.0602876
6.38259E+17,-23.55996,64.52384,102.798,4.547412,-37.67262,-116.9663,-10.7669,70.15799,100.1598,78.37854,-37.08665,-78.58585,0,0,0,-74.90369,173.2726,3.424876,-32.9767,172.3054,5.064115,0.001067912,-0.1257102,0.09433498,0,0.3,0,0.05858089,0.7208451,0.05858089
6.38259E+17,-23.67776,64.45371,102.6346,3.96145,-37.59937,-116.8931,-11.7093,70.34502,99.99634,78.37854,-38.18533,-78.58585,0,0,0,-75.34949,172.8313,3.482106,-35.75479,172.078,4.162302,0.001067912,-0.1257102,0.09433498,0,0.3,0,0.05509568,0.7217931,0.05509568
6.38259E+17,-23.79556,64.45371,102.4011,3.595225,-37.52613,-116.7466,-12.67526,70.46191,99.78622,78.37854,-39.06427,-78.58585,0,0,0,-75.75013,172.3008,3.434588,-38.62017,171.6874,3.366932,0.001067912,-0.1257102,0.09433498,0,0.3,0,0.05148393,0.7227208,0.05148393
6.38259E+17,-23.81912,64.45371,102.1443,3.375489,-37.45288,-116.6733,-13.4763,70.50866,99.50605,78.45178,-39.86997,-78.58585,0,0,0,-75.87207,171.7167,3.519658,-41.01862,171.0809,2.816736,0.001067912,-0.1257102,0.09433498,0,0.3,0,0.04817641,0.7236509,0.04817641
6.38259E+17,-23.84268,64.45371,102.0042,3.302244,-37.30639,-116.6733,-13.85326,70.53204,99.34261,78.37854,-40.30944,-78.58585,0,0,0,-75.97031,171.3979,3.550823,-42.14649,170.7239,2.553832,0.001067912,-0.1257102,0.09433498,0,0.3,0,0.04668644,0.7241179,0.04668644
6.38259E+17,-23.86624,64.45371,101.7707,3.155754,-37.01341,-116.6001,-14.56006,70.53204,98.89902,78.01232,-41.11514,-78.51261,0,0,0,-76.08627,170.8662,3.62193,-44.29263,169.7045,2.179325,0.001067912,-0.1257102,0.09433498,0,0.3,0,0.04378185,0.7250535,0.04378185
6.38259E+17,-23.91336,64.43033,101.6073,3.009263,-36.72043,-116.4536,-15.12549,70.53204,98.40872,77.42635,-41.92084,-78.51261,0,0,0,-76.27882,170.4702,3.674619,-46.01817,168.5764,1.899661,0.001067912,-0.1257102,0.09433498,0,0.3,0,0.0416106,0.7259915,0.0416106
6.38259E+17,-23.96048,64.43033,101.5373,3.009263,-36.57394,-116.4536,-15.36109,70.53204,98.1519,77.06013,-42.36031,-78.43936,0,0,0,-76.43354,170.3105,3.641713,-46.74064,167.9849,1.792003,0.001067912,-0.1257102,0.09433498,0,0.3,0,0.04081368,0.7264611,0.04081368
6.38259E+17,-24.19608,64.33681,101.4672,2.936018,-36.42745,-116.1606,-15.69093,70.53204,97.73165,76.25443,-43.01951,-77.78016,0,0,0,-77.23388,170.0567,3.534625,-47.75588,167.0162,1.650212,0.001067912,-0.1257102,0.09433498,0,0.3,0,0.04047653,0.727378,0.04047653
6.38259E+17,-24.78508,64.24331,101.3738,2.569792,-36.20771,-115.3549,-15.95009,70.53204,97.54488,75.52198,-43.53223,-77.1942,0,0,0,-79.09698,169.7492,2.9487,-48.54021,166.5853,1.488021,0.001067912,-0.1257102,0.09433498,0,0.3,0,0.04178749,0.7282542,0.04178749
6.38259E+17,-25.82172,64.10303,101.2104,1.69085,-36.13447,-113.6703,-16.11501,70.53204,97.45148,75.08251,-43.89846,-76.90121,0,0,0,-82.34357,169.234,1.821217,-49.03674,166.3698,1.374849,0.001067912,-0.1257102,0.09433498,0,0.3,0,0.04528855,0.7290766,0.04528855
6.38259E+17,-27.14108,63.79912,100.8135,-0.0670338,-35.98798,-110.8137,-16.35061,70.53204,97.40479,74.86278,-44.19143,-76.82797,0,0,0,-86.61034,168.0166,0.602659,-49.73819,166.2621,1.185258,0.001067912,-0.1257102,0.09433498,0,0.3,0,0.04987561,0.7298067,0.04987561
6.38259E+17,-27.84787,63.54195,100.4633,-1.238957,-35.84149,-108.9826,-16.53909,70.53204,97.38145,74.78953,-44.33792,-76.82797,0,0,0,-89.00876,166.9501,0.1287536,-50.29761,166.2082,1.027426,0.001067912,-0.1257102,0.09433498,0,0.3,0,0.05225731,0.7301364,0.05225731
6.38259E+17,-28.90807,63.02763,99.83291,-3.216576,-35.32877,-105.7598,-16.72757,70.53204,97.31141,74.71628,-44.63091,-76.68148,0,0,0,-92.7527,164.9678,-0.384708,-50.86052,166.0465,0.8810132,0.001067912,-0.1257102,0.09433498,0,0.3,0,0.05644749,0.7307227,0.05644749
6.38259E+17,-29.66199,62.60683,99.29593,-4.82797,-34.81605,-103.6357,-16.91605,70.53204,97.12463,74.64304,-44.7774,-76.60824,0,0,0,-95.48867,163.288,-0.6821896,-51.43283,165.6152,0.765043,0.001067912,-0.1257102,0.09433498,0,0.3,0,0.05931956,0.7312269,0.05931956
6.38259E+17,-29.92115,62.37305,98.96906,-5.340686,-34.59632,-102.83,-17.01029,70.55542,96.98454,74.56979,-44.85064,-76.3885,0,0,0,-96.54703,162.2856,-0.5929083,-51.70763,165.3098,0.6694486,0.001067912,-0.1257102,0.09433498,0,0.3,0,0.0603675,0.7314553,0.0603675
6.38259E+17,-30.13319,61.74184,97.87174,-6.073137,-33.93711,-101.3651,-17.29301,70.67231,96.58764,73.7641,-44.99713,-75.21658,0,0,0,-98.00645,159.0709,0.4945003,-52.49717,164.4828,0.2714385,0.001067912,-0.1257102,0.09433498,0,0.3,0,0.06144005,0.7318814,0.06144005
6.38259E+17,-30.20387,60.61968,96.02731,-5.853402,-32.39896,-100.4129,-17.64641,70.85934,96.09735,72.88515,-45.29012,-73.67843,0,0,0,-99.62709,153.5509,2.799883,-53.44984,163.4921,-0.3270875,0.001067912,-0.1257102,0.09433498,0,0.3,0,0.06336728,0.7322807,0.06336728
6.38259E+17,-30.22743,59.54428,94.46304,-5.487176,-30.71432,-99.82695,-17.99981,70.97623,95.67709,71.85973,-45.50985,-72.36002,0,0,0,-100.9571,148.6773,4.92082,-54.43674,162.6081,-0.8090656,0.001067912,-0.1257102,0.09433498,0,0.3,0,0.06536791,0.7326373,0.06536791
6.38259E+17,-30.22743,59.00658,93.66923,-5.194195,-29.68889,-99.38748,-18.23541,71.02299,95.44363,71.27377,-45.65634,-71.55432,0,0,0,-101.5646,146.1951,5.963515,-55.10948,162.1027,-1.082042,0.001067912,-0.1257102,0.09433498,0,0.3,0,0.06627414,0.732799,0.06627414
6.38259E+17,-30.36879,58.07146,92.31509,-4.82797,-27.49154,-99.02126,-18.68305,71.1165,94.97668,70.10184,-46.2423,-69.79643,0,0,0,-103.0161,141.9119,7.456067,-56.38028,161.091,-1.619235,0.001067912,-0.1257102,0.09433498,0,0.3,0,0.06837593,0.7330929,0.06837593
6.38259E+17,-30.43947,57.46363,91.17107,-4.608234,-25.58716,-98.87477,-19.15425,71.23338,94.41634,69.00316,-46.9015,-67.89206,0,0,0,-103.8802,138.4961,8.430388,-57.70009,159.8791,-2.230916,0.001067912,-0.1257102,0.09433498,0,0.3,0,0.06932314,0.7333478,0.06932314
6.38259E+17,-30.43947,57.11295,90.12045,-4.534989,-24.12226,-98.94801,-19.62545,71.35027,93.66923,67.39177,-47.56071,-65.32848,0,0,0,-104.2421,135.61,9.046207,-59.01891,158.2319,-2.838293,0.001067912,-0.1257102,0.09433498,0,0.3,0,0.06919194,0.7335876,0.06919194
6.38259E+17,-30.43947,56.94931,89.58346,-4.608234,-23.46305,-98.94801,-19.83749,71.39703,93.29567,66.43958,-47.85369,-64.15656,0,0,0,-104.4023,134.153,9.318918,-59.61396,157.3988,-3.105168,0.001067912,-0.1257102,0.09433498,0,0.3,0,0.06919389,0.7337083,0.06919389
6.38259E+17,-30.43947,56.34147,88.11259,-4.681479,-21.99815,-99.02126,-20.37937,71.51392,92.26839,64.02249,-48.21992,-61.1535,0,0,0,-104.9661,129.9526,10.27835,-61.12468,155.0973,-3.809354,0.001067912,-0.1257102,0.09433498,0,0.3,0,0.0697953,0.7339461,0.0697953
6.38259E+17,-30.43947,55.28945,86.08137,-4.82797,-20.02053,-99.02126,-20.96836,71.63082,91.07768,61.09268,-48.5129,-57.05178,0,0,0,-105.8709,123.8558,11.81819,-62.74948,152.4133,-4.611857,0.001067912,-0.1257102,0.09433498,0,0.3,0,0.07213193,0.7341604,0.07213193
6.38259E+17,-30.43947,53.86338,83.58321,-5.120951,-17.82317,-99.02126,-21.67517,71.74771,89.6068,57.43042,-48.80588,-51.85137,0,0,0,-106.9759,116.142,13.6985,-64.67668,149.0756,-5.619384,0.001067912,-0.1257102,0.09433498,0,0.3,0,0.07569557,0.7343207,0.07569557
6.38259E+17,-30.43947,53.13866,82.46254,-5.194195,-16.7245,-99.02126,-22.09924,71.79446,88.813,55.4528,-48.87913,-49.36103,0,0,0,-107.5023,112.5498,14.59435,-65.83089,147.2623,-6.221917,0.001067912,-0.1257102,0.09433498,0,0.3,0,0.07715526,0.7343726,0.07715526
6.38259E+17,-30.43947,51.8061,80.43134,-5.413931,-13.72145,-99.09451,-23.04164,71.91135,87.0853,50.76511,-48.95237,-43.06195,0,0,0,-108.3922,105.9861,16.10872,-68.33104,143.3288,-7.696891,0.001067912,-0.1257102,0.09433498,0,0.3,0,0.07929374,0.7344333,0.07929374
6.38259E+17,-30.43947,50.7307,78.75033,-5.560421,-10.86488,-100.5594,-24.07828,71.88798,85.3576,45.19848,-48.95237,-36.03041,0,0,0,-109.0232,100.5723,17.18262,-71.13935,139.2997,-9.154118,0.001067912,-0.1257102,0.09433498,0,0.3,0,0.07997851,0.7344585,0.07997851
6.38259E+17,-30.43947,49.6553,77.18607,-5.706912,-8.374548,-103.123,-25.25628,71.77108,84.00346,38.89939,-48.73264,-28.7059,0,0,0,-109.6128,95.40938,18.18601,-74.38277,136.0769,-10.68075,0.001067912,-0.1257102,0.09433498,0,0.3,0,0.08106674,0.7344675,0.08106674
6.38259E+17,-30.43947,49.07085,76.53234,-5.853402,-7.202625,-104.0019,-25.86884,71.65419,83.39643,35.8231,-48.58614,-25.04364,0,0,0,-109.9605,93.04187,18.77774,-76.10921,134.5872,-11.39206,0.001067912,-0.1257102,0.09433498,0,0.3,0,0.08165155,0.7344629,0.08165155
6.38259E+17,-30.43947,47.99545,75.41167,-6.073137,-5.15176,-106.126,-26.90548,71.58406,82.20573,29.817,-47.92694,-18.23184,0,0,0,-110.5904,88.85411,19.84964,-78.84935,131.7864,-12.96624,0.001067912,-0.1257102,0.09433498,0,0.3,0,0.08321559,0.7344335,0.08321559
6.38259E+17,-30.43947,47.22397,74.50112,-6.292873,-3.540367,-107.3712,-27.84787,71.58406,81.17844,24.25036,-46.82826,-13.10467,0,0,0,-110.9836,85.59706,20.51875,-81.23294,129.4207,-14.58957,0.001067912,-0.1257102,0.09433498,0,0.3,0,0.08439805,0.7343754,0.08439805
6.38259E+17,-30.43947,46.56938,73.75401,-6.512609,-2.002218,-108.1769,-28.88451,71.58406,80.50137,18.46399,-45.80283,-8.636719,0,0,0,-111.3062,82.88352,21.06775,-83.88026,127.865,-16.30403,0.001067912,-0.1257102,0.09433498,0,0.3,0,0.08581392,0.7342904,0.08581392
6.38259E+17,-30.43947,46.26546,73.40381,-6.585854,-1.269767,-108.3234,-29.35571,71.58406,80.08112,15.46094,-45.14362,-6.878834,0,0,0,-111.4491,81.61406,21.31085,-85.04698,126.9009,-17.14276,0.001067912,-0.1257102,0.09433498,0,0.3,0,0.08638942,0.7342381,0.08638942
6.38259E+17,-30.43947,45.63425,72.53996,-6.732344,-0.09784385,-109.6418,-29.96827,71.58406,79.12389,9.967555,-43.38574,-4.901215,0,0,0,-111.6857,78.67027,21.71357,-86.45782,124.7096,-18.40895,0.001067912,-0.1257102,0.09433498,0,0.3,0,0.08784158,0.7341149,0.08784158
6.38259E+17,-30.43947,44.88615,71.67611,-7.025325,0.8543434,-111.9124,-30.25099,71.39703,77.90982,6.305296,-40.8954,-5.706912,0,0,0,-111.9993,75.53145,22.24731,-87.1212,121.8024,-18.96674,0.001067912,-0.1257102,0.09433498,0,0.3,0,0.08881907,0.7339638,0.08881907
6.38259E+17,-30.43947,44.53548,71.3259,-7.24506,1.293814,-113.3773,-30.39235,71.28014,77.39619,5.060128,-39.50375,-6.512609,0,0,0,-112.1592,74.17847,22.51938,-87.49057,120.5476,-19.18031,0.001067912,-0.1257102,0.09433498,0,0.3,0,0.08923437,0.7338806,0.08923437
6.38259E+17,-30.43947,43.78737,70.55544,-7.538041,2.538982,-114.9887,-30.76931,70.88271,76.22883,2.643037,-35.695,-8.343738,0,0,0,-112.4771,71.23458,23.06036,-88.60063,117.6025,-19.53988,0.001067912,-0.1257102,0.09433498,0,0.3,0,0.08966551,0.7336982,0.08966551
6.38259E+17,-30.43947,43.36657,70.06515,-7.831022,3.63766,-115.2817,-31.09915,70.5788,75.20155,1.178134,-32.32572,-9.588906,0,0,0,-112.6244,69.45068,23.31095,-89.496,115.0521,-19.9858,0.001067912,-0.1257102,0.09433498,0,0.3,0,0.08927669,0.733503,0.08927669
6.38259E+17,-30.41591,43.15617,69.64489,-7.977511,4.589847,-115.2817,-31.45255,70.41515,74.36105,0.006211365,-29.5424,-10.24811,0,0,0,-112.5449,68.17582,23.35616,-90.3288,113.0374,-20.67241,0.001067912,-0.1257102,0.09433498,0,0.3,0,0.08889986,0.7333061,0.08889986
6.38259E+17,-30.39235,43.10941,69.48147,-7.977511,5.029318,-115.6479,-31.61747,70.36839,74.03418,-0.4332596,-28.29723,-10.46785,0,0,0,-112.4365,67.73997,23.35204,-90.69863,112.2689,-21.02214,0.001067912,-0.1257102,0.09433498,0,0.3,0,0.08872896,0.7332117,0.08872896
6.38259E+17,-30.36879,43.03927,69.13126,-8.343738,5.542034,-117.772,-31.94731,70.32163,73.38046,-1.165711,-26.09988,-10.10162,0,0,0,-112.2684,66.85825,23.24593,-91.37363,110.7719,-21.82194,0.001067912,-0.1257102,0.09433498,0,0.3,0,0.08850152,0.73304,0.08850152
6.38259E+17,-30.34523,42.99252,68.7577,-8.783209,5.90826,-119.3102,-32.32427,70.18137,72.84347,-1.605182,-24.70822,-8.563474,0,0,0,-112.0693,65.96732,23.08659,-92.30584,109.4657,-22.47343,0.001067912,-0.1257102,0.09433498,0,0.3,0,0.08816297,0.7329137,0.08816297
6.38259E+17,-30.32167,42.94576,68.22071,-9.22268,6.127995,-121.361,-32.63055,69.92421,72.53996,-2.044653,-23.97577,-6.292873,0,0,0,-111.7967,64.72497,22.8011,-93.27435,108.5871,-22.67212,0.001067912,-0.1257102,0.09433498,0,0.3,0,0.08793932,0.7328658,0.08793932
6.38259E+17,-30.29811,42.92238,67.84715,-9.515661,6.201241,-122.6062,-32.74835,69.73718,72.44656,-2.117898,-23.5363,-5.120951,0,0,0,-111.5727,63.87884,22.59827,-93.75933,108.2298,-22.57555,0.001067912,-0.1257102,0.09433498,0,0.3,0,0.08783839,0.7328707,0.08783839
6.38259E+17,-30.22743,42.82887,67.17008,-10.10162,6.274486,-124.0711,-33.03107,69.29299,72.09636,-1.898163,-22.87709,-3.289821,0,0,0,-111.1081,62.2634,22.34286,-94.87008,107.0916,-22.43615,0.001067912,-0.1257102,0.09433498,0,0.3,0,0.08733925,0.7329463,0.08733925
6.38259E+17,-30.13319,42.66522,66.51636,-10.98056,6.347731,-124.9501,-33.69075,68.75529,71.83953,-1.605182,-21.99815,-1.751673,0,0,0,-110.6238,60.58482,22.23147,-97.08929,106.0753,-22.71979,0.001067912,-0.1257102,0.09433498,0,0.3,0,0.08722147,0.7331434,0.08722147
6.38259E+17,-30.06251,42.54833,66.21284,-11.49328,6.494221,-125.243,-34.16194,68.40462,71.83953,-1.531937,-21.41219,-1.238957,0,0,0,-110.339,59.73744,22.28208,-98.7103,105.7772,-22.89448,0.001067912,-0.1257102,0.09433498,0,0.3,0,0.08740204,0.7332963,0.08740204
6.38259E+17,-29.94471,42.22104,65.58247,-12.51871,6.860447,-125.4628,-35.05722,67.56301,71.79285,-1.605182,-20.60649,-0.6529952,0,0,0,-109.9041,57.83557,22.43433,-101.9946,104.9397,-22.99587,0.001067912,-0.1257102,0.09433498,0,0.3,0,0.08778062,0.7336696,0.08778062
6.38259E+17,-29.68555,41.8236,64.9054,-13.4709,7.373164,-125.536,-35.97606,66.67464,71.30255,-2.264389,-19.87404,-0.2867693,0,0,0,-109.0198,55.71744,22.89416,-105.2192,103.0533,-23.40089,0.001067912,-0.1257102,0.09433498,0,0.3,0,0.08815866,0.7341422,0.08815866
6.38259E+17,-29.52063,41.6132,64.55519,-13.76388,7.592898,-125.4628,-36.40014,66.23045,70.90565,-2.70386,-19.36132,-0.140279,0,0,0,-108.458,54.61484,23.18797,-106.674,101.7664,-23.66162,0.001067912,-0.1257102,0.09433498,0,0.3,0,0.08829853,0.734413,0.08829853
6.38259E+17,-29.16723,41.02874,63.73803,-14.34984,8.03237,-125.829,-37.05982,65.22519,69.55151,-3.729292,-17.82317,0.1527017,0,0,0,-107.3081,51.88178,23.91337,-108.9757,97.83884,-24.04813,0.001067912,-0.1257102,0.09433498,0,0.3,0,0.08803872,0.7350087,0.08803872
6.38259E+17,-28.88451,40.18713,62.64072,-14.78931,8.471841,-129.5645,-37.69594,64.26668,67.9172,-4.461744,-15.99205,1.031644,0,0,0,-106.4175,48.11541,24.54824,-110.9612,93.34255,-24.762,0.001067912,-0.1257102,0.09433498,0,0.3,0,0.08863689,0.7356665,0.08863689
6.38259E+17,-28.57823,39.22863,61.63678,-15.15554,9.131048,-132.5675,-38.30849,63.51858,66.35294,-4.97446,-14.08767,2.203566,0,0,0,-105.5443,44.33355,25.40701,-112.5822,89.22187,-25.83965,0.001067912,-0.1257102,0.09433498,0,0.3,0,0.09029103,0.7363334,0.09029103
6.38259E+17,-28.27195,38.73769,61.19318,-15.37527,9.643764,-133.593,-38.59122,63.12115,65.46573,-5.120951,-13.06224,2.716283,0,0,0,-104.6135,42.53878,26.16644,-113.2738,86.92155,-26.40968,0.001067912,-0.1257102,0.09433498,0,0.3,0,0.09131273,0.7366518,0.09131273
6.38259E+17,-27.47091,38.19999,60.93637,-15.00905,10.44946,-134.3254,-38.8975,61.85873,63.80808,-5.267441,-10.86488,3.521979,0,0,0,-102.1096,41.03587,28.0441,-114.6296,82.0784,-26.27526,0.001067912,-0.1257102,0.09433498,0,0.3,0,0.09094546,0.7372394,0.09094546
6.38259E+17,-26.52852,38.03634,60.6562,-14.13011,11.10867,-134.3987,-38.8975,60.24563,62.19712,-5.194195,-8.521038,4.181186,0,0,0,-98.82858,40.16705,29.62266,-115.6237,76.92067,-25.04311,0.001067912,-0.1257102,0.09433498,0,0.3,0,0.08913382,0.7377638,0.08913382
6.38259E+17,-25.82172,38.01296,60.58615,-13.03143,11.62138,-132.3478,-38.8975,58.93645,60.6095,-4.97446,-6.103948,4.547412,0,0,0,-96.3587,39.98213,30.78489,-116.1633,72.13426,-24.37439,0.001067912,-0.1257102,0.09433498,0,0.3,0,0.08751055,0.7381768,0.08751055
6.38259E+17,-25.539,38.01296,60.56281,-12.44547,11.91436,-130.7364,-38.87394,58.32861,59.72231,-4.82797,-4.932025,4.693902,0,0,0,-95.36342,39.9348,31.23385,-116.2175,69.60671,-24.18598,0.001067912,-0.1257102,0.09433498,0,0.3,0,0.08665559,0.7383269,0.08665559
6.38259E+17,-25.1856,38.01296,60.56281,-11.63977,12.1341,-126.7812,-38.87394,56.85579,57.90122,-4.534989,-2.661425,4.840393,0,0,0,-94.13058,39.9348,31.81825,-116.6562,64.14397,-23.64168,0.001067912,-0.1257102,0.09433498,0,0.3,0,0.08443396,0.7384734,0.08443396
6.38259E+17,-24.80864,38.01296,60.56281,-11.05381,12.20734,-123.4852,-38.85038,55.17256,56.15017,-4.315253,-0.09784385,4.913638,0,0,0,-92.81161,39.9348,32.43322,-117.243,58.53543,-22.7914,0.001067912,-0.1257102,0.09433498,0,0.3,0,0.08264534,0.7384115,0.08264534
6.38259E+17,-24.62016,38.01296,60.56281,-10.83407,12.20734,-123.0457,-38.85038,54.51797,55.37971,-4.168763,1.147324,4.986883,0,0,0,-92.15061,39.9348,32.73744,-117.3915,56.17576,-22.60699,0.001067912,-0.1257102,0.09433498,0,0.3,0,0.08237602,0.7383199,0.08237602
6.38259E+17,-23.98404,38.01296,60.56281,-10.32136,12.28059,-122.533,-38.85038,53.11528,53.53528,-3.875783,3.63766,5.133373,0,0,0,-89.91243,39.9348,33.74812,-117.4791,50.7557,-22.49825,0.001067912,-0.1257102,0.09433498,0,0.3,0,0.08325137,0.7380642,0.08325137
6.38259E+17,-22.99452,38.01296,60.56281,-9.515661,12.28059,-120.2624,-38.85038,51.47881,51.73754,-3.509557,6.274486,5.353109,0,0,0,-86.40889,39.9348,35.27072,-117.7766,45.10113,-22.1289,0.001067912,-0.1257102,0.09433498,0,0.3,0,0.08603639,0.7377543,0.08603639
6.38259E+17,-21.93432,38.01296,60.51611,-8.270493,12.28059,-117.8453,-38.7797,49.95922,50.19662,-3.143331,8.398596,5.499599,0,0,0,-82.60656,39.84018,36.7851,-117.8961,40.07632,-21.61032,0.001067912,-0.1257102,0.09433498,0,0.3,0,0.0895984,0.7373665,0.0895984
