zeyangz2/LSTM/data/srikar and zeyang_1.csv
Timestamp,Therapist joint angle 0,Therapist joint angle 1,Therapist joint angle 2,Therapist joint angle 3,Therapist joint angle 4,Therapist joint angle 5,Patient joint angle 0,Patient joint angle 1,Patient joint angle 2,Patient joint angle 3,Patient joint angle 4,Patient joint angle 5,Virtual joint angle 0,Virtual joint angle 1,Virtual joint angle 2,Therapist position x,Therapist position y,Therapist position z,Patient position x,Patient position y,Patient position z,Virtual position x,Virtual position y,Virtual position z,Assistive Force, Obstacle Force Magnitude, Therapist Constant Force, Patient Constant Force, Recovery Factor, Assistance Level
638233826660394635,0,0,0,0,0,0,0,0,0,0,0,0,0,0,0,0,0,0,0,0,0,0,0,0,0,0.3,0,0,0,0
638233826660474609,9.565345,-0.7948589,-23.83756,9.161857,4.223621,-18.52482,-10.24858,0.4675641,9.128781,34.43144,19.89809,16.41313,0,0,0,13.20147,-100.4745,-90.0101,-27.48889,-107.2228,-16.31299,0.001067912,-0.1257102,0.09433498,0,0.3,0,1.055677,0,1.055677
638233826660764521,9.565345,-0.7948589,-23.83756,9.235103,4.296866,-18.45157,-9.965863,0.7481025,6.280415,33.25952,20.77703,15.53419,0,0,0,13.20147,-100.4745,-90.0101,-25.60035,-107.4586,-22.65566,0.001067912,-0.1257102,0.09433498,0,0.3,0,0.9755591,0,0.9755591
638233826661164394,9.565345,-0.7948589,-23.83756,9.454838,4.370111,-18.52482,-8.693625,1.589718,-10.31949,31.50163,20.48405,13.55657,0,0,0,13.20147,-100.4745,-90.0101,-16.53753,-104.1435,-60.19629,0.001067912,-0.1257102,0.09433498,0,0.3,0,0.4827464,0.0863515,0.4827464
638233826661504281,9.565345,-0.7948589,-23.83756,9.528083,4.296866,-18.45157,-7.138669,0.9351282,-15.87614,29.817,21.2165,9.088613,0,0,0,13.20147,-100.4745,-90.0101,-12.03606,-102.7371,-72.24759,0.001067912,-0.1257102,0.09433498,0,0.3,0,0.3045459,0.2126641,0.3045459
638233826661834176,9.565345,-0.7948589,-23.83756,9.528083,4.370111,-18.30508,-5.96067,0.7247244,-15.12903,29.74375,22.24193,6.891257,0,0,0,13.20147,-100.4745,-90.0101,-10.23253,-103.6915,-70.34691,0.001067912,-0.1257102,0.09433498,0,0.3,0,0.2855456,0.257345,0.2855456
638233826662174069,9.541784,-0.7948589,-23.83756,9.674574,4.882828,-18.23184,-4.311473,0.3272949,-14.68543,30.91567,23.34061,3.375489,0,0,0,13.16925,-100.4745,-90.00468,-7.483408,-104.882,-69.08969,0.001067912,-0.1257102,0.09433498,0,0.3,0,0.2511643,0.3239634,0.2511643
638233826662523962,9.541784,-0.7948589,-23.83756,9.967555,5.542034,-16.91342,-4.052313,0.3272949,-14.70878,32.23409,23.78008,1.324624,0,0,0,13.16925,-100.4745,-90.00468,-7.030646,-104.8682,-69.10928,0.001067912,-0.1257102,0.09433498,0,0.3,0,0.2309824,0.3713304,0.2309824
638233826662863850,9.541784,-0.7948589,-23.83756,10.18729,5.981505,-15.59501,-4.146553,0.3272949,-14.70878,32.60031,24.07306,0.6654179,0,0,0,13.16925,-100.4745,-90.00468,-7.193867,-104.8682,-69.12099,0.001067912,-0.1257102,0.09433498,0,0.3,0,0.2249724,0.3898494,0.2249724
638233826663203741,9.541784,-0.7714807,-23.58074,10.91974,7.299919,-11.42003,-4.146553,0.3272949,-14.82551,33.11303,24.58578,-0.140279,0,0,0,13.2601,-100.6604,-89.46425,-7.174871,-104.799,-69.38301,0.001067912,-0.1257102,0.09433498,0,0.3,0,0.2096734,0.4205463,0.2096734
638233826663553629,9.423985,-0.6779679,-23.16049,11.43246,8.325351,-6.073137,-4.146553,0.3272949,-14.89556,33.40601,24.87876,-0.9459759,0,0,0,13.24534,-100.8308,-88.54871,-7.163478,-104.7572,-69.54016,0.001067912,-0.1257102,0.09433498,0,0.3,0,0.195219,0.445497,0.195219
638233826663903515,9.188385,-0.6545897,-22.95036,11.57895,8.545086,1.178134,-4.146553,0.3272949,-14.89556,33.69899,25.46472,-1.531937,0,0,0,12.98904,-100.9679,-88.05009,-7.163478,-104.7572,-69.54016,0.001067912,-0.1257102,0.09433498,0,0.3,0,0.1843262,0.4661906,0.1843262
638233826664233407,9.117705,-0.6312115,-22.92702,11.43246,8.691576,5.79258,-4.146553,0.3272949,-14.89556,33.84548,25.7577,-1.751673,0,0,0,12.898,-100.9346,-87.98411,-7.163478,-104.7572,-69.54016,0.001067912,-0.1257102,0.09433498,0,0.3,0,0.1805198,0.4751996,0.1805198
638233826664588354,9.117705,-0.6078333,-22.90367,10.99299,8.911312,10.99299,-4.146553,0.3039166,-14.89556,33.84548,25.97744,-1.971408,0,0,0,12.90603,-100.9014,-87.93411,-7.163499,-104.8116,-69.53986,0.001067912,-0.1257102,0.09433498,0,0.3,0,0.1750259,0.4908923,0.1750259
638233826664928243,9.117705,-0.6078333,-22.92702,10.48027,9.057802,15.97366,-4.122993,0.2805384,-15.10568,33.91872,26.05068,-1.971408,0,0,0,12.8981,-100.8802,-87.98353,-7.088925,-104.7394,-70.0078,0.001067912,-0.1257102,0.09433498,0,0.3,0,0.1682715,0.5042997,0.1682715
638233826665268134,9.117705,-0.6078333,-22.92702,10.26054,8.984557,17.73154,-4.099433,0.2571602,-15.43254,33.91872,26.19717,-1.971408,0,0,0,12.8981,-100.8802,-87.98353,-6.996041,-104.5935,-70.73665,0.001067912,-0.1257102,0.09433498,0,0.3,0,0.1626774,0.5105577,0.1626774
638233826665678007,9.117705,-0.6078333,-22.92702,9.967555,8.838067,19.9289,-3.981634,0.1402692,-16.06292,33.99197,26.70989,-1.824918,0,0,0,12.8981,-100.8802,-87.98353,-6.697351,-104.4673,-72.13019,0.001067912,-0.1257102,0.09433498,0,0.3,0,0.1519613,0.5224969,0.1519613
638233826666017899,9.117705,-0.6078333,-22.92702,9.747819,8.691576,20.29512,-3.958073,-0.09351282,-16.36643,33.99197,27.66208,-1.531937,0,0,0,12.8981,-100.8802,-87.98353,-6.61098,-104.8142,-72.8039,0.001067912,-0.1257102,0.09433498,0,0.3,0,0.1459947,0.5333771,0.1459947
638233826666367785,9.141265,-0.6078333,-22.81028,9.674574,8.764822,19.78241,-3.958073,-0.3272949,-16.41313,33.84548,28.98049,-1.385447,0,0,0,12.97091,-100.9858,-87.74168,-6.603645,-105.3276,-72.9099,0.001067912,-0.1257102,0.09433498,0,0.3,0,0.1424644,0.5430146,0.1424644
638233826666717673,9.211945,-0.5376987,-22.71689,9.528083,8.838067,19.19645,-3.958073,-0.350673,-16.41313,33.47925,30.15241,-1.312202,0,0,0,13.10269,-100.9067,-87.5583,-6.603622,-105.382,-72.91022,0.001067912,-0.1257102,0.09433498,0,0.3,0,0.1399154,0.5515288,0.1399154
638233826667057561,9.259066,-0.4909423,-22.67019,9.454838,8.911312,19.04996,-3.958073,-0.350673,-16.41313,33.18628,30.59188,-1.312202,0,0,0,13.18541,-100.8398,-87.46918,-6.603622,-105.382,-72.91022,0.001067912,-0.1257102,0.09433498,0,0.3,0,0.1388478,0.5554028,0.1388478
638233826667397451,9.400424,-0.1870256,-22.48342,9.381593,9.131048,18.97671,-3.958073,-0.3740513,-16.41313,32.60031,31.32433,-1.312202,0,0,0,13.45117,-100.2994,-87.10182,-6.603599,-105.4364,-72.91057,0.001067912,-0.1257102,0.09433498,0,0.3,0,0.1372742,0.5624603,0.1372742
638233826667737344,9.541784,0.3272949,-22.01647,9.308348,9.131048,19.26969,-3.958073,-0.3740513,-16.41313,32.30733,31.32433,-1.238957,0,0,0,13.81807,-99.51386,-86.14478,-6.603599,-105.4364,-72.91057,0.001067912,-0.1257102,0.09433498,0,0.3,0,0.1349929,0.5688038,0.1349929
638233826668077235,9.612464,0.7481025,-21.68961,9.235103,8.911312,19.56267,-3.958073,-0.3740513,-16.41313,32.38057,31.1046,-1.238957,0,0,0,14.03584,-98.81769,-85.47478,-6.603599,-105.4364,-72.91057,0.001067912,-0.1257102,0.09433498,0,0.3,0,0.134115,0.5717402,0.134115
638233826668407133,9.706704,1.496205,-21.3394,9.454838,8.178861,20.66135,-3.958073,-0.4675641,-16.43647,32.67356,30.95811,-1.238957,0,0,0,14.29423,-97.37582,-84.78416,-6.599891,-105.6387,-72.96416,0.001067912,-0.1257102,0.09433498,0,0.3,0,0.1342227,0.5770522,0.1342227
638233826668747025,9.730264,2.010525,-21.03589,9.601329,7.666144,22.27274,-3.958073,-0.6779679,-16.43647,32.7468,31.17784,-1.238957,0,0,0,14.43372,-96.43466,-84.17698,-6.599553,-106.1284,-72.96904,0.001067912,-0.1257102,0.09433498,0,0.3,0,0.1345404,0.5816702,0.1345404
638233826669076915,9.777385,2.174173,-20.84911,9.674574,7.446409,23.07844,-3.934513,-0.7714807,-16.45982,32.7468,31.32433,-1.238957,0,0,0,14.56952,-96.20943,-83.80249,-6.556567,-106.3306,-73.02107,0.001067912,-0.1257102,0.09433498,0,0.3,0,0.1341621,0.58379,0.1341621
638233826669416806,9.989424,2.524846,-20.33547,10.0408,6.933692,24.83632,-3.816714,-0.8883717,-16.50652,32.82005,32.13003,-1.238957,0,0,0,15.07063,-95.81441,-82.78784,-6.353358,-106.5718,-73.11571,0.001067912,-0.1257102,0.09433498,0,0.3,0,0.1332227,0.5877167,0.1332227
638233826669756701,10.1779,3.062545,-19.6117,10.55352,6.347731,26.52096,-3.722474,-0.8883717,-16.57656,32.82005,32.71599,-1.092466,0,0,0,15.62099,-95.13986,-81.33968,-6.186563,-106.5254,-73.26132,0.001067912,-0.1257102,0.09433498,0,0.3,0,0.1322734,0.5913268,0.1322734
638233826670196556,10.36638,4.091186,-18.42099,11.28597,5.395544,28.64507,-3.722474,-0.8883717,-16.57656,33.25952,33.44844,-0.7262403,0,0,0,16.3517,-93.65347,-78.96125,-6.186563,-106.5254,-73.26132,0.001067912,-0.1257102,0.09433498,0,0.3,0,0.1347233,0.5944126,0.1347233
638233826670536449,10.48418,4.956179,-17.60384,11.79868,4.589847,29.67051,-3.722474,-0.8649935,-16.52986,33.5525,33.66818,-0.5065048,0,0,0,16.83566,-92.23466,-77.37276,-6.193381,-106.502,-73.15654,0.001067912,-0.1257102,0.09433498,0,0.3,0,0.138144,0.5969037,0.138144
638233826670876342,10.60198,5.564013,-17.06685,12.01842,4.077131,30.25646,-3.722474,-0.8649935,-16.38978,33.69899,33.59494,-0.2867693,0,0,0,17.21831,-91.19834,-76.3624,-6.21368,-106.5943,-72.84454,0.001067912,-0.1257102,0.09433498,0,0.3,0,0.1420577,0.5978153,0.1420577
638233826671216235,10.79046,6.919948,-15.92284,12.82412,2.978453,31.35514,-3.769594,-0.8649935,-15.71271,34.28495,33.52169,0.9583986,0,0,0,17.93453,-88.8173,-74.24877,-6.391783,-107.03,-71.33858,0.001067912,-0.1257102,0.09433498,0,0.3,0,0.1531084,0.5987691,0.1531084
638233826671566118,10.97894,8.158993,-14.77882,13.62981,1.733285,32.30733,-3.934513,-0.7481025,-14.84886,34.94416,33.44844,2.789528,0,0,0,18.66092,-86.66338,-72.15917,-6.804332,-107.2879,-69.41871,0.001067912,-0.1257102,0.09433498,0,0.3,0,0.1650492,0.5984697,0.1650492
638233826671916009,11.33234,9.187634,-13.82158,14.50875,0.4881175,33.25952,-3.981634,-0.3039166,-14.05505,35.60336,33.3752,4.693902,0,0,0,19.60713,-84.84702,-70.51335,-7.010573,-106.7152,-67.63017,0.001067912,-0.1257102,0.09433498,0,0.3,0,0.1738948,0.5975734,0.1738948
638233826672255899,11.56794,9.561686,-13.42468,14.94823,-0.09784385,33.5525,-3.981634,-0.04675641,-13.75154,35.8231,33.22871,5.646089,0,0,0,20.16086,-84.20566,-69.8542,-7.058313,-106.2864,-66.94429,0.001067912,-0.1257102,0.09433498,0,0.3,0,0.1771895,0.5969502,0.1771895
638233826672605786,12.15694,10.28641,-12.70091,16.12015,-1.123276,33.91872,-3.981634,0.4909423,-13.19121,36.18932,32.71599,6.964502,0,0,0,21.45664,-82.92491,-68.74674,-7.146039,-105.3388,-65.68395,0.001067912,-0.1257102,0.09433498,0,0.3,0,0.1844456,0.5953752,0.1844456
638233826672955679,13.0051,10.82411,-12.09388,17.29207,-1.928973,34.13846,-3.981634,0.9585064,-12.51413,36.55555,32.05679,7.843444,0,0,0,23.18761,-81.99796,-67.95418,-7.25176,-104.6012,-64.16507,0.001067912,-0.1257102,0.09433498,0,0.3,0,0.193701,0.5933082,0.193701
638233826673295564,14.20666,11.05789,-11.5102,18.61049,-2.58818,34.50468,-3.981634,1.309179,-12.02384,36.92178,31.47083,8.649141,0,0,0,25.58877,-81.7416,-67.27353,-7.328063,-104.0277,-63.06883,0.001067912,-0.1257102,0.09433498,0,0.3,0,0.204567,0.5905933,0.204567
638233826673635459,14.86634,11.17478,-11.25338,19.41618,-2.807915,34.50468,-3.981634,1.519583,-11.69698,37.06827,31.17784,9.015368,0,0,0,26.88768,-81.59261,-67.05919,-7.37892,-103.6945,-62.33819,0.001067912,-0.1257102,0.09433498,0,0.3,0,0.2108591,0.5890542,0.2108591
638233826673975351,16.20925,11.40856,-10.83313,21.10082,-2.954405,34.57793,-3.958073,1.987147,-11.04326,37.43449,30.73837,9.454838,0,0,0,29.4924,-81.24639,-66.89764,-7.435989,-102.9068,-60.88034,0.001067912,-0.1257102,0.09433498,0,0.3,0,0.2239915,0.585517,0.2239915
638233826674315241,17.57573,11.6891,-10.57631,22.71221,-2.954405,34.57793,-3.958073,2.407955,-10.31949,37.65423,30.15241,9.821064,0,0,0,32.04126,-80.71771,-67.19452,-7.547656,-102.2403,-59.26646,0.001067912,-0.1257102,0.09433498,0,0.3,0,0.239432,0.5813508,0.239432
638233826674715114,19.13069,11.87613,-10.41288,24.25036,-2.807915,34.57793,-3.958073,2.875519,-9.619073,37.72747,29.56645,10.11404,0,0,0,34.86783,-80.36089,-67.83186,-7.655017,-101.4355,-57.7148,0.001067912,-0.1257102,0.09433498,0,0.3,0,0.2568901,0.576483,0.2568901
638233826675055006,19.76681,11.89951,-10.38953,24.98281,-2.73467,34.50468,-3.958073,3.132679,-9.245518,37.72747,29.34671,10.18729,0,0,0,35.99594,-80.31745,-68.18541,-7.712053,-100.9803,-56.89048,0.001067912,-0.1257102,0.09433498,0,0.3,0,0.2644747,0.5738397,0.2644747
638233826675394896,21.15685,11.89951,-10.34284,26.59421,-2.514934,34.50468,-3.887394,3.90416,-8.521752,37.80072,28.68751,10.33378,0,0,0,38.45375,-80.33701,-68.98839,-7.679911,-99.44827,-55.33055,0.001067912,-0.1257102,0.09433498,0,0.3,0,0.2794015,0.5682386,0.2794015
638233826675734786,22.594,11.89951,-10.13271,28.2056,-2.221954,34.43144,-3.722474,4.675641,-7.938071,37.94721,27.73532,10.40703,0,0,0,41.1186,-80.42393,-69.53976,-7.433133,-97.85223,-54.10131,0.001067912,-0.1257102,0.09433498,0,0.3,0,0.294616,0.5622814,0.294616
638233826676074681,23.37148,11.89951,-9.945935,29.08454,-2.075463,34.43144,-3.675354,4.956179,-7.727945,38.0937,27.29585,10.40703,0,0,0,42.62539,-80.4997,-69.71387,-7.366715,-97.26826,-53.66645,0.001067912,-0.1257102,0.09433498,0,0.3,0,0.3037481,0.5591247,0.3037481
638233826676414570,24.80864,11.89951,-9.689116,30.69594,-1.782483,34.43144,-3.651794,5.353609,-7.401083,38.31343,26.63664,10.40703,0,0,0,45.33295,-80.60162,-70.27936,-7.362296,-96.44717,-52.99379,0.001067912,-0.1257102,0.09433498,0,0.3,0,0.3226665,0.5524521,0.3226665
638233826676754463,26.0102,11.89951,-9.408949,32.30733,-1.416257,34.43144,-3.651794,5.821173,-7.261,38.45993,26.05068,10.40703,0,0,0,47.66146,-80.70979,-70.67364,-7.376143,-95.40575,-52.77682,0.001067912,-0.1257102,0.09433498,0,0.3,0,0.339272,0.545448,0.339272
638233826677094350,27.14108,11.89951,-9.035392,33.5525,-1.123276,34.43144,-3.651794,6.218602,-7.261,38.67966,25.61121,10.55352,0,0,0,49.97144,-80.84913,-70.86964,-7.369965,-94.48587,-52.87362,0.001067912,-0.1257102,0.09433498,0,0.3,0,0.3557337,0.5382085,0.3557337
638233826677434242,27.6594,11.92288,-8.848614,34.13846,-0.9035407,34.43144,-3.651794,6.288737,-7.261,38.89939,25.39147,10.8465,0,0,0,51.04535,-80.86346,-70.95528,-7.368832,-94.32362,-52.89137,0.001067912,-0.1257102,0.09433498,0,0.3,0,0.3642939,0.5345045,0.3642939
638233826677774132,28.60179,12.06315,-8.568447,35.38363,-0.3175794,34.13846,-3.675354,6.405628,-7.00418,39.26562,25.09849,11.79868,0,0,0,52.9164,-80.64285,-71.30168,-7.452399,-94.12745,-52.33255,0.001067912,-0.1257102,0.09433498,0,0.3,0,0.3826119,0.5269075,0.3826119
638233826678114024,29.12011,12.18004,-8.428363,36.04284,0.268382,33.84548,-3.675354,6.919948,-6.397151,39.5586,24.95201,12.45789,0,0,0,53.92128,-80.42504,-71.55256,-7.533442,-93.10336,-51.07089,0.001067912,-0.1257102,0.09433498,0,0.3,0,0.3966631,0.5192471,0.3966631
638233826678453915,29.37927,12.27356,-8.358321,36.33582,0.5613627,33.77223,-3.651794,7.504403,-5.860164,39.70509,24.80551,12.75087,0,0,0,54.41506,-80.23614,-71.69708,-7.553486,-91.88729,-49.99812,0.001067912,-0.1257102,0.09433498,0,0.3,0,0.4039393,0.5153955,0.4039393
638233826678793810,29.75623,12.48396,-8.264932,36.77529,1.147324,33.62574,-3.416194,8.953853,-4.622759,39.99807,23.99982,13.55657,0,0,0,55.10442,-79.78925,-71.9616,-7.20888,-88.81176,-47.5873,0.001067912,-0.1257102,0.09433498,0,0.3,0,0.415433,0.5077543,0.415433
638233826679143699,30.10963,12.7645,-8.241585,36.92178,1.66004,33.5525,-2.992115,10.49681,-3.408701,40.3643,22.6814,14.21577,0,0,0,55.65327,-79.1599,-72.38024,-6.430319,-85.47026,-45.32827,0.001067912,-0.1257102,0.09433498,0,0.3,0,0.4248361,0.500301,0.4248361
638233826679473592,30.29811,12.95152,-8.19489,37.06827,1.879776,33.62574,-2.874315,11.33843,-2.591547,40.51079,22.09544,14.36226,0,0,0,55.97407,-78.75108,-72.5546,-6.254008,-83.6465,-43.78899,0.001067912,-0.1257102,0.09433498,0,0.3,0,0.432499,0.4965792,0.432499
638233826679818549,30.65151,13.34895,-8.101501,37.288,2.172756,33.77223,-2.497356,13.18531,-0.5369871,40.65728,20.92352,14.36226,0,0,0,56.56627,-77.88116,-72.89761,-5.602861,-79.57685,-39.88734,0.001067912,-0.1257102,0.09433498,0,0.3,0,0.4497025,0.4890463,0.4497025
638233826680158433,31.05203,13.91003,-7.938071,37.43449,2.465737,33.91872,-1.696317,15.56988,1.377489,40.65728,19.45862,14.36226,0,0,0,57.26769,-76.66516,-73.2363,-3.897464,-74.16852,-36.74549,0.001067912,-0.1257102,0.09433498,0,0.3,0,0.4618836,0.4815177,0.4618836
638233826680498326,31.47611,14.75165,-7.657903,37.80072,2.392492,33.99197,-0.7067988,18.00122,3.291965,40.73053,17.84722,14.14253,0,0,0,58.05428,-74.85583,-73.52529,-1.658899,-68.56985,-33.88023,0.001067912,-0.1257102,0.09433498,0,0.3,0,0.4729583,0.474131,0.4729583
638233826680838215,31.66459,15.56988,-7.517819,37.94721,1.879776,34.06521,0.02355996,19.49742,4.646106,40.95026,16.89503,13.48332,0,0,0,58.27411,-73.06081,-73.86562,0.05613059,-65.05433,-31.84528,0.001067912,-0.1257102,0.09433498,0,0.3,0,0.4781734,0.4704881,0.4781734
638233826681178112,31.85307,16.57515,-7.284348,38.16694,1.293814,34.06521,0.7539188,20.90011,5.9769,41.02351,15.79636,12.45789,0,0,0,58.52715,-70.88264,-74.15031,1.821874,-61.70385,-29.90051,0.001067912,-0.1257102,0.09433498,0,0.3,0,0.4864037,0.4633569,0.4864037
638233826681518000,32.06511,17.65055,-6.91079,38.38668,0.4148723,34.06521,1.696317,22.44308,7.517819,41.09675,14.69768,10.8465,0,0,0,58.94239,-68.59804,-74.26053,4.164905,-57.94534,-27.7149,0.001067912,-0.1257102,0.09433498,0,0.3,0,0.4937362,0.4564427,0.4937362
638233826681867891,32.13579,18.16486,-6.677318,38.45993,0.04864649,34.06521,2.191077,23.1678,8.264932,41.31649,14.25821,10.0408,0,0,0,59.14964,-67.52328,-74.18809,5.419997,-56.15176,-26.68831,0.001067912,-0.1257102,0.09433498,0,0.3,0,0.4964016,0.4530869,0.4964016
638233826682267761,32.20647,19.17013,-6.163678,38.67966,-0.8302955,34.06521,2.944995,24.4536,9.292212,41.68271,13.52576,8.282915,0,0,0,59.49978,-65.44043,-73.8896,7.342837,-53.04908,-25.61869,0.001067912,-0.1257102,0.09433498,0,0.3,0,0.4989716,0.4466521,0.4989716
638233826682617646,32.20647,20.29228,-5.626691,38.82615,-1.635992,33.91872,3.769594,25.48224,10.03932,41.75596,12.86655,6.525032,0,0,0,59.69242,-63.11048,-73.58376,9.442446,-50.58684,-25.03708,0.001067912,-0.1257102,0.09433498,0,0.3,0,0.4963162,0.4406419,0.4963162
638233826682957544,32.20647,21.64822,-5.019662,38.89939,-2.368444,33.62574,4.594193,26.18359,10.6697,41.90245,12.42708,5.060128,0,0,0,59.84023,-60.29484,-73.34911,11.56258,-48.85396,-24.4582,0.001067912,-0.1257102,0.09433498,0,0.3,0,0.4918459,0.4351136,0.4918459
638233826683297429,32.13579,23.19118,-4.459328,38.97264,-3.027651,33.18628,5.418791,26.8148,11.30008,42.19543,12.28059,3.96145,0,0,0,59.68581,-57.08304,-73.33456,13.70631,-47.25967,-23.85825,0.001067912,-0.1257102,0.09433498,0,0.3,0,0.4862307,0.4300871,0.4862307
638233826683637322,32.13579,23.96266,-4.202508,38.89939,-3.467122,32.89329,5.79575,27.18885,11.62694,42.26867,12.28059,3.521979,0,0,0,59.62082,-55.48253,-73.438,14.69201,-46.33281,-23.60303,0.001067912,-0.1257102,0.09433498,0,0.3,0,0.4844182,0.42773,0.4844182
638233826683987213,32.13579,25.59913,-3.618826,38.89939,-4.272818,32.16084,6.785269,28.17073,12.21062,42.48841,12.1341,2.862773,0,0,0,59.49259,-52.11729,-73.64215,17.22115,-44.02858,-23.6126,0.001067912,-0.1257102,0.09433498,0,0.3,0,0.4756183,0.4234439,0.4756183
638233826684357095,32.13579,27.25899,-3.035145,38.75291,-5.078516,31.35514,7.633427,29.176,12.42074,42.85464,11.62138,2.276812,0,0,0,59.29938,-48.73687,-73.94971,19.2761,-41.87156,-24.52245,0.001067912,-0.1257102,0.09433498,0,0.3,0,0.4640544,0.4196521,0.4640544
638233826684666996,32.13579,27.98371,-2.73163,38.67966,-5.444741,30.84243,8.104627,29.69032,12.51413,43.00113,11.40165,2.203566,0,0,0,59.25869,-47.27792,-74.0145,20.40526,-40.78211,-25.05808,0.001067912,-0.1257102,0.09433498,0,0.3,0,0.4571622,0.4179726,0.4571622
638233826685006886,32.13579,29.08249,-2.21799,38.45993,-6.250438,29.89024,9.023465,30.55531,12.56083,43.36735,11.10867,1.910586,0,0,0,59.24423,-45.0829,-74.03751,22.55866,-39.01723,-26.29677,0.001067912,-0.1257102,0.09433498,0,0.3,0,0.4424679,0.4150425,0.4424679
638233826685356772,32.13579,30.11112,-1.634309,38.16694,-7.202625,28.86481,9.895184,31.2099,12.56083,43.80682,11.03542,1.69085,0,0,0,59.33747,-43.0469,-73.88908,24.58284,-37.70975,-27.42676,0.001067912,-0.1257102,0.09433498,0,0.3,0,0.4277879,0.412658,0.4277879
638233826685696659,32.13579,31.13977,-0.9338906,37.94721,-7.861832,27.25341,10.74334,31.77098,12.56083,44.39278,10.96218,1.471115,0,0,0,59.55564,-41.02333,-73.54176,26.53902,-36.59622,-28.47625,0.001067912,-0.1257102,0.09433498,0,0.3,0,0.41276,0.4107746,0.41276
638233826686036553,32.13579,31.67747,-0.4902926,37.80072,-8.081567,26.22798,11.21454,32.05152,12.56083,44.68576,11.03542,1.397869,0,0,0,59.75787,-39.9681,-73.21983,27.62131,-36.04197,-29.03778,0.001067912,-0.1257102,0.09433498,0,0.3,0,0.4039398,0.4100306,0.4039398
638233826686376447,32.08867,32.79962,0.4435981,37.72747,-8.521038,24.03063,11.92134,32.4957,12.65422,45.12524,11.03542,1.104889,0,0,0,60.09415,-37.75996,-72.5096,29.2675,-35.12045,-29.72167,0.001067912,-0.1257102,0.09433498,0,0.3,0,0.3901598,0.4088717,0.3901598
638233826686796325,31.85307,34.71663,1.70435,37.58098,-9.619716,21.10082,12.74594,32.84638,13.33129,45.78444,11.18191,0.8851534,0,0,0,59.93943,-33.99576,-71.87723,31.5011,-34.07914,-29.08932,0.001067912,-0.1257102,0.09433498,0,0.3,0,0.380174,0.4080196,0.380174
638233826687126210,31.57035,36.16608,2.614894,37.58098,-10.71839,19.19645,13.3585,33.2438,14.05505,46.3704,11.47489,0.6654179,0,0,0,59.54725,-31.1676,-71.44498,33.24972,-32.90503,-28.33248,0.001067912,-0.1257102,0.09433498,0,0.3,0,0.3743188,0.4073702,0.3743188
638233826687466101,31.38187,37.2181,3.315312,37.58098,-11.3776,17.80479,13.73546,33.66461,14.522,46.66338,11.47489,0.3724372,0,0,0,59.31407,-29.11998,-71.10877,34.29206,-31.81969,-28.0557,0.001067912,-0.1257102,0.09433498,0,0.3,0,0.3695713,0.4071374,0.3695713
638233826687805992,30.95779,39.20525,4.78619,37.58098,-12.40303,15.24121,14.4187,34.57636,15.54928,47.1761,11.03542,-0.4332596,0,0,0,58.8777,-25.24444,-70.19733,36.24112,-29.44275,-27.39112,0.001067912,-0.1257102,0.09433498,0,0.3,0,0.3603726,0.4068508,0.3603726
638233826688155875,30.36879,41.14564,6.187026,37.50774,-13.86794,12.53114,15.03126,35.48811,16.55321,47.54232,10.6692,-1.312202,0,0,0,58.03343,-21.48229,-69.31084,38.01247,-27.05917,-26.79444,0.001067912,-0.1257102,0.09433498,0,0.3,0,0.3509089,0.4068007,0.3509089
638233826688495767,29.75623,43.03927,7.541167,37.36125,-15.33284,9.381593,15.73805,36.42324,17.51045,47.9818,10.37621,-1.824918,0,0,0,57.05804,-17.83533,-68.54433,39.98692,-24.6449,-26.45382,0.001067912,-0.1257102,0.09433498,0,0.3,0,0.340443,0.4070003,0.340443
638233826688835660,29.47351,43.92765,8.171543,37.21476,-15.99205,7.696954,16.11501,36.96094,18.04744,48.34802,10.08323,-2.117898,0,0,0,56.57991,-16.13461,-68.23738,41.04239,-23.25982,-26.29501,0.001067912,-0.1257102,0.09433498,0,0.3,0,0.3356237,0.4071794,0.3356237
638233826689185551,28.97875,45.54074,9.408949,36.99502,-17.09072,4.034696,16.77469,37.91945,19.14476,48.93398,9.8635,-2.557369,0,0,0,55.81205,-13.02761,-67.57428,42.98238,-20.67418,-25.7579,0.001067912,-0.1257102,0.09433498,0,0.3,0,0.3287853,0.4076421,0.3287853
638233826689525438,28.67247,46.59276,10.34284,36.70204,-18.40914,-0.2867693,17.45793,39.0416,20.38216,49.37346,9.790254,-2.85035,0,0,0,55.45395,-10.95605,-66.94566,45.00521,-17.65592,-25.24542,0.001067912,-0.1257102,0.09433498,0,0.3,0,0.3218236,0.4082538,0.3218236
638233826689875329,28.46043,47.10708,10.73974,36.55555,-19.28808,-3.656047,18.11761,40.21051,21.59622,49.66644,9.790254,-3.143331,0,0,0,55.0949,-9.968401,-66.71049,46.98346,-14.44538,-24.95292,0.001067912,-0.1257102,0.09433498,0,0.3,0,0.3161836,0.4086303,0.3161836
638233826690215216,28.24839,47.55127,11.04326,36.4823,-19.72755,-7.24506,18.68305,41.54307,22.76358,50.03266,9.424027,-3.582802,0,0,0,54.68694,-9.134236,-66.56582,48.49961,-11.17784,-24.92435,0.001067912,-0.1257102,0.09433498,0,0.3,0,0.3111385,0.4094392,0.3111385
638233826690555108,27.96567,48.18248,11.53355,36.4823,-20.09377,-12.15249,19.08357,43.20292,24.44459,50.39889,8.984557,-4.242009,0,0,0,54.1979,-7.925333,-66.27108,49.82189,-6.757452,-24.3394,0.001067912,-0.1257102,0.09433498,0,0.3,0,0.3109047,0.4102659,0.3109047
638233826690905010,27.56516,48.86045,12.11723,36.40906,-20.46,-17.35289,19.29561,45.11993,25.86877,50.69187,8.984557,-4.97446,0,0,0,53.55125,-6.601847,-65.76399,50.3188,-2.147904,-24.62674,0.001067912,-0.1257102,0.09433498,0,0.3,0,0.3054975,0.4111421,0.3054975
638233826691344855,26.92904,49.70206,12.72426,36.11608,-21.19245,-22.11383,19.53121,47.20059,27.22291,50.83836,8.911312,-5.706912,0,0,0,52.36154,-5.020185,-65.26927,50.68426,2.614524,-25.46944,0.001067912,-0.1257102,0.09433498,0,0.3,0,0.2980482,0.4121363,0.2980482
638233826691684748,26.64632,49.9826,12.88769,35.89634,-21.33894,-23.43224,19.53121,47.90194,27.66651,50.83836,8.764822,-5.926647,0,0,0,51.79481,-4.51481,-65.12666,50.5879,4.19205,-25.74107,0.001067912,-0.1257102,0.09433498,0,0.3,0,0.2962739,0.4126584,0.2962739
638233826692034634,25.75104,50.63719,13.09782,35.23714,-22.07139,-26.06907,19.53121,49.6553,28.62375,50.9116,8.618331,-6.512609,0,0,0,49.87333,-3.43191,-64.95667,50.21851,7.931945,-26.78239,0.001067912,-0.1257102,0.09433498,0,0.3,0,0.291893,0.4137414,0.291893
638233826692384527,24.50236,51.03462,13.09782,34.06521,-22.58411,-27.46073,19.46053,51.29178,29.34751,50.9116,8.471841,-6.952079,0,0,0,47.31092,-2.847749,-64.54698,49.55603,11.17215,-28.1011,0.001067912,-0.1257102,0.09433498,0,0.3,0,0.2860694,0.4149003,0.2860694
638233826692834379,22.8296,51.40867,13.09782,32.30733,-23.02358,-28.11993,19.20137,52.76461,29.8378,50.98485,8.398596,-7.391551,0,0,0,43.99733,-2.302506,-63.83567,48.35879,13.84467,-29.49316,0.001067912,-0.1257102,0.09433498,0,0.3,0,0.278769,0.4161749,0.278769
638233826693174271,20.94481,51.71259,13.28459,30.10997,-23.38981,-28.41291,18.91865,54.07378,30.30475,50.83836,8.178861,-7.904267,0,0,0,40.4893,-1.763566,-62.5673,47.18467,16.20505,-30.6811,0.001067912,-0.1257102,0.09433498,0,0.3,0,0.270881,0.4175839,0.270881
638233826693514166,18.75373,52.18015,13.93832,27.54639,-23.75603,-28.11993,18.61237,55.1258,30.58492,50.69187,7.959125,-8.197248,0,0,0,36.61532,-0.7347422,-60.50781,45.99051,17.95379,-31.78948,0.001067912,-0.1257102,0.09433498,0,0.3,0,0.257921,0.4191493,0.257921
638233826693844056,17.57573,52.48407,14.42861,26.15474,-24.04902,-27.53397,18.42389,55.52323,30.70166,50.61862,7.88588,-8.343738,0,0,0,34.5555,-0.02290078,-59.25694,45.3745,18.61851,-32.13886,0.001067912,-0.1257102,0.09433498,0,0.3,0,0.251133,0.4200194,0.251133
638233826694183948,15.14906,53.0919,15.68936,23.00519,-25.36743,-25.70284,18.04693,56.29471,30.93513,50.39889,7.959125,-8.636719,0,0,0,30.35147,1.594986,-56.24417,44.16128,19.90331,-32.8134,0.001067912,-0.1257102,0.09433498,0,0.3,0,0.2369055,0.4219309,0.2369055
638233826694523838,13.26426,53.48933,17.16024,19.63592,-26.83233,-21.01515,17.62285,56.92593,30.95848,50.17915,7.812634,-8.856454,0,0,0,27.23113,3.115834,-52.83238,42.79965,20.73972,-33.61486,0.001067912,-0.1257102,0.09433498,0,0.3,0,0.2186061,0.424139,0.2186061
638233826694863731,12.51034,53.6296,17.97739,18.02452,-27.63803,-17.2064,17.34013,57.18309,30.95848,50.03266,7.812634,-8.856454,0,0,0,26.04465,3.883817,-50.9704,41.9846,21.06522,-33.88475,0.001067912,-0.1257102,0.09433498,0,0.3,0,0.2083316,0.4253611,0.2083316
638233826695203621,11.16742,54.02703,19.56501,14.94823,-29.46916,-8.563474,16.77469,57.55714,30.95848,49.81293,7.666144,-8.929699,0,0,0,23.8195,5.618721,-47.69268,40.44397,21.53464,-34.17894,0.001067912,-0.1257102,0.09433498,0,0.3,0,0.190823,0.4280132,0.190823
638233826695538579,9.588904,54.35432,20.8958,11.87193,-31.59327,0.4456824,16.16213,57.72078,30.93513,49.66644,7.446409,-8.856454,0,0,0,20.86793,7.135415,-44.82589,38.90472,21.71056,-34.10799,0.001067912,-0.1257102,0.09433498,0,0.3,0,0.1817567,0.4308253,0.1817567
638233826695888465,8.670066,54.40108,21.57287,10.26054,-32.39896,4.840393,15.73805,57.74416,30.88843,49.66644,7.299919,-8.856454,0,0,0,19.09249,7.769526,-43.14255,37.87229,21.68377,-33.95774,0.001067912,-0.1257102,0.09433498,0,0.3,0,0.1782223,0.4322481,0.1782223
638233826696218362,6.997309,54.44784,22.76358,6.671522,-33.49764,12.60438,14.86634,57.74416,30.65496,49.51994,7.080183,-8.783209,0,0,0,15.73129,8.878487,-40.17919,35.70351,21.40577,-33.84837,0.001067912,-0.1257102,0.09433498,0,0.3,0,0.1723669,0.4351196,0.1723669
638233826696558251,5.418791,54.44784,23.95429,2.716283,-34.59632,18.61049,13.80614,57.74416,30.21136,49.08047,6.713957,-8.563474,0,0,0,12.43486,9.977242,-37.26177,32.9963,20.88281,-34.07523,0.001067912,-0.1257102,0.09433498,0,0.3,0,0.1650156,0.4380452,0.1650156
638233826696898141,4.122993,54.44784,25.37848,-1.165711,-35.5485,23.59116,12.5339,57.74416,30.00124,48.56776,6.201241,-8.343738,0,0,0,9.683817,11.36052,-34.00978,29.91506,20.6375,-33.78871,0.001067912,-0.1257102,0.09433498,0,0.3,0,0.155509,0.4410652,0.155509
638233826697338003,2.921435,54.30756,26.49915,-5.853402,-36.3542,28.13236,11.02606,57.72078,29.97789,48.05504,5.615279,-7.611286,0,0,0,6.997691,12.31123,-31.22882,26.36369,20.5813,-33.04916,0.001067912,-0.1257102,0.09433498,0,0.3,0,0.1468555,0.4441621,0.1468555
638233826697677895,2.615156,54.26081,26.82601,-7.464796,-36.50069,29.30428,10.4135,57.72078,29.97789,47.68882,5.395544,-7.318305,0,0,0,6.299652,12.58907,-30.42598,24.91569,20.5813,-32.77504,0.001067912,-0.1257102,0.09433498,0,0.3,0,0.1412956,0.4457602,0.1412956
638233826698017789,2.191077,54.12054,27.29295,-10.83407,-36.72043,30.84243,9.070585,57.72078,29.97789,46.95637,4.736337,-6.80559,0,0,0,5.325756,12.89245,-29.15148,21.73149,20.5813,-32.22835,0.001067912,-0.1257102,0.09433498,0,0.3,0,0.1265524,0.4490994,0.1265524
638233826698347680,2.143956,53.6296,27.29295,-13.10467,-36.72043,30.10997,7.586308,57.65065,30.00124,46.07742,4.077131,-6.366118,0,0,0,5.245805,12.21882,-28.22486,18.22271,20.5212,-31.52773,0.001067912,-0.1257102,0.09433498,0,0.3,0,0.1077889,0.4526949,0.1077889
638233826698687572,2.143956,53.32568,27.29295,-13.83713,-36.42745,28.93805,6.879509,57.58052,30.00124,45.63795,3.78415,-6.219628,0,0,0,5.26707,11.79786,-27.65683,16.55004,20.43377,-31.1765,0.001067912,-0.1257102,0.09433498,0,0.3,0,0.0997984,0.4545808,0.0997984
638233826699017464,2.191077,52.27366,26.96609,-14.2766,-35.10904,26.22798,5.324551,57.39349,30.00124,44.68576,3.198189,-5.926647,0,0,0,5.431451,9.970634,-26.38894,12.8557,20.19981,-30.41243,0.001067912,-0.1257102,0.09433498,0,0.3,0,0.08979333,0.4584398,0.08979333
638233826699367360,2.662276,50.77746,26.17229,-13.69064,-32.76519,24.03063,3.816714,57.13633,29.97789,43.80682,2.758718,-5.194195,0,0,0,6.648614,6.977811,-25.36581,9.25198,19.849,-29.66653,0.001067912,-0.1257102,0.09433498,0,0.3,0,0.09288972,0.4622162,0.09288972
638233826699717244,3.274835,49.28125,25.89212,-12.22573,-29.5424,22.56572,2.308876,56.76228,29.97789,42.78139,2.246002,-4.608234,0,0,0,8.29585,4.454713,-23.36573,5.6289,19.37421,-28.742,0.001067912,-0.1257102,0.09433498,0,0.3,0,0.1074089,0.4656705,0.1074089
638233826700057133,3.557554,48.9072,25.98551,-11.27355,-27.93101,22.1995,1.507838,56.5285,29.95454,42.26867,2.026266,-4.315253,0,0,0,9.064111,3.979726,-22.55666,3.687307,19.04791,-28.26968,0.001067912,-0.1257102,0.09433498,0,0.3,0,0.1131248,0.4672784,0.1131248
638233826700397029,3.722474,49.00071,26.68592,-8.783209,-25.73365,21.76003,-0.04711992,55.96742,29.95454,41.09675,1.586795,-3.509557,0,0,0,9.567916,4.845822,-21.28928,-0.1161345,18.32239,-27.13547,0.001067912,-0.1257102,0.09433498,0,0.3,0,0.1164806,0.4703857,0.1164806
638233826700736912,3.133475,49.2345,27.08283,-7.09857,-25.58716,21.54029,-1.130878,55.68688,29.97789,40.3643,1.220569,-2.923595,0,0,0,8.078208,5.619654,-20.78677,-2.798639,17.98279,-26.57577,0.001067912,-0.1257102,0.09433498,0,0.3,0,0.114889,0.4734288,0.114889
638233826701076820,2.732955,49.25787,27.10618,-6.219628,-25.73365,21.54029,-1.837677,55.49986,30.00124,39.85158,1.074079,-2.70386,0,0,0,7.046837,5.679923,-20.72676,-4.560329,17.76399,-26.2151,0.001067912,-0.1257102,0.09433498,0,0.3,0,0.1157248,0.4749204,0.1157248
638233826701416697,2.049716,49.2345,27.10618,-4.461744,-26.4661,22.41923,-3.180595,55.14918,30.00124,38.82615,0.6346079,-2.337634,0,0,0,5.287478,5.644403,-20.61203,-7.927418,17.29965,-25.69085,0.001067912,-0.1257102,0.09433498,0,0.3,0,0.1197002,0.4777973,0.1197002
638233826701856566,1.437158,48.93058,27.10618,-2.484124,-27.78452,24.54334,-4.335033,54.84526,30.00124,37.80072,0.4148723,-1.751673,0,0,0,3.72112,5.18112,-20.02962,-10.84381,16.89392,-25.30179,0.001067912,-0.1257102,0.09433498,0,0.3,0,0.1261052,0.4805046,0.1261052
638233826702196445,0.8481586,48.20586,27.10618,0.5189275,-29.68889,27.98586,-5.371671,54.51797,30.00124,36.77529,0.1951368,-1.165711,0,0,0,2.21494,4.064977,-18.73474,-13.48822,16.45354,-24.90257,0.001067912,-0.1257102,0.09433498,0,0.3,0,0.1352696,0.4829891,0.1352696
638233826702526344,0.4005193,46.89668,27.05948,4.327676,-31.59327,31.50163,-6.314069,53.93351,30.00124,35.8231,0.1218917,-0.3600145,0,0,0,1.061013,1.959045,-16.57055,-15.96708,15.65834,-24.0469,0.001067912,-0.1257102,0.09433498,0,0.3,0,0.1486358,0.4852018,0.1486358
638233826702866234,0.3298394,45.98492,27.05948,6.818012,-32.6187,32.7468,-6.761709,53.58284,30.00124,35.38363,0.1218917,0.006211365,0,0,0,0.8826303,0.4967799,-15.03166,-17.17149,15.17584,-23.52238,0.001067912,-0.1257102,0.09433498,0,0.3,0,0.1590939,0.4861579,0.1590939
638233826703206127,0.1177998,44.23156,26.96609,12.3114,-34.23009,34.28495,-7.492068,52.62434,30.00124,34.65118,0.1218917,1.104889,0,0,0,0.3207721,-2.481915,-12.33222,-19.2488,13.83653,-21.98424,0.001067912,-0.1257102,0.09433498,0,0.3,0,0.1744437,0.4878229,0.1744437
638233826703546014,-0.4476392,42.75873,26.31237,17.14558,-35.32877,35.31038,-7.986827,51.29178,30.00124,34.2117,0.1951368,2.203566,0,0,0,-1.22673,-5.650704,-11.33734,-20.85134,11.92538,-19.73713,0.001067912,-0.1257102,0.09433498,0,0.3,0,0.1765066,0.4893379,0.1765066
638233826703885905,-0.8010387,42.19766,25.84542,18.75698,-35.5485,35.89634,-8.198866,50.45016,29.97789,33.99197,0.268382,2.862773,0,0,0,-2.193834,-7.091559,-11.44215,-21.61115,10.66211,-18.35796,0.001067912,-0.1257102,0.09433498,0,0.3,0,0.1733863,0.490114,0.1733863
638233826704225796,-1.342918,41.35604,24.98158,20.22188,-35.47526,37.21476,-8.670066,48.81369,29.95454,33.69899,0.6346079,4.181186,0,0,0,-3.665707,-9.415092,-11.98075,-23.27427,8.168159,-15.71869,0.001067912,-0.1257102,0.09433498,0,0.3,0,0.1690181,0.4917032,0.1690181
638233826704555693,-1.908357,40.21051,23.5107,19.48943,-34.15685,38.53317,-8.999906,47.48113,29.93119,33.40601,1.147324,5.206618,0,0,0,-5.162727,-12.83957,-13.40356,-24.50655,6.071784,-13.62009,0.001067912,-0.1257102,0.09433498,0,0.3,0,0.1713664,0.4932441,0.1713664
638233826704905582,-3.015675,38.45715,21.87639,16.55962,-31.0073,39.41211,-9.164824,46.28884,29.93119,33.18628,1.733285,5.93907,0,0,0,-8.107587,-17.46321,-14.45363,-25.27445,4.175253,-11.69151,0.001067912,-0.1257102,0.09433498,0,0.3,0,0.1753413,0.4946727,0.1753413
638233826705245469,-3.557554,37.7558,21.40944,14.65524,-29.24942,39.77834,-9.235504,45.68101,29.93119,33.03978,1.879776,6.158805,0,0,0,-9.562514,-19.14843,-14.54,-25.63096,3.192278,-10.71864,0.001067912,-0.1257102,0.09433498,0,0.3,0,0.1752531,0.4953691,0.1752531
638233826705585362,-4.664873,36.75054,21.03589,10.33378,-25.95339,40.51079,-9.423985,44.32507,29.90785,32.89329,2.099511,6.671522,0,0,0,-12.5824,-21.32541,-14.14971,-26.50705,0.9338576,-8.648829,0.001067912,-0.1257102,0.09433498,0,0.3,0,0.1687292,0.4968175,0.1687292
638233826705925255,-5.88999,36.16608,21.05923,6.08556,-23.17007,40.95026,-9.612464,43.15617,29.8378,32.7468,2.392492,7.257483,0,0,0,-15.96459,-22.39993,-13.59949,-27.32273,-1.112814,-7.02175,0.001067912,-0.1257102,0.09433498,0,0.3,0,0.1567965,0.4984179,0.1567965
638233826706365111,-6.926629,35.86216,21.05923,1.397869,-20.38675,41.09675,-9.871624,41.56644,29.74442,32.52707,2.538982,7.843444,0,0,0,-18.81184,-22.97207,-13.50078,-28.44722,-3.954614,-4.876803,0.001067912,-0.1257102,0.09433498,0,0.3,0,0.143677,0.5001959,0.143677
638233826706715005,-7.350708,35.83878,21.08258,-1.531937,-18.9951,41.17,-10.03654,40.16375,29.62768,32.38057,2.538982,8.209671,0,0,0,-19.96801,-22.99664,-13.56237,-29.24875,-6.557984,-3.088546,0.001067912,-0.1257102,0.09433498,0,0.3,0,0.1343578,0.5021129,0.1343578
638233826707054890,-7.586308,35.81541,21.08258,-3.070086,-18.40914,41.09675,-10.1779,39.25201,29.53429,32.30733,2.612227,8.50265,0,0,0,-20.60853,-23.04076,-13.61421,-29.86254,-8.297746,-2.012915,0.001067912,-0.1257102,0.09433498,0,0.3,0,0.1299256,0.5031168,0.1299256
638233826707404778,-8.198866,35.72189,21.05923,-5.487176,-17.5302,41.02351,-10.36638,37.49864,29.39421,32.16084,2.978453,9.088613,0,0,0,-22.27253,-23.23688,-13.76765,-30.81433,-11.65716,0.1006587,0.001067912,-0.1257102,0.09433498,0,0.3,0,0.1236101,0.5051773,0.1236101
638233826707744674,-8.976345,35.69852,21.10593,-7.684532,-17.01748,40.65728,-10.50774,35.53487,29.20743,32.08759,3.491169,9.454838,0,0,0,-24.38881,-23.24197,-13.95258,-31.65666,-15.54293,2.325341,0.001067912,-0.1257102,0.09433498,0,0.3,0,0.1195984,0.5072738,0.1195984
638233826708084566,-9.400424,35.67514,21.15262,-8.709964,-17.01748,40.58403,-10.60198,34.45947,29.06735,32.01435,3.78415,9.674574,0,0,0,-25.55266,-23.24699,-14.006,-32.14906,-17.75195,3.404094,0.001067912,-0.1257102,0.09433498,0,0.3,0,0.1193066,0.5083138,0.1193066
638233826708424454,-10.50774,35.46473,21.26936,-10.68758,-17.16397,40.21781,-10.79046,32.35543,28.62375,31.86786,4.443357,10.0408,0,0,0,-28.62875,-23.54701,-13.99951,-33.04932,-22.33766,5.057448,0.001067912,-0.1257102,0.09433498,0,0.3,0,0.1199639,0.5103589,0.1199639
638233826708764346,-11.7093,35.06731,21.45614,-13.39765,-17.09072,39.92483,-10.95538,30.20464,28.1568,31.79461,5.175808,10.48027,0,0,0,-32.04967,-24.14388,-13.71443,-33.86054,-27.13225,6.574543,0.001067912,-0.1257102,0.09433498,0,0.3,0,0.1255101,0.51229,0.1255101
638233826709104236,-13.02866,34.38934,21.59622,-16.25422,-17.01748,39.63185,-11.37946,28.05384,27.59647,31.72137,5.981505,10.91974,0,0,0,-35.87269,-25.32106,-13.32213,-35.40762,-32.1144,7.577678,0.001067912,-0.1257102,0.09433498,0,0.3,0,0.1335224,0.514046,0.1335224
638233826709444127,-14.04174,33.73475,21.71296,-18.52482,-16.87099,39.26562,-11.85066,26.74467,27.22291,31.50163,6.420976,11.21272,0,0,0,-38.87637,-26.4829,-12.90785,-36.98268,-35.21975,7.897449,0.001067912,-0.1257102,0.09433498,0,0.3,0,0.1373212,0.5148653,0.1373212
638233826709784024,-15.14906,32.89313,21.80634,-21.0884,-16.7245,38.60641,-12.60458,25.64589,26.77931,31.20865,6.860447,11.87193,0,0,0,-42.20695,-28.03921,-12.45491,-39.34414,-37.98309,7.599499,0.001067912,-0.1257102,0.09433498,0,0.3,0,0.1363925,0.5164819,0.1363925
638233826710123909,-16.20925,31.72422,21.783,-24.23794,-16.57801,37.58098,-13.80614,24.87441,26.19563,30.54945,7.373164,12.89736,0,0,0,-45.47604,-30.35867,-11.91476,-42.91777,-40.2128,6.299116,0.001067912,-0.1257102,0.09433498,0,0.3,0,0.1256669,0.5181968,0.1256669
638233826710453807,-16.65689,31.04625,21.783,-25.70284,-16.35827,37.14151,-14.51294,24.61725,25.93881,30.18322,7.519653,13.55657,0,0,0,-46.93238,-31.70569,-11.48755,-44.99715,-41.019,5.47916,0.001067912,-0.1257102,0.09433498,0,0.3,0,0.1169163,0.5191421,0.1169163
638233826710883668,-17.50505,29.52667,21.783,-28.11993,-15.62582,36.40906,-16.04433,24.12631,25.61195,29.23104,7.592898,14.94823,0,0,0,-49.78569,-34.75957,-10.49848,-49.5676,-42.3906,4.009313,0.001067912,-0.1257102,0.09433498,0,0.3,0,0.09810934,0.5212365,0.09810934
638233826711233556,-18.37677,27.60966,21.7363,-30.02431,-14.74688,35.74985,-17.57573,23.68212,25.26174,28.27885,7.592898,16.33988,0,0,0,-52.82224,-38.71812,-9.345288,-54.06038,-43.68581,2.320718,0.001067912,-0.1257102,0.09433498,0,0.3,0,0.07586063,0.5236367,0.07586063
638233826711568501,-19.13069,25.36535,21.7363,-32.00193,-13.42846,35.09065,-19.06001,23.21456,24.7948,27.18017,7.519653,17.51181,0,0,0,-55.67327,-43.39292,-7.853239,-58.28291,-45.14392,0.3416962,0.001067912,-0.1257102,0.09433498,0,0.3,0,0.05196028,0.5263879,0.05196028
638233826711908466,-19.71969,23.47172,21.7363,-33.46683,-12.1833,34.87091,-20.21445,22.72361,24.56132,25.86176,7.592898,18.24426,0,0,0,-57.93494,-47.40575,-6.719008,-61.65323,-46.42281,-0.9117119,0.001067912,-0.1257102,0.09433498,0,0.3,0,0.04097993,0.5293303,0.04097993
638233826712248280,-20.04953,22.4197,21.7363,-34.12604,-11.45084,34.72442,-20.73277,22.44308,24.49128,25.1293,7.592898,18.68373,0,0,0,-59.1917,-49.66045,-6.158509,-63.20166,-47.09334,-1.380493,0.001067912,-0.1257102,0.09433498,0,0.3,0,0.03956043,0.5308099,0.03956043
638233826712598170,-20.56785,20.17539,21.7363,-35.22471,-9.692961,34.50468,-21.62804,22.11578,24.39789,24.03063,7.666144,19.26969,0,0,0,-61.32297,-54.52681,-4.92446,-65.83634,-47.88816,-2.303874,0.001067912,-0.1257102,0.09433498,0,0.3,0,0.04923085,0.5336056,0.04923085
638233826712928062,-20.92125,18.09473,21.7363,-36.1769,-8.008322,34.3582,-22.33484,21.97551,24.3512,23.15168,7.666144,19.9289,0,0,0,-62.8966,-59.10152,-3.823179,-67.88857,-48.2356,-3.106863,0.001067912,-0.1257102,0.09433498,0,0.3,0,0.06946772,0.5360775,0.06946772
638233826713267953,-21.0626,17.22974,21.7363,-36.54313,-7.27587,34.3582,-22.68824,21.95213,24.32785,22.71221,7.592898,20.14863,0,0,0,-63.52184,-61.01979,-3.408863,-68.89524,-48.30846,-3.555641,0.001067912,-0.1257102,0.09433498,0,0.3,0,0.07984475,0.5371718,0.07984475
638233826713607847,-21.39244,15.68677,21.7363,-36.9826,-5.664476,34.2117,-23.32436,21.83524,24.21111,22.05301,7.592898,20.5881,0,0,0,-64.84141,-64.46362,-2.829986,-70.66267,-48.67257,-4.464967,0.001067912,-0.1257102,0.09433498,0,0.3,0,0.09741423,0.5391158,0.09741423
638233826713957736,-21.62804,14.33084,21.7363,-37.42207,-4.199574,34.06521,-23.98404,21.67159,24.02434,21.24731,7.666144,21.3938,0,0,0,-65.82269,-67.5117,-2.338317,-72.44094,-49.20394,-5.522926,0.001067912,-0.1257102,0.09433498,0,0.3,0,0.1132348,0.5407705,0.1132348
638233826714307621,-21.72228,13.32558,21.7363,-37.71505,-3.320631,33.99197,-24.50236,21.50795,23.79086,20.73459,7.739389,22.12625,0,0,0,-66.30262,-69.7835,-1.927321,-73.76305,-49.77831,-6.509408,0.001067912,-0.1257102,0.09433498,0,0.3,0,0.124966,0.5421894,0.124966
638233826714637520,-21.76941,12.7645,21.71296,-37.86154,-2.88116,34.06521,-24.76152,21.39106,23.67413,20.44161,7.739389,22.63897,0,0,0,-66.53005,-71.07576,-1.755053,-74.43183,-50.14086,-6.980217,0.001067912,-0.1257102,0.09433498,0,0.3,0,0.1313185,0.5428122,0.1313185
638233826714977410,-21.76941,11.6891,21.59622,-37.34882,-2.148709,34.28495,-25.32696,21.017,23.32392,20.00214,7.88588,23.59116,0,0,0,-66.63299,-73.62209,-1.497307,-75.83564,-51.27748,-8.113636,0.001067912,-0.1257102,0.09433498,0,0.3,0,0.1428442,0.5438993,0.1428442
638233826715407268,-21.76941,10.59033,21.47948,-36.03041,-2.661425,35.74985,-26.05732,20.33904,22.81028,19.48943,7.88588,24.32361,0,0,0,-66.7225,-76.2309,-1.273174,-77.6336,-53.22211,-9.580839,0.001067912,-0.1257102,0.09433498,0,0.3,0,0.1524061,0.5448135,0.1524061
638233826715737171,-21.76941,9.538307,21.45614,-35.00498,-3.393876,37.36125,-26.55208,19.77796,22.57681,19.1232,7.88588,24.68983,0,0,0,-66.86243,-78.66154,-0.9227779,-78.9778,-54.65838,-10.30493,0.001067912,-0.1257102,0.09433498,0,0.3,0,0.1617597,0.5455762,0.1617597
638233826716067062,-21.72228,8.579801,21.45614,-34.34578,-3.833347,38.38668,-26.90548,19.38053,22.41338,18.75698,7.88588,24.90957,0,0,0,-66.85471,-80.86451,-0.5415449,-79.93235,-55.6754,-10.83204,0.001067912,-0.1257102,0.09433498,0,0.3,0,0.1713828,0.5458488,0.1713828
638233826716406950,-21.48668,6.38225,21.45614,-32.88087,-4.053083,40.65728,-27.77719,18.49216,21.99312,18.24426,7.88588,25.34904,0,0,0,-66.40801,-85.93523,0.3515312,-82.21021,-58.00069,-12.27391,0.001067912,-0.1257102,0.09433498,0,0.3,0,0.1956776,0.5461022,0.1956776
638233826716746840,-21.20397,4.956179,21.12928,-31.26948,-3.906592,43.22086,-28.74315,17.37,21.50283,17.6583,8.105616,25.64202,0,0,0,-65.43699,-89.5142,0.3220055,-84.7067,-60.9083,-13.90632,0.001067912,-0.1257102,0.09433498,0,0.3,0,0.2117079,0.546061,0.2117079
638233826717086734,-20.96836,4.55875,20.77907,-30.39053,-4.053083,44.61252,-29.23791,16.73879,21.26936,17.29207,8.398596,25.86176,0,0,0,-64.49792,-90.72747,-0.04947409,-86.00047,-62.51092,-14.70907,0.001067912,-0.1257102,0.09433498,0,0.3,0,0.2178528,0.5459671,0.2178528
638233826717426627,-20.40293,3.927538,20.07865,-28.48616,-4.712289,46.95637,-29.99183,15.49975,20.84911,16.41313,8.911312,26.37447,0,0,0,-62.33923,-92.76151,-0.7510668,-87.95858,-65.6327,-15.95109,0.001067912,-0.1257102,0.09433498,0,0.3,0,0.2288228,0.5456596,0.2288228
638233826717776515,-19.55477,3.24957,19.40158,-26.36205,-4.85878,49.37346,-30.58083,14.00354,20.4522,15.60743,9.424027,26.88719,0,0,0,-59.38811,-94.86854,-1.151232,-89.53189,-69.32586,-16.84417,0.001067912,-0.1257102,0.09433498,0,0.3,0,0.2417032,0.545167,0.2417032
638233826718116411,-18.49457,2.922275,18.84124,-23.65198,-5.15176,52.15677,-30.86355,12.25018,20.14869,14.94823,9.8635,27.39991,0,0,0,-55.90643,-96.05637,-1.21064,-90.41393,-73.54493,-17.061,0.001067912,-0.1257102,0.09433498,0,0.3,0,0.251339,0.5445192,0.251339
638233826718456308,-17.90557,2.898897,18.72451,-22.26032,-5.517986,53.62167,-30.91067,11.31505,20.00861,14.72849,10.30297,27.61964,0,0,0,-54.10709,-96.19819,-0.8868999,-90.60931,-75.78739,-17.01683,0.001067912,-0.1257102,0.09433498,0,0.3,0,0.2554088,0.5441567,0.2554088
638233826718796185,-16.44485,2.898897,18.67781,-18.74455,-6.396928,57.50367,-30.88711,9.444795,19.77514,14.36226,11.18191,28.13236,0,0,0,-49.79147,-96.23303,0.3392273,-90.68736,-80.25368,-16.74507,0.001067912,-0.1257102,0.09433498,0,0.3,0,0.2689585,0.5433017,0.2689585
638233826719146076,-14.91346,2.898897,18.65447,-14.9358,-7.349115,61.09268,-30.72219,7.925211,19.49497,14.21577,11.91436,28.2056,0,0,0,-45.25226,-96.25042,1.559895,-90.20968,-83.9688,-16.55353,0.001067912,-0.1257102,0.09433498,0,0.3,0,0.2861201,0.5422174,0.2861201
638233826719475972,-14.13598,2.922275,18.60777,-12.88494,-7.935077,62.92381,-30.51015,7.177108,19.40158,14.21577,12.20734,28.2056,0,0,0,-42.91673,-96.2308,2.055744,-89.6594,-85.7672,-16.20018,0.001067912,-0.1257102,0.09433498,0,0.3,0,0.2937246,0.5415973,0.2937246
638233826719925827,-12.2983,3.156058,18.49104,-6.585854,-9.692961,67.46501,-29.47351,5.540634,19.1681,14.80174,13.01304,28.2056,0,0,0,-37.36908,-95.7739,3.064505,-86.84726,-89.73182,-14.68227,0.001067912,-0.1257102,0.09433498,0,0.3,0,0.3045013,0.5396,0.3045013
638233826720255721,-11.89778,3.24957,18.3743,-5.047705,-10.35217,68.56369,-29.00231,5.143205,19.12141,15.09472,13.15953,28.2056,0,0,0,-36.11427,-95.6425,3.057425,-85.57256,-90.68842,-13.98772,0.001067912,-0.1257102,0.09433498,0,0.3,0,0.3028401,0.5389433,0.3028401
638233826720595611,-11.0025,3.576865,17.9307,-1.165711,-11.52409,70.90753,-27.73007,4.231455,19.05137,16.0469,13.45251,28.05911,0,0,0,-33.23575,-95.20376,2.593255,-82.13317,-92.85661,-12.10868,0.001067912,-0.1257102,0.09433498,0,0.3,0,0.2953583,0.5377238,0.2953583
638233826720935500,-10.1779,3.693756,17.34702,2.276812,-12.91575,72.8119,-26.31648,3.272949,19.00467,16.92585,13.81874,27.98586,0,0,0,-30.54037,-95.34389,1.762671,-78.27296,-95.11805,-10.09129,0.001067912,-0.1257102,0.09433498,0,0.3,0,0.2848478,0.5366728,0.2848478
638233826721275392,-9.800944,3.810647,16.88007,3.66847,-13.35522,73.54436,-25.70392,2.875519,18.98133,17.43856,13.96523,27.98586,0,0,0,-29.24068,-95.39222,0.9188878,-76.57578,-96.05938,-9.265117,0.001067912,-0.1257102,0.09433498,0,0.3,0,0.2807282,0.5362052,0.2807282
638233826721615288,-8.952785,4.769154,15.38585,6.525032,-14.08767,74.93602,-24.1254,2.150795,18.84124,18.53724,14.18496,27.91262,0,0,0,-26.18602,-94.13396,-2.131565,-72.0686,-97.85014,-7.430058,0.001067912,-0.1257102,0.09433498,0,0.3,0,0.2690966,0.535407,0.2690966
638233826721955175,-8.081067,5.914686,13.89162,8.795631,-14.52714,75.81496,-22.45264,1.753365,18.72451,19.70916,14.4047,27.18017,0,0,0,-23.14631,-92.35835,-5.329416,-67.25427,-98.86205,-5.603485,0.001067912,-0.1257102,0.09433498,0,0.3,0,0.259279,0.5347766,0.259279
638233826722295067,-6.643909,7.247243,11.88376,10.8465,-14.52714,76.25443,-20.68565,1.636474,18.53773,21.10082,14.62444,26.22798,0,0,0,-18.48224,-90.31969,-9.677777,-62.06133,-99.27287,-3.984928,0.001067912,-0.1257102,0.09433498,0,0.3,0,0.2611663,0.5341727,0.2611663
638233826722634959,-5.701511,8.182371,10.94987,11.94517,-14.38065,76.47417,-19.88461,1.636474,18.46769,21.61354,14.62444,25.86176,0,0,0,-15.62934,-88.59324,-11.80594,-59.70481,-99.32459,-3.278727,0.001067912,-0.1257102,0.09433498,0,0.3,0,0.2689751,0.5338142,0.2689751
638233826722964850,-3.298395,10.82411,8.591794,15.16796,-13.42846,76.6939,-18.28253,1.636474,18.30426,23.07844,14.69768,24.61659,0,0,0,-8.68214,-83.46111,-17.70084,-54.9532,-99.44457,-2.016764,0.001067912,-0.1257102,0.09433498,0,0.3,0,0.3001966,0.5328133,0.3001966
638233826723304744,-0.8717186,13.27882,7.331042,18.46399,-12.91575,76.84039,-17.01029,1.659852,18.11748,24.32361,14.99066,23.51791,0,0,0,-2.233389,-78.28077,-21.56653,-51.12531,-99.52603,-1.234011,0.001067912,-0.1257102,0.09433498,0,0.3,0,0.334213,0.5313755,0.334213
638233826723644636,0.5183191,14.49449,6.864096,20.36837,-13.13548,76.91364,-16.35061,1.776743,18.00074,24.98281,15.2104,22.93195,0,0,0,1.312095,-75.66846,-23.31295,-49.12285,-99.33833,-0.9121542,0.001067912,-0.1257102,0.09433498,0,0.3,0,0.3524174,0.5304844,0.3524174
638233826723984524,3.510434,16.92582,6.560582,25.1293,-13.94118,76.84039,-14.98414,2.127417,17.76727,25.935,15.43013,21.76003,0,0,0,8.74426,-70.30414,-25.80862,-44.97505,-98.68951,-0.3147243,0.001067912,-0.1257102,0.09433498,0,0.3,0,0.3884475,0.5283653,0.3884475
638233826724444377,6.24339,18.60905,6.560582,31.20865,-15.03986,76.32768,-13.61766,2.59498,17.60384,27.03368,15.64987,20.73459,0,0,0,15.40082,-66.57359,-27.576,-40.8592,-97.71779,0.3142445,0.001067912,-0.1257102,0.09433498,0,0.3,0,0.4153755,0.5259145,0.4153755
638233826724784269,8.505146,19.38053,6.49054,36.84853,-15.9188,75.66847,-12.25118,3.132679,17.51045,28.2056,15.79636,19.85565,0,0,0,20.83406,-64.89436,-29.03162,-36.76816,-96.53349,0.9770494,0.001067912,-0.1257102,0.09433498,0,0.3,0,0.4305071,0.5232915,0.4305071
638233826725124160,10.48418,19.82472,6.560582,42.12218,-16.65125,75.229,-10.90826,3.717134,17.41706,29.45077,15.94285,19.19645,0,0,0,25.5992,-63.90195,-30.01599,-32.73507,-95.24089,1.508864,0.001067912,-0.1257102,0.09433498,0,0.3,0,0.4395055,0.5205864,0.4395055
638233826725474048,11.49726,20.10526,6.74736,44.75901,-17.31046,75.00926,-10.10722,4.067808,17.39371,30.03673,16.01609,18.97671,0,0,0,28.08265,-63.2379,-30.28557,-30.33836,-94.44287,1.844321,0.001067912,-0.1257102,0.09433498,0,0.3,0,0.4423925,0.5192333,0.4423925
638233826725813939,13.31138,20.85336,7.517819,49.95942,-18.77536,74.86278,-8.528707,4.675641,17.39371,31.2819,16.16258,18.46399,0,0,0,32.70869,-61.38417,-30.10511,-25.62254,-93.03233,2.508817,0.001067912,-0.1257102,0.09433498,0,0.3,0,0.4468741,0.5165311,0.4468741
638233826726153832,14.86634,21.69497,8.685184,55.37956,-20.89947,74.20357,-6.926629,5.4705,17.39371,32.60031,16.23583,17.80479,0,0,0,36.95579,-59.17601,-29.13078,-20.81595,-91.18964,2.995992,0.001067912,-0.1257102,0.09433498,0,0.3,0,0.4463007,0.5138851,0.4463007
638233826726493723,15.59669,22.04565,9.455643,58.08963,-21.70517,73.83734,-6.172709,5.961442,17.39371,33.25952,16.23583,17.43856,0,0,0,39.12174,-58.13591,-28.20046,-18.54734,-90.0527,3.141913,0.001067912,-0.1257102,0.09433498,0,0.3,0,0.4446619,0.5125964,0.4446619
638233826726833615,17.36369,22.55997,11.41681,64.24223,-23.17007,72.1527,-4.499953,7.15373,17.39371,34.72442,16.16258,16.8526,0,0,0,44.62867,-56.20167,-25.62285,-13.50856,-87.29598,3.294328,0.001067912,-0.1257102,0.09433498,0,0.3,0,0.4408648,0.5101027,0.4408648
638233826727173504,19.36629,22.77037,13.37798,70.83429,-23.82928,69.95535,-2.803635,8.299262,17.41706,36.33582,16.01609,16.19339,0,0,0,51.00463,-54.76991,-23.24205,-8.406628,-84.63787,3.312768,0.001067912,-0.1257102,0.09433498,0,0.3,0,0.4406466,0.5076762,0.4406466
638233826727518590,21.43956,22.9574,15.59597,77.42635,-23.5363,67.31852,-0.9895183,9.538307,17.46376,37.94721,16.01609,15.68068,0,0,0,57.98584,-53.07754,-20.68781,-2.962152,-81.75647,3.149519,0.001067912,-0.1257102,0.09433498,0,0.3,0,0.4418475,0.5052915,0.4418475
638233826727858359,22.38196,22.98077,16.81003,80.35616,-23.24332,66.07335,-0.09423985,10.12276,17.5338,38.67966,16.01609,15.53419,0,0,0,61.43171,-52.239,-19.17222,-0.2819973,-80.36717,3.098095,0.001067912,-0.1257102,0.09433498,0,0.3,0,0.4424823,0.5041137,0.4424823
638233826728198248,24.19608,23.00415,19.33154,86.21577,-21.99815,63.29004,1.931917,11.50208,17.79062,40.21781,15.94285,15.09472,0,0,0,68.40119,-50.36869,-16.12259,5.778751,-77.03268,2.968236,0.001067912,-0.1257102,0.09433498,0,0.3,0,0.4402075,0.5018125,0.4402075
638233826728528144,25.75104,22.9574,21.10593,91.26969,-19.87404,60.94619,4.028753,12.85801,18.25756,41.90245,16.01609,14.50875,0,0,0,74.20885,-49.04168,-14.50625,12.06899,-73.61172,3.008804,0.001067912,-0.1257102,0.09433498,0,0.3,0,0.4320488,0.4996424,0.4320488
638233826728968008,27.4238,22.79375,23.13714,95.95738,-17.60344,58.89533,6.643909,14.16719,18.88794,43.80682,15.94285,13.70306,0,0,0,80.75319,-47.61247,-12.71953,19.95358,-70.18186,2.953887,0.001067912,-0.1257102,0.09433498,0,0.3,0,0.418963,0.4976501,0.418963
638233826729317897,28.13059,22.46645,25.6353,99.32666,-15.9188,57.28393,8.434465,14.93867,19.44827,45.34497,15.94285,12.97061,0,0,0,85.30157,-45.91515,-8.799453,25.41091,-68.01575,3.018974,0.001067912,-0.1257102,0.09433498,0,0.3,0,0.4091631,0.4958178,0.4091631
638233826729657783,28.43687,22.20929,27.24626,101.8902,-14.89337,56.18526,9.518225,15.38286,19.84518,46.22392,15.8696,12.45789,0,0,0,87.86015,-44.79933,-6.105705,28.74679,-66.70735,3.099047,0.001067912,-0.1257102,0.09433498,0,0.3,0,0.4021958,0.4949739,0.4021958
638233826729997678,28.76671,21.71835,29.79111,107.0174,-12.69601,54.06115,11.49726,16.27123,20.75572,47.9818,15.94285,11.35921,0,0,0,91.50265,-43.03139,-1.678001,34.9342,-63.98293,3.399124,0.001067912,-0.1257102,0.09433498,0,0.3,0,0.3833036,0.4934624,0.3833036
638233826730347562,28.86095,21.53132,31.42542,111.6319,-10.35217,52.44975,13.4763,17.01933,21.92308,49.59319,15.94285,10.33378,0,0,0,93.43421,-41.4994,1.178758,41.31804,-61.32613,4.066193,0.001067912,-0.1257102,0.09433498,0,0.3,0,0.3543585,0.4922764,0.3543585
638233826730677461,28.88451,21.41443,32.24257,113.756,-9.033754,51.86379,14.5365,17.37,22.67019,50.39889,16.08934,9.674574,0,0,0,94.3325,-40.74943,2.642267,44.84441,-59.88674,4.595932,0.001067912,-0.1257102,0.09433498,0,0.3,0,0.3372681,0.4918311,0.3372681
638233826731017351,29.12011,21.18065,32.8963,116.6858,-7.202625,51.35107,16.16213,17.83757,23.93095,51.64405,16.23583,8.282915,0,0,0,95.75497,-40.43734,3.545705,50.39118,-57.68885,5.526432,0.001067912,-0.1257102,0.09433498,0,0.3,0,0.3089431,0.4911771,0.3089431
638233826731367238,29.59131,21.04038,32.87295,118.0774,-5.371496,51.13134,17.78777,18.28176,25.26174,52.96247,16.52881,6.744767,0,0,0,97.20091,-40.77139,2.814979,56.066,-55.41686,6.403299,0.001067912,-0.1257102,0.09433498,0,0.3,0,0.2788131,0.490886,0.2788131
638233826731707128,30.13319,21.04038,32.8963,117.8577,-4.199574,50.9116,19.27205,18.65581,26.49915,53.9879,16.82179,5.133373,0,0,0,98.83825,-40.74189,1.927518,61.33792,-53.33408,7.077925,0.001067912,-0.1257102,0.09433498,0,0.3,0,0.2538736,0.4908771,0.2538736
638233826732057021,30.48659,21.25079,33.19981,116.6125,-3.540367,50.83836,20.12021,18.84283,27.24626,54.50062,17.11477,4.181186,0,0,0,100.0974,-39.89994,1.672673,64.41341,-52.13594,7.475758,0.001067912,-0.1257102,0.09433498,0,0.3,0,0.2428569,0.4909636,0.2428569
638233826732396907,30.65151,21.83524,33.78349,115.1476,-2.441689,50.54538,21.0626,19.07661,28.2035,55.08658,17.481,2.936018,0,0,0,100.9093,-37.8851,1.92877,67.94175,-50.5849,8.067898,0.001067912,-0.1257102,0.09433498,0,0.3,0,0.2280409,0.4912431,0.2280409
638233826732736800,30.67507,22.81713,34.50726,113.5362,-1.123276,49.37346,22.02856,19.3104,29.25412,55.59929,17.77398,1.397869,0,0,0,101.2477,-34.82571,2.33966,71.64334,-48.89573,8.719286,0.001067912,-0.1257102,0.09433498,0,0.3,0,0.2121651,0.491711,0.2121651
638233826733076691,30.81643,23.35482,34.60065,112.3643,-0.3908245,48.64101,22.45264,19.38053,29.67438,55.89228,17.92047,0.738663,0,0,0,101.5088,-33.55122,1.821658,73.25655,-48.2606,8.921225,0.001067912,-0.1257102,0.09433498,0,0.3,0,0.2072308,0.4919839,0.2072308
638233826733476563,31.47611,24.43022,34.48391,108.3358,0.707853,46.66338,23.183,19.49742,30.42149,56.33175,18.06696,-0.5065048,0,0,0,102.8152,-31.41691,-0.4137358,76.06712,-47.1334,9.273399,0.001067912,-0.1257102,0.09433498,0,0.3,0,0.2061632,0.4925352,0.2061632
638233826733816454,32.04155,25.66927,34.48391,103.9411,1.51355,44.83226,23.79556,19.63769,31.00517,56.84446,18.21345,-1.385447,0,0,0,103.8197,-28.80445,-2.471528,78.38884,-46.13197,9.418598,0.001067912,-0.1257102,0.09433498,0,0.3,0,0.2090507,0.4930584,0.2090507
638233826734156343,32.55987,27.18885,34.36718,99.83938,2.392492,43.14762,24.26676,19.66107,31.49546,57.21069,18.28669,-2.410879,0,0,0,104.3483,-25.7911,-4.933069,80.24155,-45.48875,9.640588,0.001067912,-0.1257102,0.09433498,0,0.3,0,0.2176296,0.4934914,0.2176296
638233826734496237,33.10175,28.17073,34.11036,95.51791,2.758718,41.75596,24.7144,19.89485,31.98576,57.35718,18.35994,-3.143331,0,0,0,105.0395,-24.10372,-7.230443,81.95845,-44.37643,9.722553,0.001067912,-0.1257102,0.09433498,0,0.3,0,0.2219903,0.4938568,0.2219903
638233826734836126,33.33735,28.49803,34.08701,93.32056,2.978453,41.02351,24.92644,20.0585,32.19588,57.43042,18.43318,-3.582802,0,0,0,105.4777,-23.46371,-8.003363,82.73667,-43.75867,9.675752,0.001067912,-0.1257102,0.09433498,0,0.3,0,0.2228559,0.4940303,0.2228559
638233826735166023,33.64362,29.03573,33.87688,89.07233,3.710905,39.70509,25.3034,20.40917,32.63948,57.65016,18.43318,-4.168763,0,0,0,105.775,-22.64006,-9.40846,84.158,-42.43941,9.660294,0.001067912,-0.1257102,0.09433498,0,0.3,0,0.2210184,0.4943872,0.2210184
638233826735515913,33.90279,29.73707,33.15312,84.89736,4.443357,38.24019,25.68036,20.90011,33.10642,57.79665,18.35994,-4.97446,0,0,0,105.2627,-22.14788,-11.71896,85.54821,-40.78037,9.562117,0.001067912,-0.1257102,0.09433498,0,0.3,0,0.2177399,0.4947703,0.2177399
638233826735855804,33.99702,30.18126,32.63948,82.7,4.809582,37.58098,25.86884,21.22741,33.31655,57.94314,18.35994,-5.267441,0,0,0,104.6703,-21.90149,-13.1525,86.19208,-39.80166,9.401555,0.001067912,-0.1257102,0.09433498,0,0.3,0,0.2159828,0.4949729,0.2159828
638233826736195689,34.11483,31.13977,31.1686,78.52503,5.102563,36.33582,26.22224,21.95213,33.80684,58.01638,18.28669,-5.926647,0,0,0,102.7213,-21.79171,-16.71586,87.43271,-37.60244,9.162792,0.001067912,-0.1257102,0.09433498,0,0.3,0,0.2142209,0.4953882,0.2142209
638233826736535587,34.11483,31.93463,29.81446,74.27681,5.102563,35.38363,26.55208,22.81713,34.34383,58.23612,17.99371,-6.732344,0,0,0,100.6555,-21.81414,-19.76534,88.5732,-35.04075,8.896734,0.001067912,-0.1257102,0.09433498,0,0.3,0,0.2130195,0.4958114,0.2130195
638233826736865480,34.11483,32.30868,29.41755,72.00621,5.102563,34.94416,26.717,23.33145,34.64734,58.38261,17.84722,-7.09857,0,0,0,99.94543,-21.53334,-20.81345,89.13384,-33.53942,8.742031,0.001067912,-0.1257102,0.09433498,0,0.3,0,0.2121937,0.4960259,0.2121937
638233826737215367,34.13838,32.96326,29.044,68.19746,5.249053,33.77223,27.02328,24.36009,35.20768,58.60235,17.40775,-7.757777,0,0,0,99.11923,-20.67496,-22.16256,90.12528,-30.60311,8.353332,0.001067912,-0.1257102,0.09433498,0,0.3,0,0.2097659,0.4964637,0.2097659
638233826737545262,34.11483,33.40745,28.27354,64.31547,5.395544,32.30733,27.35312,25.71602,35.65128,58.89533,16.82179,-8.343738,0,0,0,97.85926,-20.66975,-23.89299,90.9139,-27.14543,7.392528,0.001067912,-0.1257102,0.09433498,0,0.3,0,0.2055942,0.4969386,0.2055942
638233826737885149,34.11483,33.54772,27.89998,62.33785,5.468789,31.50163,27.51804,26.46413,35.79136,58.96857,16.60205,-8.709964,0,0,0,97.32808,-20.80678,-24.67711,91.18789,-25.39138,6.685774,0.001067912,-0.1257102,0.09433498,0,0.3,0,0.2029172,0.4971924,0.2029172
638233826738225047,34.11483,33.68799,27.54977,58.5291,5.90826,29.89024,27.75363,27.98371,35.93144,59.18831,16.30907,-9.22268,0,0,0,96.82205,-20.91411,-25.4241,91.27651,-22.05557,5.111413,0.001067912,-0.1257102,0.09433498,0,0.3,0,0.1949668,0.4977665,0.1949668
638233826738564937,34.0677,33.85164,27.47973,54.64711,6.567466,27.98586,28.01279,29.57343,36.00148,59.26155,15.94285,-9.515661,0,0,0,96.50489,-20.67281,-25.63966,91.28558,-18.71702,3.240765,0.001067912,-0.1257102,0.09433498,0,0.3,0,0.1844122,0.4984257,0.1844122
638233826738904829,33.80854,33.94515,27.10618,50.83836,7.299919,26.7407,28.20127,31.04625,36.00148,59.3348,15.72311,-9.66215,0,0,0,95.36096,-20.89082,-25.94744,91.03204,-15.75781,1.41499,0.001067912,-0.1257102,0.09433498,0,0.3,0,0.176385,0.4991602,0.176385
638233826739244715,33.64362,33.94515,26.94275,48.93398,7.666144,26.44772,28.27195,31.65409,36.00148,59.40804,15.64987,-9.735395,0,0,0,94.76295,-21.06365,-25.95563,90.89278,-14.54968,0.6543599,0.001067912,-0.1257102,0.09433498,0,0.3,0,0.1730787,0.49955,0.1730787
638233826739594607,33.45514,33.96853,26.9194,44.68576,8.545086,26.08149,28.36619,33.12691,36.00148,59.48129,15.64987,-9.808641,0,0,0,94.25056,-21.04313,-25.71044,90.29825,-11.65522,-1.111098,0.001067912,-0.1257102,0.09433498,0,0.3,0,0.1662808,0.5003735,0.1662808
638233826739934494,33.29023,33.96853,26.80266,41.24324,9.131048,25.42229,28.43687,34.38934,35.97814,59.48129,15.43013,-9.808641,0,0,0,93.70656,-21.16589,-25.64235,89.70609,-9.244447,-2.696952,0.001067912,-0.1257102,0.09433498,0,0.3,0,0.1631295,0.5012313,0.1631295
638233826740274392,33.2431,33.96853,26.70927,39.19238,9.570518,24.4701,28.43687,35.13744,35.90809,59.48129,15.28364,-9.881886,0,0,0,93.48277,-21.26374,-25.72765,89.1705,-7.909781,-3.685986,0.001067912,-0.1257102,0.09433498,0,0.3,0,0.1627685,0.501659,0.1627685
638233826740614284,32.98395,34.01529,26.73262,35.09065,10.30297,21.76003,28.41331,36.37648,35.65128,59.48129,14.99066,-9.881886,0,0,0,92.83001,-21.14908,-25.31659,88.07024,-5.919126,-5.557926,0.001067912,-0.1257102,0.09433498,0,0.3,0,0.1579248,0.5025419,0.1579248
638233826741034143,32.60699,34.03867,26.73262,30.4762,10.88893,18.3175,28.34263,37.52202,35.27772,59.55453,14.69768,-9.881886,0,0,0,91.87056,-21.10398,-24.73459,86.77235,-4.292924,-7.483114,0.001067912,-0.1257102,0.09433498,0,0.3,0,0.1528181,0.5034641,0.1528181
638233826741384028,32.11223,33.92177,26.59254,26.30123,11.10867,14.72849,28.22483,38.38701,34.71738,59.55453,14.62444,-9.881886,0,0,0,90.55295,-21.47588,-24.06464,85.35063,-3.45351,-9.337276,0.001067912,-0.1257102,0.09433498,0,0.3,0,0.1477358,0.504425,0.1477358
638233826741713929,31.33475,33.71137,26.35906,21.10082,11.3284,9.967555,28.10703,39.15849,34.11036,59.48129,14.69768,-9.881886,0,0,0,88.47557,-22.12498,-23.03186,83.94469,-2.852114,-11.18202,0.001067912,-0.1257102,0.09433498,0,0.3,0,0.1426456,0.5054242,0.1426456
638233826742083806,30.91067,33.52435,26.26567,18.46399,11.3284,7.91669,28.05991,39.46241,33.80684,59.40804,14.77092,-9.881886,0,0,0,87.42128,-22.58381,-22.34139,83.329,-2.699422,-12.02552,0.001067912,-0.1257102,0.09433498,0,0.3,0,0.1406341,0.505935,0.1406341
638233826742393708,29.92115,32.98664,26.0322,12.60438,11.40165,4.034696,27.98923,40.07024,33.31655,59.40804,14.69768,-9.881886,0,0,0,84.98576,-23.86977,-20.68141,82.26517,-2.242868,-13.56155,0.001067912,-0.1257102,0.09433498,0,0.3,0,0.1413264,0.5069443,0.1413264
638233826742733599,28.90807,32.4957,25.98551,6.305296,11.40165,0.738663,27.94211,40.51442,33.05973,59.3348,14.84417,-9.808641,0,0,0,82.61311,-24.8785,-18.74642,81.59019,-1.781523,-14.52646,0.001067912,-0.1257102,0.09433498,0,0.3,0,0.1445601,0.507914,0.1445601
638233826743063496,28.55467,32.37881,25.93881,3.521979,11.40165,-0.4332596,27.94211,40.63132,32.96634,59.3348,14.91741,-9.808641,0,0,0,81.71185,-25.15569,-18.19736,81.42188,-1.693299,-14.84379,0.001067912,-0.1257102,0.09433498,0,0.3,0,0.1456572,0.5083845,0.1456572
638233826743413385,28.22483,32.30868,25.89212,-1.824918,11.47489,-2.410879,27.94211,40.6547,32.82626,59.3348,15.06391,-9.808641,0,0,0,80.84117,-25.34109,-17.73864,81.27699,-1.829087,-15.11694,0.001067912,-0.1257102,0.09433498,0,0.3,0,0.1451293,0.5093198,0.1451293
638233826743748342,28.24839,32.30868,25.86877,-5.926647,11.47489,-3.802537,27.94211,40.63132,32.73286,59.3348,15.2104,-9.808641,0,0,0,80.87996,-25.36481,-17.81496,81.20797,-1.98805,-15.24707,0.001067912,-0.1257102,0.09433498,0,0.3,0,0.143983,0.5102549,0.143983
638233826744088230,28.24839,32.30868,25.82208,-7.318305,11.47489,-4.315253,27.94211,40.5378,32.66283,59.26155,15.06391,-9.808641,0,0,0,80.83366,-25.41218,-17.90111,81.21004,-2.241399,-15.24317,0.001067912,-0.1257102,0.09433498,0,0.3,0,0.1426588,0.5107254,0.1426588
638233826744428123,28.24839,32.26192,25.61195,-10.02838,11.40165,-5.560421,27.82431,39.97673,32.42935,59.26155,14.91741,-9.808641,0,0,0,80.65264,-25.71639,-18.23804,81.07516,-3.530282,-14.73532,0.001067912,-0.1257102,0.09433498,0,0.3,0,0.1371207,0.5116976,0.1371207
638233826744768016,28.24839,32.19178,25.33178,-12.006,11.62138,-6.585854,27.6594,39.08836,31.96241,59.26155,14.91741,-9.808641,0,0,0,80.41522,-26.1349,-18.67993,80.81667,-5.703969,-14.1515,0.001067912,-0.1257102,0.09433498,0,0.3,0,0.127483,0.5127408,0.127483
638233826745107906,28.17771,32.02814,25.14501,-13.4709,12.1341,-7.318305,27.44736,38.03634,31.49546,59.11506,14.99066,-9.735395,0,0,0,80.14045,-26.64287,-18.74899,80.52291,-8.190002,-13.3193,0.001067912,-0.1257102,0.09433498,0,0.3,0,0.1169071,0.5138727,0.1169071
638233826745547765,27.82431,31.86449,25.00492,-14.42309,12.57357,-7.684532,27.14108,36.77391,30.84174,58.96857,14.91741,-9.66215,0,0,0,79.17242,-27.10423,-18.34047,79.91332,-11.31136,-12.46135,0.001067912,-0.1257102,0.09433498,0,0.3,0,0.1022374,0.5151162,0.1022374
638233826745867662,27.6594,31.84111,24.95823,-14.64282,12.72006,-7.757777,27.04683,36.32973,30.60827,58.89533,14.99066,-9.66215,0,0,0,78.70791,-27.19634,-18.17502,79.72437,-12.41945,-12.1978,0.001067912,-0.1257102,0.09433498,0,0.3,0,0.09667677,0.5157802,0.09667677
638233826746207551,26.88192,31.7476,24.72475,-15.22878,12.9398,-7.831022,26.74056,35.23095,30.02458,58.67559,14.99066,-9.515661,0,0,0,76.49181,-27.6096,-17.45839,79.03361,-15.17977,-11.48587,0.001067912,-0.1257102,0.09433498,0,0.3,0,0.08462814,0.5171893,0.08462814
638233826746547448,25.51544,31.60733,24.60802,-16.03448,13.15953,-7.757777,26.41072,34.36596,29.51094,58.45585,15.2104,-9.076189,0,0,0,72.8392,-28.00081,-15.74529,78.17873,-17.42642,-10.93389,0.001067912,-0.1257102,0.09433498,0,0.3,0,0.07692808,0.5186674,0.07692808
638233826746887336,24.73796,31.56057,24.51463,-16.62044,13.15953,-7.831022,26.2458,33.96853,29.32417,58.38261,15.2104,-8.783209,0,0,0,70.7029,-28.18386,-14.89875,77.78757,-18.40526,-10.58322,0.001067912,-0.1257102,0.09433498,0,0.3,0,0.07703505,0.5194064,0.07703505
638233826747227228,23.08876,31.5372,24.23446,-18.30508,13.23278,-7.684532,25.8924,33.17367,29.044,58.30937,15.28364,-8.343738,0,0,0,66.03554,-28.49934,-13.44766,77.01112,-20.26459,-9.698294,0.001067912,-0.1257102,0.09433498,0,0.3,0,0.08520069,0.5208179,0.08520069
638233826747567120,21.51024,31.5372,24.02434,-20.2827,13.30602,-7.464796,25.539,32.40219,28.71714,58.08963,15.35689,-8.124002,0,0,0,61.57976,-28.69926,-12.10261,76.16311,-22.14148,-8.950019,0.001067912,-0.1257102,0.09433498,0,0.3,0,0.0973573,0.5221075,0.0973573
638233826747917006,19.74325,31.51382,23.97764,-22.26032,13.45251,-6.878834,25.16204,31.70084,28.46032,57.94314,15.35689,-7.904267,0,0,0,56.70866,-28.78984,-10.34476,75.2579,-23.81099,-8.14339,0.001067912,-0.1257102,0.09433498,0,0.3,0,0.1152101,0.5232249,0.1152101
638233826748266898,18.87153,31.51382,23.95429,-23.06602,13.599,-6.585854,24.97356,31.39693,28.39028,57.79665,15.35689,-7.757777,0,0,0,54.28218,-28.81191,-9.547276,74.8262,-24.49137,-7.691154,0.001067912,-0.1257102,0.09433498,0,0.3,0,0.1254752,0.5237076,0.1254752
638233826748606785,16.58621,31.49044,23.88425,-25.40986,14.25821,-5.780157,24.45524,30.74234,28.22684,57.65016,15.35689,-7.538041,0,0,0,47.87221,-28.9244,-7.624607,73.55664,-25.97667,-6.609966,0.001067912,-0.1257102,0.09433498,0,0.3,0,0.1537922,0.5244693,0.1537922
638233826748956676,14.79566,31.49044,23.81421,-27.31424,14.69768,-5.340686,24.0076,30.36828,28.04007,57.43042,15.43013,-7.24506,0,0,0,42.78873,-28.99031,-6.35142,72.31487,-26.93133,-5.986128,0.001067912,-0.1257102,0.09433498,0,0.3,0,0.1757491,0.5250039,0.1757491
638233826749286569,13.68834,31.49044,23.81421,-28.7059,14.99066,-5.120951,23.72488,30.15788,27.92333,57.35718,15.43013,-7.09857,0,0,0,39.65009,-28.99031,-5.554775,71.51558,-27.48176,-5.624996,0.001067912,-0.1257102,0.09433498,0,0.3,0,0.1893446,0.5251732,0.1893446
638233826749626458,11.92134,31.49044,23.74417,-31.48921,15.35689,-4.97446,23.01808,29.66694,27.66651,56.99095,15.35689,-6.659099,0,0,0,34.58063,-29.05604,-4.555533,69.51887,-28.75089,-4.717417,0.001067912,-0.1257102,0.09433498,0,0.3,0,0.2072915,0.5253765,0.2072915
638233826750056322,10.38994,31.49044,23.58074,-34.12604,15.64987,-4.97446,22.19348,29.15262,27.43304,56.55148,15.13715,-6.366118,0,0,0,30.12808,-29.2087,-4.032554,67.19681,-30.04497,-3.635707,0.001067912,-0.1257102,0.09433498,0,0.3,0,0.2199556,0.5254501,0.2199556
638233826750386216,9.164824,31.51382,23.11379,-36.1769,15.72311,-4.97446,21.20397,28.54479,27.05948,56.03876,14.91741,-5.853402,0,0,0,26.44452,-29.593,-4.439065,64.30956,-31.6821,-2.584074,0.001067912,-0.1257102,0.09433498,0,0.3,0,0.2252205,0.5254515,0.2252205
638233826750736107,8.387346,31.5372,22.13321,-36.76286,15.79636,-4.754725,20.00241,28.00709,26.75597,55.4528,14.77092,-5.047705,0,0,0,23.90653,-30.42451,-6.207516,60.80669,-33.10389,-1.306833,0.001067912,-0.1257102,0.09433498,0,0.3,0,0.2213704,0.5254712,0.2213704
638233826751075994,7.963267,31.5372,21.92308,-36.32339,15.94285,-4.388499,19.41341,27.79668,26.56919,55.15982,14.69768,-4.82797,0,0,0,22.64297,-30.60793,-6.483986,59.03335,-33.73173,-0.8408465,0.001067912,-0.1257102,0.09433498,0,0.3,0,0.2192061,0.5254969,0.2192061
638233826751415885,6.691029,31.5372,21.80634,-35.29796,16.38232,-3.289821,18.09405,27.39925,26.0789,54.50062,14.33146,-4.242009,0,0,0,19.01411,-30.70912,-6.271578,54.97622,-35.05748,-0.09088118,0.001067912,-0.1257102,0.09433498,0,0.3,0,0.2179323,0.525558,0.2179323
638233826751755779,5.536591,31.5372,21.43279,-33.83306,16.6753,-1.165711,16.58621,27.07196,25.51856,53.62167,13.74549,-3.436311,0,0,0,15.66681,-31.02945,-6.725871,50.29401,-36.30233,0.5063132,0.001067912,-0.1257102,0.09433498,0,0.3,0,0.2120617,0.5256582,0.2120617
638233826752115661,4.782672,31.5372,21.10593,-32.07517,16.96828,0.8851534,14.93702,26.8148,24.88819,52.59624,13.30602,-2.70386,0,0,0,13.4797,-31.3054,-7.24017,45.14124,-37.46063,0.8632507,0.001067912,-0.1257102,0.09433498,0,0.3,0,0.1970965,0.5258779,0.1970965
638233826752445561,4.641313,31.5372,20.84911,-30.83001,17.11477,2.203566,14.15954,26.67453,24.56132,52.08353,13.08629,-2.337634,0,0,0,13.03701,-31.51939,-7.763678,42.70791,-38.07035,0.932646,0.001067912,-0.1257102,0.09433498,0,0.3,0,0.1872435,0.5260474,0.1872435
638233826752785447,4.476392,31.5372,20.61563,-27.46073,17.33451,5.499599,12.51034,26.41737,23.95429,51.13134,12.64682,-1.531937,0,0,0,12.53507,-31.71175,-8.233463,37.59721,-39.18621,1.095322,0.001067912,-0.1257102,0.09433498,0,0.3,0,0.164331,0.5265425,0.164331
638233826753115342,4.028753,31.5372,20.66233,-23.79847,17.18801,9.015368,10.81402,26.16021,23.44065,49.95942,12.28059,-0.5065048,0,0,0,11.29089,-31.67344,-8.038966,32.40916,-40.20327,1.319188,0.001067912,-0.1257102,0.09433498,0,0.3,0,0.1455213,0.527211,0.1455213
638233826753455235,3.887394,31.5372,20.66233,-22.11383,17.04152,10.62676,9.942304,26.04332,23.27722,49.30021,12.1341,-0.0670338,0,0,0,10.89533,-31.67344,-8.011598,29.78448,-40.59839,1.566564,0.001067912,-0.1257102,0.09433498,0,0.3,0,0.1357097,0.527607,0.1357097
638233826753795127,3.604674,31.5372,20.63898,-19.11078,16.6753,13.48332,8.481586,25.97318,22.99706,48.12829,11.47489,0.8851534,0,0,0,10.10084,-31.69261,-8.010534,25.36548,-41.00131,1.74834,0.001067912,-0.1257102,0.09433498,0,0.3,0,0.1200495,0.5285016,0.1200495
638233826754135017,3.204155,31.56057,20.66233,-16.62044,16.45556,16.0469,7.115108,25.92643,22.90367,46.88312,10.6692,1.764095,0,0,0,8.981015,-31.62708,-7.921501,21.28299,-41.18391,2.153509,0.001067912,-0.1257102,0.09433498,0,0.3,0,0.1091101,0.5294957,0.1091101
638233826754564881,2.874315,31.58395,20.61563,-14.34984,16.38232,18.3175,5.748631,25.90305,22.85697,45.63795,10.15648,2.276812,0,0,0,8.050791,-31.61902,-8.002483,17.20325,-41.2751,2.536598,0.001067912,-0.1257102,0.09433498,0,0.3,0,0.09959611,0.5305643,0.09959611
638233826754904773,2.497356,31.60733,20.61563,-13.10467,16.23583,19.63592,4.853352,25.90305,22.85697,44.75901,9.936745,2.569792,0,0,0,6.994426,-31.57268,-7.981466,14.53106,-41.2751,2.784537,0.001067912,-0.1257102,0.09433498,0,0.3,0,0.09562895,0.5316721,0.09562895
638233826755244661,2.238196,31.63071,20.61563,-12.59196,16.23583,20.29512,4.405713,25.90305,22.85697,44.31954,9.790254,2.789528,0,0,0,6.267866,-31.52635,-7.979974,13.19359,-41.2751,2.89284,0.001067912,-0.1257102,0.09433498,0,0.3,0,0.09450323,0.5322307,0.09450323
638233826755584557,1.837677,31.65409,20.59229,-11.85951,16.16258,21.61354,3.604674,25.90305,22.85697,43.51384,9.497273,3.082508,0,0,0,5.144128,-31.49915,-8.019444,10.79828,-41.2751,3.060555,0.001067912,-0.1257102,0.09433498,0,0.3,0,0.0922849,0.533356,0.0922849
638233826755924442,1.484278,31.67747,20.4522,-11.12705,16.23583,22.71221,2.803635,25.92643,22.85697,42.78139,9.204292,3.375489,0,0,0,4.146472,-31.56713,-8.324555,8.399686,-41.22617,3.171016,0.001067912,-0.1257102,0.09433498,0,0.3,0,0.0908082,0.5344842,0.0908082
638233826756254336,1.319358,31.72422,20.42886,-10.68758,16.16258,23.07844,2.450236,25.92643,22.88032,42.41516,9.057802,3.521979,0,0,0,3.68335,-31.49352,-8.421354,7.343735,-41.20505,3.269584,0.001067912,-0.1257102,0.09433498,0,0.3,0,0.09085791,0.535045,0.09085791
638233826756604232,1.130878,31.84111,20.35881,-9.735395,15.94285,24.10387,1.696317,25.92643,22.88032,41.8292,8.911312,3.741715,0,0,0,3.151387,-31.31907,-8.706132,5.084931,-41.20505,3.351355,0.001067912,-0.1257102,0.09433498,0,0.3,0,0.09109622,0.5361579,0.09109622
638233826756934125,1.036638,31.98138,20.00861,-8.270493,15.64987,25.42229,0.9895183,25.94981,22.88032,41.17,8.764822,4.034696,0,0,0,2.871839,-31.32318,-9.638602,2.966085,-41.15612,3.377222,0.001067912,-0.1257102,0.09433498,0,0.3,0,0.09436183,0.5372378,0.09436183
638233826757274012,0.9895183,32.05152,19.77514,-7.391551,15.57662,26.15474,0.6596789,25.94981,22.88032,40.95026,8.691576,4.181186,0,0,0,2.730996,-31.36966,-10.23371,1.977444,-41.15612,3.391451,0.001067912,-0.1257102,0.09433498,0,0.3,0,0.09702757,0.5377572,0.09702757
638233826757613899,0.8245987,32.37881,19.42492,-4.754725,15.28364,27.91262,-0.1413598,25.99656,22.88032,40.21781,8.398596,4.547412,0,0,0,2.25897,-30.9986,-11.40031,-0.4236294,-41.05829,3.354654,0.001067912,-0.1257102,0.09433498,0,0.3,0,0.1041183,0.5387461,0.1041183
638233826757953794,0.612559,32.54246,19.33154,-3.216576,15.06391,29.0113,-0.6361189,25.99656,22.88032,39.85158,8.252106,4.767147,0,0,0,1.67374,-30.74935,-11.80246,-1.906295,-41.05829,3.344594,0.001067912,-0.1257102,0.09433498,0,0.3,0,0.1074195,0.5396834,0.1074195
638233826758293690,0.4005193,32.63597,19.33154,-2.337634,14.84417,29.59726,-0.9895183,25.99656,22.88032,39.63185,8.178861,4.840393,0,0,0,1.093561,-30.56598,-11.91456,-2.965262,-41.05829,3.329571,0.001067912,-0.1257102,0.09433498,0,0.3,0,0.1089062,0.5401377,0.1089062
638233826758633576,-0.1884797,32.823,19.33154,-0.7262403,14.55119,30.76918,-1.649197,25.99656,22.88032,39.11913,8.105616,5.060128,0,0,0,-0.5138461,-30.1998,-12.14693,-4.941666,-41.05829,3.284052,0.001067912,-0.1257102,0.09433498,0,0.3,0,0.111193,0.5410252,0.111193
638233826758963471,-0.9895183,33.0334,19.33154,0.299192,14.25821,31.86786,-2.355996,25.99656,22.88032,38.60641,8.03237,5.353109,0,0,0,-2.692966,-29.78878,-12.43553,-7.058508,-41.05829,3.210034,0.001067912,-0.1257102,0.09433498,0,0.3,0,0.1132106,0.5418836,0.1132106
638233826759353346,-1.672757,33.26719,19.33154,1.104889,14.03847,32.82005,-3.062795,25.99656,22.85697,38.02045,7.959125,5.572844,0,0,0,-4.543289,-29.33324,-12.77614,-9.171601,-41.07941,3.059913,0.001067912,-0.1257102,0.09433498,0,0.3,0,0.1157662,0.5427144,0.1157662
638233826759698306,-2.285316,33.80488,19.33154,1.910586,13.52576,33.91872,-3.863834,25.99656,22.85697,37.36125,8.03237,5.79258,0,0,0,-6.178695,-28.29012,-13.52442,-11.56707,-41.07941,2.91494,0.001067912,-0.1257102,0.09433498,0,0.3,0,0.1227684,0.5434851,0.1227684
638233826760038230,-2.568036,34.1088,19.30819,2.423302,13.23278,34.50468,-4.287913,25.99656,22.85697,36.99502,8.03237,5.93907,0,0,0,-6.922586,-27.72139,-14.00272,-12.83437,-41.07941,2.824635,0.001067912,-0.1257102,0.09433498,0,0.3,0,0.1270594,0.5438401,0.1270594
638233826760388085,-3.086355,34.76339,19.23815,3.595225,12.42708,35.74985,-5.112512,26.01994,22.85697,36.33582,7.959125,6.305296,0,0,0,-8.263898,-26.5187,-15.08557,-15.29437,-41.03051,2.598438,0.001067912,-0.1257102,0.09433498,0,0.3,0,0.1360005,0.5453783,0.1360005
638233826760727972,-3.557554,35.58163,19.1681,4.767147,11.62138,37.14151,-5.93711,26.04332,22.85697,35.60336,7.812634,6.818012,0,0,0,-9.446426,-25.01566,-16.40723,-17.75051,-40.98162,2.336875,0.001067912,-0.1257102,0.09433498,0,0.3,0,0.146693,0.5483733,0.146693
638233826761067866,-3.746034,35.97906,19.09806,5.353109,11.18191,37.80072,-6.36119,26.09007,22.85697,35.23714,7.666144,7.110993,0,0,0,-9.900808,-24.31869,-17.13247,-19.00807,-40.88387,2.153296,0.001067912,-0.1257102,0.09433498,0,0.3,0,0.1520139,0.5496772,0.1520139
638233826761407755,-4.099433,36.79729,18.95798,6.525032,10.30297,38.89939,-7.303588,26.2771,22.85697,34.50468,7.373164,7.696954,0,0,0,-10.73052,-22.89196,-18.6307,-21.78539,-40.49325,1.627093,0.001067912,-0.1257102,0.09433498,0,0.3,0,0.1629115,0.550961,0.1629115
638233826761757646,-4.335033,37.73242,18.93463,7.550464,9.570518,39.70509,-8.293106,26.60439,22.88032,33.69899,7.226673,8.06318,0,0,0,-11.24258,-21.17753,-20.04138,-24.67586,-39.79007,0.9394293,0.001067912,-0.1257102,0.09433498,0,0.3,0,0.1744917,0.551115,0.1744917
638233826762097537,-4.452833,38.97147,18.95798,8.722386,8.691576,40.65728,-9.329745,27.07196,22.90367,32.96654,7.006938,8.575896,0,0,0,-11.41255,-18.89846,-21.79747,-27.66303,-38.79794,0.02989367,0.001067912,-0.1257102,0.09433498,0,0.3,0,0.1891854,0.5510554,0.1891854
638233826762437427,-4.452833,39.67281,18.98133,9.381593,8.105616,41.09675,-9.848064,27.42263,22.92702,32.60031,6.860447,8.868877,0,0,0,-11.33623,-17.61805,-22.77747,-29.12976,-38.05119,-0.5460857,0.001067912,-0.1257102,0.09433498,0,0.3,0,0.196726,0.5509555,0.196726
638233826762777319,-4.476392,41.02874,19.09806,10.70001,6.860447,41.97569,-10.81402,28.12398,23.04375,31.9411,6.420976,9.381593,0,0,0,-11.25667,-15.12446,-24.56309,-31.85873,-36.50084,-1.562437,0.001067912,-0.1257102,0.09433498,0,0.3,0,0.2109512,0.5506374,0.2109512
638233826763117208,-4.711992,42.38468,19.44827,12.09166,5.468789,42.78139,-11.73286,28.91884,23.20718,31.13541,5.90826,9.894309,0,0,0,-11.73855,-12.49949,-25.93626,-34.42076,-34.72603,-2.617141,0.001067912,-0.1257102,0.09433498,0,0.3,0,0.2215223,0.5501974,0.2215223
638233826763467096,-4.994712,43.06265,19.58836,12.75087,4.736337,43.29411,-12.13338,29.31627,23.32392,30.69594,5.615279,10.18729,0,0,0,-12.37468,-11.23138,-26.75627,-35.53631,-33.81063,-3.05782,0.001067912,-0.1257102,0.09433498,0,0.3,0,0.2255871,0.5499356,0.2255871
638233826763806988,-5.84287,44.3017,19.84518,13.55657,3.344679,44.24629,-12.91086,30.20464,23.53404,30.03673,4.956073,10.62676,0,0,0,-14.32381,-8.944295,-28.3765,-37.64686,-31.8213,-4.1182,0.001067912,-0.1257102,0.09433498,0,0.3,0,0.2292284,0.5493326,0.2292284
638233826764146880,-6.903069,45.30696,20.0553,13.84955,2.099511,45.12524,-13.57054,31.18653,23.81421,29.37753,4.296866,11.06623,0,0,0,-16.76837,-7.117433,-29.84588,-39.40162,-29.59445,-5.11599,0.001067912,-0.1257102,0.09433498,0,0.3,0,0.2276964,0.5486856,0.2276964
638233826764486773,-7.444948,45.65763,20.102,13.7763,1.66004,45.49146,-13.75902,31.63071,23.95429,29.08454,4.003886,11.28597,0,0,0,-18.01533,-6.507893,-30.48649,-39.88115,-28.58013,-5.480222,0.001067912,-0.1257102,0.09433498,0,0.3,0,0.2251545,0.5483639,0.2251545
638233826764836663,-8.811425,46.35898,20.12534,13.26359,0.9275885,46.3704,-14.13598,32.63597,24.32785,28.71832,3.564415,11.57895,0,0,0,-21.1258,-5.355486,-32.06537,-40.84167,-26.24334,-6.183519,0.001067912,-0.1257102,0.09433498,0,0.3,0,0.2185674,0.5477577,0.2185674
638233826765166552,-10.38994,47.01357,20.19538,12.09166,0.6346079,47.10286,-14.32446,33.78151,24.7948,28.42534,3.051698,11.72544,0,0,0,-24.69968,-4.254206,-33.63884,-41.25819,-23.56096,-6.77583,0.001067912,-0.1257102,0.09433498,0,0.3,0,0.2093835,0.5472056,0.2093835
638233826765506450,-11.77998,47.52789,20.42886,10.33378,0.5613627,47.61557,-14.34802,35.02055,25.21505,28.2056,2.612227,11.79868,0,0,0,-27.88481,-3.253357,-34.63957,-41.14055,-20.76818,-7.512459,0.001067912,-0.1257102,0.09433498,0,0.3,0,0.1977826,0.5466961,0.1977826
638233826765846338,-12.34542,47.76167,20.68568,9.454838,0.5613627,47.8353,-14.34802,35.65176,25.44852,28.2056,2.246002,11.79868,0,0,0,-29.23668,-2.676895,-34.76733,-41.0517,-19.33726,-7.859813,0.001067912,-0.1257102,0.09433498,0,0.3,0,0.191515,0.5464594,0.191515
638233826766186224,-13.38206,48.20586,21.26936,7.696954,0.4148723,48.20153,-14.34802,36.86742,25.86877,28.2056,1.66004,11.79868,0,0,0,-31.76444,-1.498606,-34.83138,-40.8555,-16.63236,-8.626844,0.001067912,-0.1257102,0.09433498,0,0.3,0,0.1792914,0.5460513,0.1792914
638233826766656075,-14.84277,48.79031,22.13321,5.353109,0.1218917,48.56776,-14.34802,38.73769,26.38241,28.27885,0.9275885,11.72544,0,0,0,-35.37527,0.1461768,-34.86356,-40.46034,-12.66682,-10.17172,0.001067912,-0.1257102,0.09433498,0,0.3,0,0.1605735,0.5457495,0.1605735
638233826766985973,-15.40822,48.97734,22.53011,4.254431,0.04864649,48.78749,-14.34802,39.53254,26.54584,28.27885,0.6346079,11.79868,0,0,0,-36.83078,0.7834083,-34.71156,-40.25538,-11.0624,-10.973,0.001067912,-0.1257102,0.09433498,0,0.3,0,0.1519444,0.5455893,0.1519444
638233826767325863,-16.18569,49.16436,23.20718,2.496547,0.1218917,48.93398,-14.34802,40.6547,26.84936,28.42534,0.268382,11.79868,0,0,0,-38.9538,1.680961,-34.14506,-39.99495,-8.747127,-11.99114,0.001067912,-0.1257102,0.09433498,0,0.3,0,0.1392239,0.5455333,0.1392239
638233826767675750,-16.60977,49.25787,23.53404,1.764095,0.1218917,49.08047,-14.34802,41.12226,26.96609,28.42534,0.1218917,11.79868,0,0,0,-40.09857,2.124907,-33.92577,-39.87847,-7.801506,-12.44652,0.001067912,-0.1257102,0.09433498,0,0.3,0,0.1344215,0.5455481,0.1344215
638233826768115610,-18.18829,49.74882,24.60802,-0.2135241,-0.09784385,49.73968,-14.37158,42.54833,27.38634,28.57183,-0.2443342,11.79868,0,0,0,-44.22746,3.886404,-33.73871,-39.60908,-4.881953,-13.76448,0.001067912,-0.1257102,0.09433498,0,0.3,0,0.1266228,0.5456991,0.1266228
638233826768455504,-18.70661,49.88908,24.91153,-0.8727306,-0.2443342,49.95942,-14.4187,42.92238,27.50308,28.64507,-0.3908245,11.79868,0,0,0,-45.56911,4.392889,-33.77298,-39.64913,-4.117307,-14.13576,0.001067912,-0.1257102,0.09433498,0,0.3,0,0.1260804,0.5457715,0.1260804
638233826768795395,-20.04953,50.14624,25.65865,-2.557369,-0.4640697,50.17915,-14.56006,43.71724,27.85329,28.64507,-0.7570504,11.79868,0,0,0,-49.09235,5.520151,-33.83178,-39.89188,-2.392806,-14.76385,0.001067912,-0.1257102,0.09433498,0,0.3,0,0.128285,0.5459335,0.128285
638233826769145279,-21.36888,50.42678,26.49915,-4.608234,-0.4640697,50.47213,-14.7721,44.62899,28.32023,28.64507,-1.269767,11.79868,0,0,0,-52.63382,6.797282,-33.82932,-40.32744,-0.3591841,-15.41523,0.001067912,-0.1257102,0.09433498,0,0.3,0,0.1320625,0.5460858,0.1320625
638233826769485170,-21.95788,50.63719,26.9194,-5.706912,-0.4640697,50.61862,-14.91346,45.09655,28.53036,28.64507,-1.489502,11.79868,0,0,0,-54.19924,7.548169,-33.91775,-40.61776,0.6449245,-15.84136,0.001067912,-0.1257102,0.09433498,0,0.3,0,0.1341144,0.5461511,0.1341144
638233826769815064,-22.90028,51.12813,27.7132,-7.611286,-0.6838052,50.9116,-15.17262,45.89141,28.95061,28.64507,-2.075463,11.79868,0,0,0,-56.69672,9.116873,-34.1319,-41.18632,2.412008,-16.47229,0.001067912,-0.1257102,0.09433498,0,0.3,0,0.1386288,0.5462523,0.1386288
638233826770154955,-23.86624,51.52556,28.6471,-9.295925,-1.196521,51.20458,-15.47889,46.56938,29.39421,28.57183,-2.661425,11.79868,0,0,0,-59.43435,10.7213,-34.01513,-41.93409,4.006775,-16.92396,0.001067912,-0.1257102,0.09433498,0,0.3,0,0.1438528,0.5463194,0.1438528
638233826770484853,-24.361,51.68921,29.11404,-10.02838,-1.416257,51.49756,-15.69093,46.94343,29.62768,28.57183,-2.954405,11.79868,0,0,0,-60.86151,11.48273,-33.93842,-42.45058,4.870865,-17.23545,0.001067912,-0.1257102,0.09433498,0,0.3,0,0.1458651,0.5463496,0.1458651
638233826770824746,-25.20916,51.92299,29.90785,-11.56653,-1.635992,52.08353,-16.09145,47.6214,30.11797,28.35209,-3.467122,11.79868,0,0,0,-63.34715,12.72921,-33.78629,-43.45882,6.509639,-17.69903,0.001067912,-0.1257102,0.09433498,0,0.3,0,0.1492617,0.5464107,0.1492617
638233826771154638,-26.0102,52.11002,30.65496,-13.03143,-2.002218,52.59624,-16.63333,48.29937,30.63161,28.13236,-3.979838,11.79868,0,0,0,-65.73023,13.8739,-33.6439,-44.84143,8.170743,-18.25142,0.001067912,-0.1257102,0.09433498,0,0.3,0,0.1505891,0.5465349,0.1505891
638233826771494528,-26.3636,52.13339,30.91178,-13.54414,-2.075463,52.81598,-16.86893,48.55653,30.81839,28.05911,-4.199574,11.79868,0,0,0,-66.7688,14.21321,-33.63026,-45.43676,8.789993,-18.50796,0.001067912,-0.1257102,0.09433498,0,0.3,0,0.1513386,0.5466341,0.1513386
638233826771834420,-27.44736,52.11002,31.72893,-14.86256,-2.295199,53.32869,-17.57573,49.25787,31.26199,27.83937,-4.85878,11.79868,0,0,0,-70.07362,15.16842,-33.43732,-47.17734,10.39523,-19.40931,0.001067912,-0.1257102,0.09433498,0,0.3,0,0.1544565,0.5469296,0.1544565
638233826772184306,-28.67247,51.92299,32.63948,-16.18097,-2.368444,53.91465,-18.40033,49.91246,31.77563,27.54639,-5.517986,12.01842,0,0,0,-73.96729,16.02929,-33.09176,-49.27147,12.00788,-20.23734,0.001067912,-0.1257102,0.09433498,0,0.3,0,0.1591919,0.5472662,0.1591919
638233826772644156,-29.85047,51.50218,33.47998,-17.57263,-2.441689,54.64711,-19.36629,50.59044,32.28927,27.25341,-6.470173,12.38465,0,0,0,-77.93101,16.48957,-32.55231,-51.69517,13.65088,-21.27747,0.001067912,-0.1257102,0.09433498,0,0.3,0,0.1622703,0.5476264,0.1622703
638233826772984052,-30.91067,50.54368,34.01696,-18.8178,-2.295199,55.23307,-20.30869,51.2684,32.82626,26.7407,-7.12938,12.89736,0,0,0,-81.85501,15.78069,-31.63802,-54.04753,15.31795,-22.30859,0.001067912,-0.1257102,0.09433498,0,0.3,0,0.1657287,0.5480295,0.1657287
638233826773323945,-31.99443,49.35139,34.50726,-19.91648,-1.709238,55.67254,-21.27464,51.87623,33.3399,25.935,-7.715342,13.33683,0,0,0,-86.05122,14.6375,-30.60945,-56.46319,16.84974,-23.33983,0.001067912,-0.1257102,0.09433498,0,0.3,0,0.1724105,0.5484895,0.1724105
638233826773663835,-32.53631,48.88382,34.90416,-20.42919,-1.196521,55.89228,-21.84008,52.13339,33.59671,25.49553,-8.008322,13.62981,0,0,0,-88.20097,14.45121,-30.09561,-57.90151,17.54781,-23.87909,0.001067912,-0.1257102,0.09433498,0,0.3,0,0.1753496,0.5487255,0.1753496
638233826774003731,-33.38446,48.04221,35.48784,-21.38138,-0.02459868,56.40499,-22.9474,52.50745,33.99362,24.4701,-8.667529,14.06928,0,0,0,-91.65545,13.93534,-29.26517,-60.71329,18.59375,-24.95259,0.001067912,-0.1257102,0.09433498,0,0.3,0,0.1779744,0.5492415,0.1779744
638233826774333618,-34.02058,46.80317,35.65128,-22.04058,0.9275885,56.77122,-24.21964,52.78798,34.34383,23.51791,-9.326735,14.72849,0,0,0,-94.5551,12.20553,-28.27488,-63.9459,19.44766,-26.19427,0.001067912,-0.1257102,0.09433498,0,0.3,0,0.177374,0.5498554,0.177374
638233826774683506,-34.35042,46.17195,35.72132,-22.26032,1.66004,56.91771,-24.87932,52.92825,34.53061,23.00519,-9.619716,15.09472,0,0,0,-96.03577,11.28915,-27.83261,-65.6197,19.8906,-26.85075,0.001067912,-0.1257102,0.09433498,0,0.3,0,0.1778021,0.5502117,0.1778021
638233826775013403,-35.05722,45.28358,35.97814,-22.5533,3.491169,57.13744,-26.26936,53.02177,34.81077,21.83327,-10.20568,16.0469,0,0,0,-98.89049,10.19591,-27.41952,-69.19337,20.39259,-28.15914,0.001067912,-0.1257102,0.09433498,0,0.3,0,0.1762653,0.5510254,0.1762653
638233826775353289,-35.8347,44.58223,36.04818,-22.77304,4.956073,57.50367,-27.82431,53.02177,35.06759,20.5881,-10.64515,16.99909,0,0,0,-101.5458,9.136193,-27.73282,-73.20079,20.73491,-29.65504,0.001067912,-0.1257102,0.09433498,0,0.3,0,0.1718549,0.551974,0.1718549
638233826775688252,-36.23522,44.16143,36.04818,-22.84628,5.688524,57.65016,-28.60179,52.99839,35.18433,19.9289,-10.93813,17.36532,0,0,0,-102.9312,8.436113,-27.89366,-75.2032,20.85849,-30.42783,0.001067912,-0.1257102,0.09433498,0,0.3,0,0.1705469,0.552502,0.1705469
638233826776028159,-37.05982,43.15617,36.04818,-23.21251,7.226673,57.86989,-30.15675,52.90487,35.37111,18.53724,-11.59733,18.46399,0,0,0,-105.9153,6.743486,-28.10061,-79.18369,20.97843,-32.06228,0.001067912,-0.1257102,0.09433498,0,0.3,0,0.1704168,0.5536417,0.1704168
638233826776358037,-37.90798,42.19766,36.04818,-23.50549,9.057802,58.08963,-31.47611,52.43731,35.4178,16.92585,-12.1833,19.85565,0,0,0,-108.9088,5.10343,-28.49069,-82.7988,20.3815,-33.10809,0.001067912,-0.1257102,0.09433498,0,0.3,0,0.170259,0.5549048,0.170259
638233826776697929,-38.70901,40.88848,36.02483,-23.87171,11.03542,58.16287,-32.55987,51.82948,35.37111,15.46094,-12.47628,21.46704,0,0,0,-112.0896,2.790978,-28.48444,-85.89532,19.4502,-33.83174,0.001067912,-0.1257102,0.09433498,0,0.3,0,0.1747157,0.5562804,0.1747157
638233826777147783,-39.4865,38.48052,36.00148,-24.16469,13.89198,58.16287,-33.71431,50.84759,35.06759,13.92279,-12.69601,23.07844,0,0,0,-116.2247,-1.553542,-27.29049,-89.25819,17.6152,-34.58535,0.001067912,-0.1257102,0.09433498,0,0.3,0,0.187316,0.5576937,0.187316
638233826777487682,-39.67498,37.63891,36.02483,-24.23794,15.06391,58.16287,-34.09126,50.4034,34.88082,13.33683,-12.62277,23.51791,0,0,0,-117.487,-3.063855,-26.71033,-90.38459,16.7102,-34.80867,0.001067912,-0.1257102,0.09433498,0,0.3,0,0.1905161,0.5583886,0.1905161
638233826777817574,-40.16973,35.44136,36.02483,-24.23794,17.92047,58.16287,-35.0101,49.14098,34.34383,12.09166,-12.47628,24.39685,0,0,0,-120.6699,-7.172855,-25.40336,-93.21129,14.10279,-35.28043,0.001067912,-0.1257102,0.09433498,0,0.3,0,0.1987153,0.5597984,0.1987153
638233826778157461,-40.5467,32.79962,36.02483,-24.0182,20.99677,58.16287,-35.97606,47.73829,33.78349,10.99299,-12.11005,25.20255,0,0,0,-123.8495,-12.26239,-23.5799,-96.24169,11.20662,-35.76822,0.001067912,-0.1257102,0.09433498,0,0.3,0,0.209684,0.5612173,0.209684
638233826778497358,-40.68805,30.32153,36.02483,-23.72522,23.99982,58.08963,-36.7771,46.3356,33.2932,9.894309,-11.59733,26.00825,0,0,0,-126.1742,-17.17642,-21.59708,-98.94666,8.351293,-35.97499,0.001067912,-0.1257102,0.09433498,0,0.3,0,0.2186814,0.5626,0.2186814
638233826778827250,-40.71161,29.176,36.02483,-23.65198,25.68446,58.01638,-37.1305,45.61087,33.03638,9.308348,-11.3776,26.52096,0,0,0,-127.0974,-19.49112,-20.64622,-100.1913,6.852056,-36.01982,0.001067912,-0.1257102,0.09433498,0,0.3,0,0.2220298,0.5632822,0.2220298
638233826779177136,-40.71161,26.83818,36.28165,-23.359,28.98049,57.7234,-37.69594,44.16143,32.59278,8.209671,-10.93813,27.32666,0,0,0,-129.0786,-23.942,-18.34382,-102.4174,3.902507,-35.81791,0.001067912,-0.1257102,0.09433498,0,0.3,0,0.2303523,0.5646115,0.2303523
638233826779517027,-40.71161,24.33671,37.05211,-23.43224,32.05679,56.84446,-38.09645,42.66522,32.10249,7.403974,-10.42541,28.05911,0,0,0,-131.6566,-28.12172,-15.34779,-104.2231,0.7624593,-35.41241,0.001067912,-0.1257102,0.09433498,0,0.3,0,0.242039,0.5658844,0.242039
638233826779856918,-40.68805,23.07429,37.61245,-23.65198,33.74142,56.18526,-38.23782,41.75347,31.77563,7.037747,-10.05919,28.35209,0,0,0,-133.0398,-30.02105,-13.6117,-105.0336,-1.211724,-35.05725,0.001067912,-0.1257102,0.09433498,0,0.3,0,0.2467853,0.5665089,0.2467853
638233826780186815,-40.66449,21.48457,38.31286,-24.67741,37.55017,53.9879,-38.49697,39.46241,30.93513,6.525032,-9.25349,28.93805,0,0,0,-134.7277,-32.44185,-11.51813,-106.7558,-6.27745,-34.12501,0.001067912,-0.1257102,0.09433498,0,0.3,0,0.2402953,0.5677707,0.2402953
638233826780536703,-40.5467,21.04038,38.31286,-25.77609,40.187,52.01028,-38.70901,37.68567,30.25806,6.08556,-8.740773,29.23104,0,0,0,-134.6487,-33.40527,-10.95659,-108.0159,-10.31229,-33.56753,0.001067912,-0.1257102,0.09433498,0,0.3,0,0.2255463,0.5691456,0.2255463
638233826780866596,-40.45245,20.87674,38.31286,-26.58179,41.57866,50.9116,-38.80325,36.63364,29.86115,5.93907,-8.301303,29.37753,0,0,0,-134.478,-33.76095,-10.63167,-108.6633,-12.72629,-33.21589,0.001067912,-0.1257102,0.09433498,0,0.3,0,0.2163174,0.5698987,0.2163174
638233826781206490,-40.19329,20.85336,38.31286,-28.11993,43.84926,48.93398,-38.87394,34.50623,29.11404,5.499599,-7.202625,29.74375,0,0,0,-133.7757,-33.81179,-10.01021,-109.6875,-17.60941,-32.28623,0.001067912,-0.1257102,0.09433498,0,0.3,0,0.1959725,0.5715525,0.1959725
638233826781666339,-39.86345,20.8066,38.31286,-29.65808,45.75363,46.88312,-38.8975,32.26192,28.39028,5.206618,-6.103948,30.10997,0,0,0,-132.8868,-33.9135,-9.213018,-110.6207,-22.78094,-31.24396,0.001067912,-0.1257102,0.09433498,0,0.3,0,0.1772655,0.5734022,0.1772655
638233826781996236,-39.51006,20.54944,38.28952,-31.12299,47.29178,44.68576,-38.8975,29.64356,27.47973,4.986883,-4.932025,30.62269,0,0,0,-132.01,-34.50713,-8.266251,-111.4131,-28.99939,-30.26194,0.001067912,-0.1257102,0.09433498,0,0.3,0,0.1625801,0.5754119,0.1625801
638233826782346121,-39.29802,20.33904,38.28952,-32.51464,48.53695,43.00113,-38.8975,27.30574,26.75597,4.913638,-3.686857,31.13541,0,0,0,-131.525,-34.96598,-7.64644,-112.1004,-34.5497,-29.41002,0.001067912,-0.1257102,0.09433498,0,0.3,0,0.1540722,0.5775133,0.1540722
638233826782686018,-39.2509,20.22215,38.28952,-33.24709,49.12291,42.19543,-38.8975,26.23034,26.40576,4.840393,-2.954405,31.35514,0,0,0,-131.4525,-35.22117,-7.465305,-112.3505,-37.14904,-29.10003,0.001067912,-0.1257102,0.09433498,0,0.3,0,0.1523717,0.5785764,0.1523717
638233826783025903,-39.10954,19.84809,38.28952,-35.29796,50.29483,40.14456,-38.8975,24.31333,25.86877,4.693902,-1.709238,31.79461,0,0,0,-131.2433,-36.03905,-6.910051,-112.842,-41.73404,-28.4909,0.001067912,-0.1257102,0.09433498,0,0.3,0,0.1516239,0.5806724,0.1516239
638233826783355799,-38.85038,19.38053,38.28952,-37.6418,51.61324,37.58098,-38.8975,22.79375,25.42517,4.620657,-0.7570504,32.16084,0,0,0,-130.7409,-37.06411,-6.033578,-113.145,-45.42283,-28.11536,0.001067912,-0.1257102,0.09433498,0,0.3,0,0.1536047,0.5826864,0.1536047
638233826783695690,-38.59122,18.91297,38.24282,-40.7181,52.93166,34.65118,-38.82682,21.39106,25.07496,4.620657,-0.02459868,32.30733,0,0,0,-130.1748,-38.15942,-5.231595,-113.2795,-48.79537,-27.59369,0.001067912,-0.1257102,0.09433498,0,0.3,0,0.1556531,0.5846105,0.1556531
638233826784025587,-38.47342,18.67918,38.24282,-42.3295,53.59086,32.96654,-38.7797,20.68971,24.91153,4.547412,0.3416272,32.30733,0,0,0,-129.9482,-38.67451,-4.827051,-113.3148,-50.47955,-27.31248,0.001067912,-0.1257102,0.09433498,0,0.3,0,0.1572844,0.5855244,0.1572844
638233826784375476,-38.33206,18.42202,38.14943,-45.84526,54.76279,29.23104,-38.70901,19.21688,24.53798,4.547412,1.147324,32.38057,0,0,0,-129.5565,-39.37632,-4.491571,-113.3784,-54.06518,-26.87626,0.001067912,-0.1257102,0.09433498,0,0.3,0,0.1613875,0.5872716,0.1613875
638233826784715363,-38.26138,18.39865,38.10274,-49.43428,55.56849,25.56878,-38.63834,17.88433,24.28116,4.547412,1.806531,32.30733,0,0,0,-129.312,-39.49504,-4.385509,-113.48,-57.25238,-26.39097,0.001067912,-0.1257102,0.09433498,0,0.3,0,0.1665447,0.5888677,0.1665447
638233826785055258,-38.16714,18.39865,38.07939,-51.11892,55.86147,23.88414,-38.61478,17.20636,24.21111,4.474167,2.099511,32.23409,0,0,0,-129.0157,-39.52857,-4.206663,-113.6257,-58.82381,-26.08879,0.001067912,-0.1257102,0.09433498,0,0.3,0,0.1692107,0.5896009,0.1692107
638233826785395145,-37.88441,18.21162,38.05604,-53.90223,56.15445,21.24731,-38.5441,16.15434,24.11773,4.474167,2.538982,32.23409,0,0,0,-128.2619,-39.97533,-3.497914,-113.7645,-61.25819,-25.55416,0.001067912,-0.1257102,0.09433498,0,0.3,0,0.17337,0.5909389,0.17337
638233826785735041,-37.53102,18.11811,38.05604,-55.73336,56.44743,19.48943,-38.4263,15.24259,24.09438,4.547412,2.905208,32.23409,0,0,0,-127.284,-40.18212,-2.656131,-113.7967,-63.32321,-24.90963,0.001067912,-0.1257102,0.09433498,0,0.3,0,0.1775449,0.5921193,0.1775449
638233826786194904,-37.1305,18.00122,38.0327,-57.49125,56.52067,17.36532,-38.26138,14.21395,24.09438,4.620657,3.124943,32.23409,0,0,0,-126.1477,-40.47426,-1.737301,-113.7602,-65.63857,-24.10476,0.001067912,-0.1257102,0.09433498,0,0.3,0,0.1824506,0.5931383,0.1824506
638233826786524786,-36.8949,17.88433,37.93931,-58.58992,56.52067,15.90041,-38.14358,13.69963,24.07103,4.693902,3.198189,32.23409,0,0,0,-125.409,-40.86685,-1.28997,-113.6111,-66.82243,-23.68314,0.001067912,-0.1257102,0.09433498,0,0.3,0,0.1839865,0.594003,0.1839865
638233826786854679,-36.72998,17.81419,37.86926,-59.24913,56.59392,14.94823,-37.97866,13.41909,24.02434,4.767147,3.271434,32.16084,0,0,0,-124.8806,-41.12238,-0.9926752,-113.2273,-67.50144,-23.31428,0.001067912,-0.1257102,0.09433498,0,0.3,0,0.1848918,0.5944009,0.1848918
638233826787204573,-36.4237,17.6973,37.72918,-61.00701,56.59392,12.97061,-37.6017,12.7645,23.9076,5.060128,3.344679,32.01435,0,0,0,-123.8805,-41.58129,-0.4680433,-112.3298,-69.09568,-22.49578,0.001067912,-0.1257102,0.09433498,0,0.3,0,0.1877076,0.5951325,0.1877076
638233826787544458,-36.09386,17.58041,37.61245,-62.47192,56.66716,11.35921,-37.17762,11.96964,23.9076,5.572844,3.417924,32.01435,0,0,0,-122.8338,-42.00659,0.1351622,-111.4866,-70.90269,-21.35268,0.001067912,-0.1257102,0.09433498,0,0.3,0,0.1907673,0.5957831,0.1907673
638233826787884354,-35.88182,17.55703,37.5891,-63.05788,56.59392,10.55352,-36.94202,11.52545,23.9076,5.79258,3.491169,31.9411,0,0,0,-122.1939,-42.09162,0.5670153,-111.0077,-71.91483,-20.72726,0.001067912,-0.1257102,0.09433498,0,0.3,0,0.1934542,0.5960711,0.1934542
638233826788224240,-35.50486,17.53365,37.5891,-63.79033,56.66716,9.454838,-36.51794,10.6137,23.9076,6.158805,3.63766,31.9411,0,0,0,-121.0894,-42.14349,1.380642,-110.1544,-73.99734,-19.58225,0.001067912,-0.1257102,0.09433498,0,0.3,0,0.2000567,0.5965551,0.2000567
638233826788564131,-35.15146,17.53365,37.5891,-64.37629,56.59392,8.50265,-36.28234,9.725332,23.93095,6.451786,3.78415,31.9411,0,0,0,-120.0402,-42.14349,2.124286,-109.7872,-76.01039,-18.79624,0.001067912,-0.1257102,0.09433498,0,0.3,0,0.2071257,0.5969012,0.2071257
638233826788914019,-34.86874,17.53365,37.56575,-64.74252,56.59392,7.696954,-36.02318,8.883718,23.93095,6.744767,4.077131,31.72137,0,0,0,-119.173,-42.17663,2.6792,-109.2959,-77.94337,-18.04505,0.001067912,-0.1257102,0.09433498,0,0.3,0,0.2140402,0.5971076,0.2140402
638233826789253914,-34.6567,17.51027,37.5424,-64.96225,56.44743,7.184238,-35.8347,8.392776,23.93095,6.964502,4.296866,31.35514,0,0,0,-118.524,-42.26164,3.097102,-108.9013,-79.07303,-17.54719,0.001067912,-0.1257102,0.09433498,0,0.3,0,0.2179735,0.5971671,0.2179735
638233826789593802,-34.39754,17.4869,37.40232,-65.32848,56.37418,6.744767,-35.66978,7.948589,23.93095,7.110993,4.589847,30.91567,0,0,0,-117.6104,-42.51188,3.431446,-108.5525,-80.09633,-17.115,0.001067912,-0.1257102,0.09433498,0,0.3,0,0.2204359,0.5972045,0.2204359
638233826789933696,-34.11483,17.46352,37.26224,-65.62146,56.0812,6.305296,-35.43418,7.504403,23.93095,7.330729,4.809582,30.32971,0,0,0,-116.6251,-42.7615,3.808589,-108.0103,-81.12074,-16.55667,0.001067912,-0.1257102,0.09433498,0,0.3,0,0.2229492,0.5971674,0.2229492
638233826790273589,-33.99702,17.46352,37.21554,-65.76794,55.86147,6.158805,-35.33994,7.247243,23.9076,7.403974,4.882828,29.96349,0,0,0,-116.2225,-42.82726,3.976274,-107.7762,-81.73633,-16.35706,0.001067912,-0.1257102,0.09433498,0,0.3,0,0.2251414,0.597124,0.2251414
