zeyangz2/LSTM/data/srikar and zeyang_clockwise.csv
Timestamp,Therapist joint angle 0,Therapist joint angle 1,Therapist joint angle 2,Therapist joint angle 3,Therapist joint angle 4,Therapist joint angle 5,Patient joint angle 0,Patient joint angle 1,Patient joint angle 2,Patient joint angle 3,Patient joint angle 4,Patient joint angle 5,Virtual joint angle 0,Virtual joint angle 1,Virtual joint angle 2,Therapist position x,Therapist position y,Therapist position z,Patient position x,Patient position y,Patient position z,Virtual position x,Virtual position y,Virtual position z,Assistive Force, Obstacle Force Magnitude, Therapist Constant Force, Patient Constant Force, Recovery Factor, Assistance Level
6.38256E+17,0,0,0,0,0,0,0,0,0,0,0,0,0,0,0,0,0,0,0,0,0,0,0,0,0,0.3,0,0,0,0
6.38256E+17,0,15.40624,-21.24601,0.006211365,45.60714,5.060128,0,15.40624,-21.24601,0.006211365,45.60714,18.3175,0,0,0,0,-65.51071,-88.1142,0,-65.51071,-88.1142,0.001067912,-0.1257102,0.09433498,0,0.3,0,0,1,0
6.38256E+17,0,15.40624,-21.24601,0.006211365,45.60714,5.060128,0,15.40624,-21.24601,0.006211365,45.60714,18.3175,0,0,0,0,-65.51071,-88.1142,0,-65.51071,-88.1142,0.001067912,-0.1257102,0.09433498,0,0.3,0,0,1,0
6.38256E+17,0,15.40624,-21.24601,0.006211365,45.60714,5.060128,0,15.40624,-21.24601,0.006211365,45.60714,18.3175,0,0,0,0,-65.51071,-88.1142,0,-65.51071,-88.1142,0.001067912,-0.1257102,0.09433498,0,0.3,0,0,1,0
6.38256E+17,0,15.40624,-21.24601,-0.0670338,45.60714,5.060128,0,15.40624,-21.24601,0.006211365,45.60714,18.3175,0,0,0,0,-65.51071,-88.1142,0,-65.51071,-88.1142,0.001067912,-0.1257102,0.09433498,0,0.3,0,0,1,0
6.38256E+17,0,15.40624,-21.24601,-0.0670338,45.60714,5.060128,0,15.40624,-21.24601,0.006211365,45.60714,18.3175,0,0,0,0,-65.51071,-88.1142,0,-65.51071,-88.1142,0.001067912,-0.1257102,0.09433498,0,0.3,0,0,1,0
6.38256E+17,0,15.40624,-21.24601,0.006211365,45.60714,5.060128,0,15.40624,-21.24601,0.006211365,45.60714,18.3175,0,0,0,0,-65.51071,-88.1142,0,-65.51071,-88.1142,0.001067912,-0.1257102,0.09433498,0,0.3,0,0,1,0
6.38256E+17,0,15.40624,-21.24601,0.006211365,45.60714,5.060128,0,15.40624,-21.24601,0.006211365,45.60714,18.3175,0,0,0,0,-65.51071,-88.1142,0,-65.51071,-88.1142,0.001067912,-0.1257102,0.09433498,0,0.3,0,0,1,0
6.38256E+17,0,15.40624,-21.24601,0.006211365,45.60714,5.060128,0,15.40624,-21.24601,0.006211365,45.60714,18.3175,0,0,0,0,-65.51071,-88.1142,0,-65.51071,-88.1142,0.001067912,-0.1257102,0.09433498,0,0.3,0,0,1,0
6.38256E+17,0,15.40624,-21.24601,0.006211365,45.60714,5.060128,0,15.40624,-21.24601,0.006211365,45.60714,18.3175,0,0,0,0,-65.51071,-88.1142,0,-65.51071,-88.1142,0.001067912,-0.1257102,0.09433498,0,0.3,0,0,1,0
6.38256E+17,0,15.40624,-21.24601,-0.0670338,45.60714,5.060128,0,15.40624,-21.24601,0.006211365,45.60714,18.3175,0,0,0,0,-65.51071,-88.1142,0,-65.51071,-88.1142,0.001067912,-0.1257102,0.09433498,0,0.3,0,0,1,0
6.38256E+17,0,15.40624,-21.24601,0.006211365,45.60714,5.060128,0,15.40624,-21.24601,0.006211365,45.60714,18.3175,0,0,0,0,-65.51071,-88.1142,0,-65.51071,-88.1142,0.001067912,-0.1257102,0.09433498,0,0.3,0,0,1,0
6.38256E+17,0,15.40624,-21.24601,0.006211365,45.60714,5.060128,0,15.40624,-21.24601,0.006211365,45.60714,18.3175,0,0,0,0,-65.51071,-88.1142,0,-65.51071,-88.1142,0.001067912,-0.1257102,0.09433498,0,0.3,0,0,1,0
6.38256E+17,0,15.40624,-21.24601,0.006211365,45.60714,5.060128,0,15.40624,-21.24601,0.006211365,45.60714,18.3175,0,0,0,0,-65.51071,-88.1142,0,-65.51071,-88.1142,0.001067912,-0.1257102,0.09433498,0,0.3,0,0,1,0
6.38256E+17,0,15.40624,-21.24601,0.006211365,45.60714,5.060128,0,15.40624,-21.24601,0.006211365,45.60714,18.3175,0,0,0,0,-65.51071,-88.1142,0,-65.51071,-88.1142,0.001067912,-0.1257102,0.09433498,0,0.3,0,0,1,0
6.38256E+17,0,15.40624,-21.24601,0.006211365,45.60714,5.060128,0,15.40624,-21.24601,0.006211365,45.60714,18.3175,0,0,0,0,-65.51071,-88.1142,0,-65.51071,-88.1142,0.001067912,-0.1257102,0.09433498,0,0.3,0,0,1,0
6.38256E+17,0,15.40624,-21.24601,-0.0670338,45.60714,5.060128,0,15.40624,-21.24601,0.006211365,45.60714,18.24426,0,0,0,0,-65.51071,-88.1142,0,-65.51071,-88.1142,0.001067912,-0.1257102,0.09433498,0,0.3,0,0,1,0
6.38256E+17,0,15.40624,-21.24601,0.006211365,45.60714,5.060128,0,15.40624,-21.24601,0.006211365,45.60714,18.3175,0,0,0,0,-65.51071,-88.1142,0,-65.51071,-88.1142,0.001067912,-0.1257102,0.09433498,0,0.3,0,0,1,0
6.38256E+17,0,15.40624,-21.24601,-0.0670338,45.60714,5.060128,0,15.40624,-21.24601,0.006211365,45.60714,18.3175,0,0,0,0,-65.51071,-88.1142,0,-65.51071,-88.1142,0.001067912,-0.1257102,0.09433498,0,0.3,0,0,1,0
6.38256E+17,0,15.40624,-21.24601,0.006211365,45.60714,5.060128,0,15.40624,-21.24601,0.006211365,45.60714,18.3175,0,0,0,0,-65.51071,-88.1142,0,-65.51071,-88.1142,0.001067912,-0.1257102,0.09433498,0,0.3,0,0,1,0
6.38256E+17,0,15.40624,-21.24601,0.006211365,45.60714,5.060128,0,15.40624,-21.24601,0.006211365,45.60714,18.3175,0,0,0,0,-65.51071,-88.1142,0,-65.51071,-88.1142,0.001067912,-0.1257102,0.09433498,0,0.3,0,0,1,0
6.38256E+17,0,15.40624,-21.24601,0.006211365,45.60714,5.060128,0,15.40624,-21.24601,0.006211365,45.60714,18.3175,0,0,0,0,-65.51071,-88.1142,0,-65.51071,-88.1142,0.001067912,-0.1257102,0.09433498,0,0.3,0,0,1,0
6.38256E+17,0,15.40624,-21.24601,0.006211365,45.60714,5.060128,0,15.40624,-21.24601,0.006211365,45.60714,18.3175,0,0,0,0,-65.51071,-88.1142,0,-65.51071,-88.1142,0.001067912,-0.1257102,0.09433498,0,0.3,0,0,1,0
6.38256E+17,0,15.40624,-21.24601,0.006211365,45.60714,5.060128,0,15.40624,-21.24601,0.006211365,45.60714,18.3175,0,0,0,0,-65.51071,-88.1142,0,-65.51071,-88.1142,0.001067912,-0.1257102,0.09433498,0,0.3,0,0,1,0
6.38256E+17,0,15.40624,-21.24601,0.006211365,45.60714,5.060128,0,15.40624,-21.24601,0.006211365,45.60714,18.3175,0,0,0,0,-65.51071,-88.1142,0,-65.51071,-88.1142,0.001067912,-0.1257102,0.09433498,0,0.3,0,0,1,0
6.38256E+17,0,15.40624,-21.24601,0.006211365,45.60714,5.060128,0,15.40624,-21.24601,0.006211365,45.60714,18.3175,0,0,0,0,-65.51071,-88.1142,0,-65.51071,-88.1142,0.001067912,-0.1257102,0.09433498,0,0.3,0,0,1,0
6.38256E+17,0,15.40624,-21.24601,0.006211365,45.60714,5.060128,0,15.40624,-21.24601,0.006211365,45.60714,18.3175,0,0,0,0,-65.51071,-88.1142,0,-65.51071,-88.1142,0.001067912,-0.1257102,0.09433498,0,0.3,0,0,1,0
6.38256E+17,0,15.40624,-21.24601,-0.0670338,45.60714,5.060128,0,15.40624,-21.24601,0.006211365,45.60714,18.3175,0,0,0,0,-65.51071,-88.1142,0,-65.51071,-88.1142,0.001067912,-0.1257102,0.09433498,0,0.3,0,0,1,0
6.38256E+17,0,15.40624,-21.24601,0.006211365,45.60714,5.060128,0,15.40624,-21.24601,0.006211365,45.60714,18.3175,0,0,0,0,-65.51071,-88.1142,0,-65.51071,-88.1142,0.001067912,-0.1257102,0.09433498,0,0.3,0,0,1,0
6.38256E+17,0,15.40624,-21.24601,0.006211365,45.60714,5.060128,0,15.40624,-21.24601,0.006211365,45.60714,18.3175,0,0,0,0,-65.51071,-88.1142,0,-65.51071,-88.1142,0.001067912,-0.1257102,0.09433498,0,0.3,0,0,1,0
6.38256E+17,0,15.40624,-21.24601,0.006211365,45.60714,5.060128,0,15.40624,-21.24601,0.006211365,45.60714,18.3175,0,0,0,0,-65.51071,-88.1142,0,-65.51071,-88.1142,0.001067912,-0.1257102,0.09433498,0,0.3,0,0,1,0
6.38256E+17,0,15.40624,-21.24601,0.006211365,45.60714,5.060128,0,15.40624,-21.24601,0.006211365,45.60714,18.3175,0,0,0,0,-65.51071,-88.1142,0,-65.51071,-88.1142,0.001067912,-0.1257102,0.09433498,0,0.3,0,0,1,0
6.38256E+17,0,15.40624,-21.24601,0.006211365,45.60714,5.060128,0,15.40624,-21.24601,0.006211365,45.60714,18.3175,0,0,0,0,-65.51071,-88.1142,0,-65.51071,-88.1142,0.001067912,-0.1257102,0.09433498,0,0.3,0,0,1,0
6.38256E+17,0,15.40624,-21.24601,0.006211365,45.60714,5.060128,0,15.40624,-21.24601,0.006211365,45.60714,18.3175,0,0,0,0,-65.51071,-88.1142,0,-65.51071,-88.1142,0.001067912,-0.1257102,0.09433498,0,0.3,0,0,1,0
6.38256E+17,0,15.40624,-21.24601,0.006211365,45.60714,5.060128,0,15.40624,-21.24601,0.006211365,45.60714,18.3175,0,0,0,0,-65.51071,-88.1142,0,-65.51071,-88.1142,0.001067912,-0.1257102,0.09433498,0,0.3,0,0,1,0
6.38256E+17,0,15.40624,-21.24601,-0.0670338,45.60714,5.060128,0,15.40624,-21.24601,0.006211365,45.68039,18.3175,0,0,0,0,-65.51071,-88.1142,0,-65.51071,-88.1142,0.001067912,-0.1257102,0.09433498,0,0.3,0,0,1,0
6.38256E+17,0,15.40624,-21.24601,-0.0670338,45.60714,5.060128,0,15.40624,-21.24601,0.006211365,45.60714,18.3175,0,0,0,0,-65.51071,-88.1142,0,-65.51071,-88.1142,0.001067912,-0.1257102,0.09433498,0,0.3,0,0,1,0
6.38256E+17,0,15.40624,-21.24601,-0.0670338,45.60714,5.060128,0,15.40624,-21.24601,0.006211365,45.60714,18.3175,0,0,0,0,-65.51071,-88.1142,0,-65.51071,-88.1142,0.001067912,-0.1257102,0.09433498,0,0.3,0,0,1,0
6.38256E+17,0,15.40624,-21.24601,-0.0670338,45.60714,5.060128,0,15.40624,-21.24601,0.006211365,45.60714,18.3175,0,0,0,0,-65.51071,-88.1142,0,-65.51071,-88.1142,0.001067912,-0.1257102,0.09433498,0,0.3,0,0,1,0
6.38256E+17,0,15.40624,-21.24601,0.006211365,45.60714,5.060128,0,15.40624,-21.24601,0.006211365,45.60714,18.3175,0,0,0,0,-65.51071,-88.1142,0,-65.51071,-88.1142,0.001067912,-0.1257102,0.09433498,0,0.3,0,0,1,0
6.38256E+17,0,15.40624,-21.24601,0.006211365,45.60714,5.060128,0,15.40624,-21.24601,0.006211365,45.68039,18.3175,0,0,0,0,-65.51071,-88.1142,0,-65.51071,-88.1142,0.001067912,-0.1257102,0.09433498,0,0.3,0,0,1,0
6.38256E+17,0,15.40624,-21.24601,0.006211365,45.60714,5.060128,0,15.40624,-21.24601,0.006211365,45.60714,18.3175,0,0,0,0,-65.51071,-88.1142,0,-65.51071,-88.1142,0.001067912,-0.1257102,0.09433498,0,0.3,0,0,1,0
6.38256E+17,0,15.40624,-21.24601,-0.0670338,45.5339,5.060128,0,15.40624,-21.24601,0.006211365,45.60714,18.3175,0,0,0,0,-65.51071,-88.1142,0,-65.51071,-88.1142,0.001067912,-0.1257102,0.09433498,0,0.3,0,0,1,0
6.38256E+17,0,15.40624,-21.24601,0.006211365,45.60714,5.060128,0,15.40624,-21.24601,0.006211365,45.60714,18.3175,0,0,0,0,-65.51071,-88.1142,0,-65.51071,-88.1142,0.001067912,-0.1257102,0.09433498,0,0.3,0,0,1,0
6.38256E+17,0,15.40624,-21.24601,0.006211365,45.60714,5.060128,0,15.40624,-21.24601,0.006211365,45.60714,18.24426,0,0,0,0,-65.51071,-88.1142,0,-65.51071,-88.1142,0.001067912,-0.1257102,0.09433498,0,0.3,0,0,1,0
6.38256E+17,0,15.40624,-21.24601,0.006211365,45.60714,5.060128,0,15.40624,-21.24601,0.006211365,45.60714,18.3175,0,0,0,0,-65.51071,-88.1142,0,-65.51071,-88.1142,0.001067912,-0.1257102,0.09433498,0,0.3,0,0,1,0
6.38256E+17,0,15.40624,-21.24601,-0.0670338,45.60714,5.060128,0,15.40624,-21.24601,0.006211365,45.60714,18.3175,0,0,0,0,-65.51071,-88.1142,0,-65.51071,-88.1142,0.001067912,-0.1257102,0.09433498,0,0.3,0,0,1,0
6.38256E+17,0,15.40624,-21.24601,0.006211365,45.60714,5.060128,0,15.40624,-21.24601,0.006211365,45.60714,18.3175,0,0,0,0,-65.51071,-88.1142,0,-65.51071,-88.1142,0.001067912,-0.1257102,0.09433498,0,0.3,0,0,1,0
6.38256E+17,0,15.40624,-21.24601,0.006211365,45.60714,5.060128,0,15.40624,-21.24601,0.006211365,45.60714,18.3175,0,0,0,0,-65.51071,-88.1142,0,-65.51071,-88.1142,0.001067912,-0.1257102,0.09433498,0,0.3,0,0,1,0
6.38256E+17,0,15.40624,-21.24601,-0.0670338,45.5339,5.060128,0,15.40624,-21.24601,0.006211365,45.60714,18.3175,0,0,0,0,-65.51071,-88.1142,0,-65.51071,-88.1142,0.001067912,-0.1257102,0.09433498,0,0.3,0,0,1,0
6.38256E+17,0,15.40624,-21.24601,0.006211365,45.60714,5.060128,0,15.40624,-21.24601,0.006211365,45.60714,18.3175,0,0,0,0,-65.51071,-88.1142,0,-65.51071,-88.1142,0.001067912,-0.1257102,0.09433498,0,0.3,0,0,1,0
6.38256E+17,0,15.40624,-21.24601,-0.0670338,45.5339,5.060128,0,15.40624,-21.24601,0.006211365,45.60714,18.3175,0,0,0,0,-65.51071,-88.1142,0,-65.51071,-88.1142,0.001067912,-0.1257102,0.09433498,0,0.3,0,0,1,0
6.38256E+17,0,15.40624,-21.24601,0.006211365,45.60714,5.060128,0,15.40624,-21.24601,0.006211365,45.60714,18.3175,0,0,0,0,-65.51071,-88.1142,0,-65.51071,-88.1142,0.001067912,-0.1257102,0.09433498,0,0.3,0,0,1,0
6.38256E+17,0,15.40624,-21.24601,-0.0670338,45.60714,5.060128,0,15.40624,-21.24601,0.006211365,45.60714,18.3175,0,0,0,0,-65.51071,-88.1142,0,-65.51071,-88.1142,0.001067912,-0.1257102,0.09433498,0,0.3,0,0,1,0
6.38256E+17,0,15.40624,-21.24601,-0.0670338,45.60714,5.060128,0,15.40624,-21.24601,0.006211365,45.60714,29.59726,0,0,0,0,-65.51071,-88.1142,0,-65.51071,-88.1142,0.001067912,-0.1257102,0.09433498,0,0.3,0,0,1,0
6.38256E+17,0,15.40624,-21.24601,0.006211365,45.60714,5.060128,0,15.40624,-21.24601,0.006211365,45.60714,29.67051,0,0,0,0,-65.51071,-88.1142,0,-65.51071,-88.1142,0.001067912,-0.1257102,0.09433498,0,0.3,0,0,1,0
6.38256E+17,0,15.40624,-21.24601,-0.0670338,45.60714,5.060128,0,15.40624,-21.24601,0.07945653,45.60714,29.74375,0,0,0,0,-65.51071,-88.1142,0,-65.51071,-88.1142,0.001067912,-0.1257102,0.09433498,0,0.3,0,0,1,0
6.38256E+17,0,15.40624,-21.24601,0.006211365,45.60714,5.060128,0,15.40624,-21.24601,0.006211365,45.60714,29.74375,0,0,0,0,-65.51071,-88.1142,0,-65.51071,-88.1142,0.001067912,-0.1257102,0.09433498,0,0.3,0,0,1,0
6.38256E+17,0,15.40624,-21.24601,0.006211365,45.60714,5.060128,0,15.40624,-21.24601,0.006211365,45.68039,29.817,0,0,0,0,-65.51071,-88.1142,0,-65.51071,-88.1142,0.001067912,-0.1257102,0.09433498,0,0.3,0,0,1,0
6.38256E+17,0,15.40624,-21.24601,0.006211365,45.60714,5.060128,0,15.40624,-21.24601,0.006211365,45.60714,29.817,0,0,0,0,-65.51071,-88.1142,0,-65.51071,-88.1142,0.001067912,-0.1257102,0.09433498,0,0.3,0,0,1,0
6.38256E+17,0,15.40624,-21.24601,0.006211365,45.60714,5.060128,0,15.40624,-21.24601,0.006211365,45.60714,29.817,0,0,0,0,-65.51071,-88.1142,0,-65.51071,-88.1142,0.001067912,-0.1257102,0.09433498,0,0.3,0,0,1,0
6.38256E+17,0,15.40624,-21.24601,0.006211365,45.60714,5.060128,0,15.40624,-21.24601,0.006211365,45.68039,29.817,0,0,0,0,-65.51071,-88.1142,0,-65.51071,-88.1142,0.001067912,-0.1257102,0.09433498,0,0.3,0,0,1,0
6.38256E+17,0,15.40624,-21.24601,0.006211365,45.60714,5.060128,0,15.40624,-21.24601,0.07945653,45.68039,29.817,0,0,0,0,-65.51071,-88.1142,0,-65.51071,-88.1142,0.001067912,-0.1257102,0.09433498,0,0.3,0,0,1,0
6.38256E+17,0,15.40624,-21.24601,0.006211365,45.60714,5.060128,0,15.40624,-21.24601,0.006211365,45.60714,29.817,0,0,0,0,-65.51071,-88.1142,0,-65.51071,-88.1142,0.001067912,-0.1257102,0.09433498,0,0.3,0,0,1,0
6.38256E+17,0,15.40624,-21.24601,-0.0670338,45.60714,5.060128,0,15.40624,-21.24601,0.006211365,45.60714,29.817,0,0,0,0,-65.51071,-88.1142,0,-65.51071,-88.1142,0.001067912,-0.1257102,0.09433498,0,0.3,0,0,1,0
6.38256E+17,0,15.40624,-21.24601,-0.0670338,45.60714,5.060128,0,15.40624,-21.24601,0.006211365,45.60714,29.817,0,0,0,0,-65.51071,-88.1142,0,-65.51071,-88.1142,0.001067912,-0.1257102,0.09433498,0,0.3,0,0,1,0
6.38256E+17,0,15.40624,-21.24601,-0.0670338,45.60714,5.060128,0,15.40624,-21.24601,0.006211365,45.60714,29.817,0,0,0,0,-65.51071,-88.1142,0,-65.51071,-88.1142,0.001067912,-0.1257102,0.09433498,0,0.3,0,0,1,0
6.38256E+17,0,15.40624,-21.24601,0.006211365,45.60714,5.060128,0,15.40624,-21.24601,0.07945653,45.60714,29.817,0,0,0,0,-65.51071,-88.1142,0,-65.51071,-88.1142,0.001067912,-0.1257102,0.09433498,0,0.3,0,0,1,0
6.38256E+17,0,15.40624,-21.24601,-0.0670338,45.60714,5.060128,0,15.40624,-21.24601,0.006211365,45.60714,29.817,0,0,0,0,-65.51071,-88.1142,0,-65.51071,-88.1142,0.001067912,-0.1257102,0.09433498,0,0.3,0,0,1,0
6.38256E+17,0,15.40624,-21.24601,0.006211365,45.60714,5.060128,0,15.40624,-21.24601,0.006211365,45.60714,29.817,0,0,0,0,-65.51071,-88.1142,0,-65.51071,-88.1142,0.001067912,-0.1257102,0.09433498,0,0.3,0,0,1,0
6.38256E+17,0,15.40624,-21.24601,0.006211365,45.60714,5.060128,0,15.40624,-21.24601,0.006211365,45.60714,29.817,0,0,0,0,-65.51071,-88.1142,0,-65.51071,-88.1142,0.001067912,-0.1257102,0.09433498,0,0.3,0,0,1,0
6.38256E+17,0,15.40624,-21.24601,0.006211365,45.60714,5.060128,0,15.40624,-21.24601,0.006211365,45.60714,29.817,0,0,0,0,-65.51071,-88.1142,0,-65.51071,-88.1142,0.001067912,-0.1257102,0.09433498,0,0.3,0,0,1,0
6.38256E+17,0,15.40624,-21.24601,-0.0670338,45.60714,4.840393,0,15.40624,-21.24601,0.006211365,45.60714,29.817,0,0,0,0,-65.51071,-88.1142,0,-65.51071,-88.1142,0.001067912,-0.1257102,0.09433498,0,0.3,0,0,1,0
6.38256E+17,0,15.40624,-21.24601,-0.0670338,45.60714,4.034696,0,15.40624,-21.24601,0.006211365,45.60714,29.817,0,0,0,0,-65.51071,-88.1142,0,-65.51071,-88.1142,0.001067912,-0.1257102,0.09433498,0,0.3,0,0,1,0
6.38256E+17,0,15.40624,-21.24601,0.006211365,45.60714,0.07945653,0,15.40624,-21.24601,0.006211365,45.60714,29.817,0,0,0,0,-65.51071,-88.1142,0,-65.51071,-88.1142,0.001067912,-0.1257102,0.09433498,0,0.3,0,0,1,0
6.38256E+17,0,15.40624,-21.24601,0.006211365,45.60714,-11.34679,0,15.40624,-21.24601,0.006211365,45.60714,29.817,0,0,0,0,-65.51071,-88.1142,0,-65.51071,-88.1142,0.001067912,-0.1257102,0.09433498,0,0.3,0,0,1,0
6.38256E+17,0,15.40624,-21.24601,0.006211365,45.60714,-29.58484,0,15.40624,-21.24601,0.006211365,45.60714,29.817,0,0,0,0,-65.51071,-88.1142,0,-65.51071,-88.1142,0.001067912,-0.1257102,0.09433498,0,0.3,0,0,1,0
6.38256E+17,0,15.40624,-21.24601,0.1527017,45.82688,-39.69267,0,15.40624,-21.24601,0.006211365,45.60714,29.817,0,0,0,0,-65.51071,-88.1142,0,-65.51071,-88.1142,0.001067912,-0.1257102,0.09433498,0,0.3,0,0,1,0
6.38256E+17,0,15.40624,-21.24601,0.006211365,45.60714,-45.18605,0,15.40624,-21.24601,0.006211365,45.60714,29.817,0,0,0,0,-65.51071,-88.1142,0,-65.51071,-88.1142,0.001067912,-0.1257102,0.09433498,0,0.3,0,0,1,0
6.38256E+17,0,15.40624,-21.24601,0.2259469,45.60714,-46.79745,0,15.40624,-21.24601,0.006211365,45.60714,29.74375,0,0,0,0,-65.51071,-88.1142,0,-65.51071,-88.1142,0.001067912,-0.1257102,0.09433498,0,0.3,0,0,1,0
6.38256E+17,0,15.40624,-21.24601,0.07945653,45.5339,-47.16368,0,15.40624,-21.24601,0.006211365,45.60714,29.74375,0,0,0,0,-65.51071,-88.1142,0,-65.51071,-88.1142,0.001067912,-0.1257102,0.09433498,0,0.3,0,0,1,0
6.38256E+17,0.1413598,15.68677,-20.87246,-0.2135241,45.5339,-47.09043,0,15.40624,-21.24601,0.006211365,45.60714,29.74375,0,0,0,0.199527,-65.19408,-87.4781,0,-65.51071,-88.1142,0.001067912,-0.1257102,0.09433498,0,0.3,0,1.43E-05,0.9961381,1.43E-05
6.38256E+17,0.3533994,17.18298,-19.14476,-1.165711,45.46065,-47.09043,0,15.40624,-21.24601,0.006211365,45.60714,29.74375,0,0,0,0.516042,-63.22999,-84.68644,0,-65.51071,-88.1142,0.001067912,-0.1257102,0.09433498,0,0.3,0,0.000769017,0.9629336,0.000769017
6.38256E+17,0.3769594,17.97784,-18.21087,-1.605182,45.31416,-47.16368,0,15.40624,-21.24601,0.006211365,45.60714,29.74375,0,0,0,0.5603148,-62.16251,-83.18642,0,-65.51071,-88.1142,0.001067912,-0.1257102,0.09433498,0,0.3,0,0.00202074,0.9324611,0.00202074
6.38256E+17,0.3769594,19.96499,-15.73606,-2.630615,44.14224,-47.23692,0,15.40624,-21.24601,0.006211365,45.60714,29.817,0,0,0,0.5866648,-59.47041,-79.18142,0,-65.51071,-88.1142,0.001067912,-0.1257102,0.09433498,0,0.3,0,0.008896771,0.8352336,0.008896771
6.38256E+17,0.3769594,21.11052,-14.19514,-3.143331,42.60409,-47.23692,0,15.40624,-21.24601,0.006211365,45.60714,29.817,0,0,0,0.6033052,-57.8999,-76.65221,0,-65.51071,-88.1142,0.001067912,-0.1257102,0.09433498,0,0.3,0,0.0202789,0.7055033,0.0202789
6.38256E+17,0.3769594,21.27416,-13.84493,-3.216576,42.01813,-47.23692,0,15.40624,-21.24601,0.006211365,45.60714,29.817,0,0,0,0.6076021,-57.74225,-75.99912,0,-65.51071,-88.1142,0.001067912,-0.1257102,0.09433498,0,0.3,0,0.02623786,0.6357023,0.02623786
6.38256E+17,0.3769594,21.29754,-13.33129,-3.216576,41.21243,-47.31017,0,15.40624,-21.24601,0.006211365,45.60714,29.74375,0,0,0,0.6151169,-57.97241,-74.85692,0,-65.51071,-88.1142,0.001067912,-0.1257102,0.09433498,0,0.3,0,0.03875562,0.4921632,0.03875562
6.38256E+17,0.4240793,21.29754,-12.77096,-3.656047,40.55322,-47.31017,0,15.40624,-21.24601,0.07945653,45.60714,30.25646,0,0,0,0.7014083,-58.2669,-73.58706,0,-65.51071,-88.1142,0.001067912,-0.1257102,0.09433498,0,0.3,0,0.0533538,0.3432631,0.0533538
6.38256E+17,0.7067988,21.32092,-12.14058,-4.461744,40.11375,-47.38342,0,15.40624,-21.24601,0.006211365,45.60714,31.79461,0,0,0,1.186423,-58.53265,-72.17896,0,-65.51071,-88.1142,0.001067912,-0.1257102,0.09433498,0,0.3,0,0.07090191,0.1867429,0.07090191
6.38256E+17,1.036638,21.3443,-11.72033,-4.82797,39.89402,-47.60315,0,15.40624,-21.24601,0.006211365,45.60714,32.7468,0,0,0,1.756991,-58.68416,-71.25037,0,-65.51071,-88.1142,0.001067912,-0.1257102,0.09433498,0,0.3,0,0.08184058,0.1044805,0.08184058
6.38256E+17,2.002597,21.57808,-10.64635,-5.560421,39.45455,-47.96938,0,15.40624,-21.24601,0.1527017,45.60714,36.04284,0,0,0,3.472412,-58.66257,-69.04217,0,-65.51071,-88.1142,0.001067912,-0.1257102,0.09433498,0,0.3,0,0.102798,0,0.102798
6.38256E+17,3.039235,21.81186,-9.805852,-5.780157,39.16157,-48.40885,0,15.40624,-21.24601,0.1527017,45.60714,39.77834,0,0,0,5.359901,-58.50429,-67.39972,0,-65.51071,-88.1142,0.001067912,-0.1257102,0.09433498,0,0.3,0,0.1125731,0,0.1125731
6.38256E+17,4.664873,22.27943,-8.801919,-5.560421,38.79534,-49.28778,0,15.40624,-21.24601,-0.0670338,45.60714,44.39278,0,0,0,8.375899,-57.87339,-65.70136,0,-65.51071,-88.1142,0.001067912,-0.1257102,0.09433498,0,0.3,0,0.1255806,0,0.1255806
6.38256E+17,5.465911,22.34956,-8.521752,-5.267441,38.64885,-49.65401,0,15.40624,-21.24601,0.006211365,45.60714,45.78444,0,0,0,9.865639,-57.82059,-65.24849,0,-65.51071,-88.1142,0.001067912,-0.1257102,0.09433498,0,0.3,0,0.1303178,0,0.1303178
6.38256E+17,7.539187,22.60672,-7.844682,-4.168763,38.42912,-50.45971,0,15.40624,-21.24601,0.006211365,45.60714,47.61557,0,0,0,13.76377,-57.49184,-64.35348,0,-65.51071,-88.1142,0.001067912,-0.1257102,0.09433498,0,0.3,0,0.1430311,0,0.1430311
6.38256E+17,10.01298,23.1678,-7.167611,-2.264389,38.28262,-51.48514,0,15.40624,-21.24601,0.006211365,45.60714,46.66338,0,0,0,18.42303,-56.49466,-64.0061,0,-65.51071,-88.1142,0.001067912,-0.1257102,0.09433498,0,0.3,0,0.1582638,0,0.1582638
6.38256E+17,11.77998,23.61198,-6.724013,-0.57975,38.06289,-53.02329,0,15.40624,-21.24601,0.006211365,45.60714,42.12218,0,0,0,21.75715,-55.67067,-64.02229,0,-65.51071,-88.1142,0.001067912,-0.1257102,0.09433498,0,0.3,0,0.169604,0,0.169604
6.38256E+17,12.58102,23.84577,-6.467193,0.1527017,37.9164,-53.82899,0,15.40624,-21.24601,-0.0670338,45.60714,39.19238,0,0,0,23.2952,-55.24122,-63.97084,0,-65.51071,-88.1142,0.001067912,-0.1257102,0.09433498,0,0.3,0,0.1754302,0,0.1754302
6.38256E+17,14.15954,24.4536,-5.883511,1.54436,37.55017,-55.1474,0,15.40624,-21.24601,-0.140279,45.5339,33.84548,0,0,0,26.35048,-54.0965,-63.90381,0,-65.51071,-88.1142,0.001067912,-0.1257102,0.09433498,0,0.3,0,0.1878014,0,0.1878014
6.38256E+17,15.43177,25.10819,-5.323177,2.936018,36.96421,-56.09959,0,15.40624,-21.24601,0.006211365,45.60714,30.03673,0,0,0,28.83843,-52.84064,-63.87907,0,-65.51071,-88.1142,0.001067912,-0.1257102,0.09433498,0,0.3,0,0.1987163,0,0.1987163
6.38256E+17,15.95009,25.41211,-5.066357,3.521979,36.59798,-56.6123,0,15.40624,-21.24601,0.006211365,45.5339,28.57183,0,0,0,29.86296,-52.25506,-63.86209,0,-65.51071,-88.1142,0.001067912,-0.1257102,0.09433498,0,0.3,0,0.2034498,0,0.2034498
6.38256E+17,17.01029,26.11345,-4.529369,4.547412,35.93878,-57.49125,0,15.40624,-21.24601,0.006211365,45.60714,25.64202,0,0,0,31.94795,-50.88954,-63.92005,0,-65.51071,-88.1142,0.001067912,-0.1257102,0.09433498,0,0.3,0,0.213296,0,0.213296
6.38256E+17,17.85845,26.67453,-4.109118,5.353109,35.42606,-58.15046,0,15.40624,-21.24601,0.006211365,45.60714,23.00519,0,0,0,33.61136,-49.79348,-64.02862,0,-65.51071,-88.1142,0.001067912,-0.1257102,0.09433498,0,0.3,0,0.2211826,0,0.2211826
6.38256E+17,18.75373,27.39925,-3.688868,6.378541,35.05984,-58.58992,0,15.40624,-21.24601,0.006211365,45.60714,20.5881,0,0,0,35.3045,-48.35762,-64.36852,0,-65.51071,-88.1142,0.001067912,-0.1257102,0.09433498,0,0.3,0,0.2293738,0,0.2293738
6.38256E+17,19.15425,27.72655,-3.50209,6.891257,34.8401,-58.66317,0,15.40624,-21.24601,0.006211365,45.60714,19.70916,0,0,0,36.05721,-47.70959,-64.54099,0,-65.51071,-88.1142,0.001067912,-0.1257102,0.09433498,0,0.3,0,0.233061,0,0.233061
6.38256E+17,19.79037,28.26425,-3.128534,7.91669,34.32739,-58.73641,0,15.40624,-21.24601,0.006211365,45.60714,17.95128,0,0,0,37.30247,-46.65487,-64.68373,0,-65.51071,-88.1142,0.001067912,-0.1257102,0.09433498,0,0.3,0,0.2395831,0,0.2395831
6.38256E+17,20.28513,28.82533,-2.801672,8.942122,33.88792,-58.80966,0,15.40624,-21.24601,0.006211365,45.60714,16.33988,0,0,0,38.2433,-45.54711,-64.8824,0,-65.51071,-88.1142,0.001067912,-0.1257102,0.09433498,0,0.3,0,0.2449904,0,0.2449904
6.38256E+17,20.56785,29.31627,-2.521505,9.528083,33.59494,-58.73641,0.1413598,16.50501,-19.6117,0.07945653,45.75363,15.24121,0,0,0,38.78716,-44.57872,-64.98232,0.2050166,-64.37959,-85.25308,0.001067912,-0.1257102,0.09433498,0,0.3,0,0.2393512,0,0.2393512
6.38256E+17,21.03905,30.11112,-2.031212,10.8465,33.08222,-58.51668,1.225118,22.39632,-13.09782,0.8851534,43.99575,19.63592,0,0,0,39.71608,-43.01735,-65.09643,1.989956,-55.72303,-75.2988,0.001067912,-0.1257102,0.09433498,0,0.3,0,0.205474,0,0.205474
6.38256E+17,21.48668,30.90598,-1.470878,12.53114,32.42301,-57.19827,3.157035,26.53426,-8.381668,1.910586,40.69971,25.05606,0,0,0,40.65502,-41.46338,-65.07084,5.499894,-49.00386,-68.63563,0.001067912,-0.1257102,0.09433498,0,0.3,0,0.180655,0,0.180655
6.38256E+17,22.005,31.84111,-0.7704598,14.582,31.54407,-55.36714,5.583711,28.82533,-5.416566,4.181186,36.74448,29.45077,0,0,0,41.77378,-39.63708,-64.98226,10.14248,-45.11106,-64.60524,0.001067912,-0.1257102,0.09433498,0,0.3,0,0.1605183,0,0.1605183
6.38256E+17,22.19348,32.40219,-0.3735563,15.75392,31.1046,-54.26846,6.12559,29.03573,-4.506022,5.499599,34.8401,30.76918,0,0,0,42.20023,-38.54036,-64.90788,11.3232,-44.86575,-62.84216,0.001067912,-0.1257102,0.09433498,0,0.3,0,0.1579295,0,0.1579295
6.38256E+17,22.49976,33.59448,0.4202508,17.80479,29.78619,-52.14435,6.738149,28.80194,-3.455395,7.330729,31.76381,30.91567,0,0,0,42.88126,-36.21236,-64.82428,12.76761,-45.51175,-60.28551,0.001067912,-0.1257102,0.09433498,0,0.3,0,0.1592098,0,0.1592098
6.38256E+17,23.15944,35.1842,1.587614,20.00214,28.17479,-49.87375,7.397828,28.40452,-2.661588,8.942122,29.63969,27.83937,0,0,0,44.31684,-33.11162,-64.74859,14.3055,-46.42241,-58.17103,0.001067912,-0.1257102,0.09433498,0,0.3,0,0.1674158,0,0.1674158
6.38256E+17,23.91336,36.75054,3.058492,23.22493,25.68446,-46.57772,7.421387,27.65641,-2.054559,10.40703,27.88181,22.93195,0,0,0,46.19479,-30.02247,-64.17111,14.63882,-48.01742,-55.96578,0.001067912,-0.1257102,0.09433498,0,0.3,0,0.1862072,0,0.1862072
6.38256E+17,24.19608,37.52202,3.852299,25.34904,24.21955,-44.52685,7.303588,27.21223,-1.821087,10.99299,27.07611,20.66135,0,0,0,47.01984,-28.47972,-63.70696,14.53732,-48.95333,-54.92482,0.001067912,-0.1257102,0.09433498,0,0.3,0,0.1969396,0,0.1969396
6.38256E+17,24.31388,39.32214,5.509954,29.89024,20.48405,-40.20539,7.280028,26.79142,-1.307447,11.87193,25.61121,16.63286,0,0,0,47.74606,-24.88266,-62.67247,14.69845,-49.85859,-53.29242,0.001067912,-0.1257102,0.09433498,0,0.3,0,0.2123633,0,0.2123633
6.38256E+17,24.31388,40.84172,7.027527,33.91872,15.94285,-36.25014,7.303588,26.95507,-0.6070289,12.67763,24.21955,11.87193,0,0,0,48.25399,-21.79109,-61.54825,14.93108,-49.54608,-51.85255,0.001067912,-0.1257102,0.09433498,0,0.3,0,0.2221915,0,0.2221915
6.38256E+17,24.31388,41.37942,7.587861,36.04284,13.52576,-34.41902,7.303588,27.04858,-0.1634309,13.04385,23.63359,9.088613,0,0,0,48.44779,-20.68232,-61.11931,15.04977,-49.3591,-50.92653,0.001067912,-0.1257102,0.09433498,0,0.3,0,0.2259247,0,0.2259247
6.38256E+17,24.26676,42.38468,8.545099,39.99807,8.764822,-31.19623,7.303588,27.09534,0.793807,13.84955,22.38842,4.547412,0,0,0,48.62421,-18.62782,-60.49252,15.32669,-49.24995,-48.76592,0.001067912,-0.1257102,0.09433498,0,0.3,0,0.2336639,0,0.2336639
6.38256E+17,24.2432,43.4367,9.338906,43.66033,3.93064,-28.41291,7.350708,27.21223,1.681003,14.72849,21.07001,1.69085,0,0,0,48.64473,-16.54738,-60.32846,15.67326,-48.96329,-46.85431,0.001067912,-0.1257102,0.09433498,0,0.3,0,0.240804,0,0.240804
6.38256E+17,24.2432,44.23156,9.969283,46.80988,-0.9035407,-26.06907,7.916147,27.82006,2.941756,15.53419,19.7516,-0.57975,0,0,0,48.71254,-14.9669,-60.17789,17.18526,-47.59032,-44.75836,0.001067912,-0.1257102,0.09433498,0,0.3,0,0.239584,0,0.239584
6.38256E+17,24.2432,44.48872,10.24945,48.42127,-3.540367,-24.97039,8.363786,28.21749,3.712215,16.0469,18.87265,-1.312202,0,0,0,48.8043,-14.42453,-59.97412,18.3475,-46.66969,-43.5552,0.001067912,-0.1257102,0.09433498,0,0.3,0,0.2364819,0,0.2364819
6.38256E+17,24.26676,44.76926,10.41288,51.42432,-8.374548,-23.28575,9.164824,29.05911,5.369871,17.36532,17.18801,-2.264389,0,0,0,48.81414,-13.89165,-60.07122,20.55339,-44.64512,-40.95402,0.001067912,-0.1257102,0.09433498,0,0.3,0,0.229669,0,0.229669
6.38256E+17,24.38456,45.02642,10.45957,53.10896,-11.67058,-22.26032,9.800944,29.97086,7.144264,18.53724,15.50338,-2.70386,0,0,0,48.90636,-13.448,-60.45924,22.48731,-42.34844,-38.17516,0.001067912,-0.1257102,0.09433498,0,0.3,0,0.2252655,0,0.2252655
6.38256E+17,24.7144,45.28358,10.55296,53.76817,-12.98899,-21.82085,10.4135,30.78909,8.451711,19.63592,13.89198,-2.630615,0,0,0,49.43858,-12.9863,-60.93392,24.24855,-40.29272,-36.40515,0.001067912,-0.1257102,0.09433498,0,0.3,0,0.2225892,0,0.2225892
6.38256E+17,24.8322,45.33034,10.57631,53.69492,-12.91575,-21.67436,10.69622,31.11639,9.198823,20.22188,13.23278,-2.410879,0,0,0,49.64927,-12.8998,-61.05752,25.14551,-39.37268,-35.22301,0.001067912,-0.1257102,0.09433498,0,0.3,0,0.2218484,0,0.2218484
6.38256E+17,25.04424,45.33034,10.57631,52.59624,-11.45084,-21.82085,11.16742,31.56057,10.36619,21.32055,12.20734,-1.605182,0,0,0,50.09004,-12.8998,-61.26258,26.65389,-38.02809,-33.33513,0.001067912,-0.1257102,0.09433498,0,0.3,0,0.2213948,0,0.2213948
6.38256E+17,25.35052,45.40047,10.57631,50.17915,-7.715342,-23.50549,11.68574,31.91125,11.41681,22.12625,11.47489,-1.238957,0,0,0,50.5681,-12.78512,-61.61602,28.27357,-36.87195,-31.6508,0.001067912,-0.1257102,0.09433498,0,0.3,0,0.2222125,0,0.2222125
6.38256E+17,25.44476,45.49398,10.57631,48.56776,-5.298251,-25.04364,11.99202,32.0749,11.90711,22.56572,11.18191,-1.165711,0,0,0,50.67696,-12.63243,-61.83939,29.19417,-36.31826,-30.90812,0.001067912,-0.1257102,0.09433498,0,0.3,0,0.2224451,0,0.2224451
6.38256E+17,25.539,45.91479,10.59966,44.24629,0.5613627,-29.58484,12.62814,32.58922,12.91104,23.29818,10.59595,-1.092466,0,0,0,50.57289,-11.93848,-62.50719,31.07719,-34.80473,-29.63869,0.001067912,-0.1257102,0.09433498,0,0.3,0,0.2226705,0,0.2226705
6.38256E+17,25.56256,46.52262,10.73974,38.97264,6.640712,-36.03041,13.21714,33.19705,13.91497,24.03063,10.08323,-1.458692,0,0,0,50.31394,-10.8993,-63.16035,32.84547,-33.07486,-28.50082,0.001067912,-0.1257102,0.09433498,0,0.3,0,0.2235054,0,0.2235054
6.38256E+17,25.79816,47.411,11.1133,32.16084,12.64682,-44.74659,13.80614,34.15556,15.05899,24.90957,9.277537,-2.191144,0,0,0,50.45984,-9.323547,-63.96025,34.60134,-30.55237,-27.54369,0.001067912,-0.1257102,0.09433498,0,0.3,0,0.2251844,0,0.2251844
6.38256E+17,25.96308,47.78505,11.32342,28.86481,15.06391,-49.58077,13.99462,34.76339,15.59597,25.27579,8.911312,-2.410879,0,0,0,50.68867,-8.641358,-64.25261,35.16226,-29.05558,-27.26542,0.001067912,-0.1257102,0.09433498,0,0.3,0,0.2250479,0,0.2250479
6.38256E+17,26.26936,48.39288,11.81372,22.12625,19.23888,-59.46887,14.27734,36.09594,16.71664,25.935,8.252106,-2.70386,0,0,0,51.27325,-7.467561,-64.46663,36.03244,-25.80278,-26.75514,0.001067912,-0.1257102,0.09433498,0,0.3,0,0.2230818,0,0.2230818
6.38256E+17,26.76412,49.02409,12.44409,15.02147,22.53491,-69.94292,14.48938,37.33499,17.97739,26.44772,7.153428,-2.923595,0,0,0,52.31724,-6.189874,-64.6181,36.82561,-22.61632,-25.84694,0.001067912,-0.1257102,0.09433498,0,0.3,0,0.2243335,0,0.2243335
6.38256E+17,27.49447,49.63192,12.98108,9.088613,24.51253,-78.87884,14.74854,38.45715,18.95798,26.7407,6.347731,-3.070086,0,0,0,53.70273,-4.992872,-65.16373,37.61248,-19.83246,-25.47294,0.001067912,-0.1257102,0.09433498,0,0.3,0,0.2266312,0,0.2266312
6.38256E+17,27.84787,49.91246,13.19121,5.79258,25.31823,-83.63977,14.93702,39.01822,19.40158,26.88719,5.981505,-3.070086,0,0,0,54.32781,-4.460468,-65.51651,38.12301,-18.4747,-25.4448,0.001067912,-0.1257102,0.09433498,0,0.3,0,0.2271968,0,0.2271968
6.38256E+17,28.31907,50.26314,13.35464,0.4456824,26.41691,-91.11078,15.2433,39.92997,20.26543,27.18017,5.468789,-3.070086,0,0,0,55.05031,-3.849485,-66.19196,39.02893,-16.15457,-25.12747,0.001067912,-0.1257102,0.09433498,0,0.3,0,0.2288226,0,0.2288226
6.38256E+17,29.28503,50.45016,13.35464,-4.388499,27.66208,-96.82391,15.50245,40.84172,21.05923,27.32666,5.029318,-3.070086,0,0,0,56.60075,-3.571771,-67.42688,39.77091,-13.88636,-24.96459,0.001067912,-0.1257102,0.09433498,0,0.3,0,0.2341303,0,0.2341303
6.38256E+17,30.46303,50.35665,13.35464,-6.80559,29.05373,-99.16775,15.90297,41.63658,21.89973,27.47315,4.736337,-3.143331,0,0,0,58.74864,-3.710491,-68.46729,40.93688,-11.77899,-24.66828,0.001067912,-0.1257102,0.09433498,0,0.3,0,0.2398287,0,0.2398287
6.38256E+17,31.00491,50.30989,13.37798,-7.318305,30.00592,-99.60722,16.16213,42.05739,22.41338,27.61964,4.516602,-3.143331,0,0,0,59.76102,-3.767392,-68.91025,41.71267,-10.59857,-24.41908,0.001067912,-0.1257102,0.09433498,0,0.3,0,0.2424805,0,0.2424805
6.38256E+17,31.47611,50.14624,13.37798,-7.538041,32.64275,-99.97345,16.72757,43.06265,23.58074,28.13236,3.93064,-3.363066,0,0,0,60.72964,-4.011049,-69.15542,43.3954,-7.813844,-23.95808,0.001067912,-0.1257102,0.09433498,0,0.3,0,0.2427826,0,0.2427826
6.38256E+17,31.47611,49.9826,13.37798,-7.904267,36.15851,-100.0467,17.24589,43.92765,24.63136,28.71832,3.271434,-3.875783,0,0,0,60.88212,-4.25554,-68.90635,44.95074,-5.354747,-23.5483,0.001067912,-0.1257102,0.09433498,0,0.3,0,0.2404355,0,0.2404355
6.38256E+17,31.47611,50.23976,13.33129,-8.050756,38.50236,-99.97345,17.57573,44.37183,25.21505,29.08454,2.905208,-4.242009,0,0,0,60.58713,-3.896816,-69.38819,45.93815,-4.040521,-23.32149,0.001067912,-0.1257102,0.09433498,0,0.3,0,0.2416999,0,0.2416999
6.38256E+17,31.40543,52.48407,13.42468,-8.050756,42.31111,-99.68047,18.04693,45.23682,26.28902,29.817,2.319247,-5.120951,0,0,0,58.44926,-0.5852528,-72.61513,47.38724,-1.526158,-22.91252,0.001067912,-0.1257102,0.09433498,0,0.3,0,0.2546371,0,0.2546371
6.38256E+17,31.28763,55.52323,14.70878,-7.611286,44.65495,-99.53397,18.58881,46.21871,27.3163,30.54945,1.66004,-5.853402,0,0,0,56.78617,4.297875,-74.90771,48.91924,1.147154,-22.89544,0.001067912,-0.1257102,0.09433498,0,0.3,0,0.2634906,0,0.2634906
6.38256E+17,31.33475,58.44551,17.46376,-6.80559,45.75363,-99.53397,19.10713,47.06033,28.22684,31.20865,1.000834,-6.292873,0,0,0,57.1011,9.779752,-74.56337,50.38068,3.479433,-22.91781,0.001067912,-0.1257102,0.09433498,0,0.3,0,0.2623034,0,0.2623034
6.38256E+17,31.35831,59.80144,18.72451,-6.219628,46.11986,-99.31424,19.36629,47.55127,28.67044,31.50163,0.707853,-6.585854,0,0,0,57.18161,12.31054,-74.51801,51.06051,4.74604,-23.08307,0.001067912,-0.1257102,0.09433498,0,0.3,0,0.2617366,0,0.2617366
6.38256E+17,31.52323,62.58345,21.24601,-3.802537,46.1931,-97.55635,19.83749,48.57991,29.46425,32.08759,0.268382,-6.952079,0,0,0,57.36871,17.43584,-74.81791,52.19706,7.243495,-23.66418,0.001067912,-0.1257102,0.09433498,0,0.3,0,0.2620751,0,0.2620751
6.38256E+17,31.92375,65.43559,23.67413,0.07945653,45.02118,-94.62655,20.35581,49.77219,30.3281,32.7468,0.04864649,-7.09857,0,0,0,57.62772,22.5033,-75.85268,53.37966,10.05963,-24.47685,0.001067912,-0.1257102,0.09433498,0,0.3,0,0.2651587,0,0.2651587
6.38256E+17,31.99443,66.69801,24.86484,2.057076,43.84926,-93.30813,20.63853,50.4034,30.84174,33.11303,-0.09784385,-7.171815,0,0,0,57.65743,24.83424,-76.05885,54.0545,11.61046,-24.83342,0.001067912,-0.1257102,0.09433498,0,0.3,0,0.2651364,0,0.2651364
6.38256E+17,32.25359,68.91895,26.94275,5.499599,40.84621,-92.13622,21.13329,51.75934,32.0558,33.69899,-0.4640697,-7.24506,0,0,0,57.84171,28.89906,-76.68915,55.27561,15.06713,-25.34731,0.001067912,-0.1257102,0.09433498,0,0.3,0,0.2661715,0,0.2661715
6.38256E+17,32.81903,70.83595,28.71714,8.50265,36.81772,-91.84323,21.55737,53.25555,33.36324,34.28495,-1.123276,-7.24506,0,0,0,58.45231,32.3618,-77.71588,56.25812,18.83089,-25.94871,0.001067912,-0.1257102,0.09433498,0,0.3,0,0.2677564,0,0.2677564
6.38256E+17,33.33735,72.30878,30.16467,11.13948,32.42301,-92.06297,22.05212,54.75175,34.624,34.87091,-1.855728,-7.24506,0,0,0,59.09497,35.10123,-78.51417,57.3413,22.51799,-26.79618,0.001067912,-0.1257102,0.09433498,0,0.3,0,0.2662782,0,0.2662782
6.38256E+17,33.45514,72.91661,30.725,12.23815,30.07917,-92.35595,22.26416,55.42972,35.16098,35.16389,-2.221954,-7.24506,0,0,0,59.15511,36.18478,-78.82418,57.76291,24.1359,-27.25818,0.001067912,-0.1257102,0.09433498,0,0.3,0,0.2648663,0,0.2648663
6.38256E+17,33.52582,73.87512,31.65889,13.99604,25.17174,-92.86866,22.66468,56.71552,36.16492,35.74985,-2.88116,-7.24506,0,0,0,59.11169,37.94793,-79.12937,58.52247,27.16838,-28.20494,0.001067912,-0.1257102,0.09433498,0,0.3,0,0.2602808,0,0.2602808
6.38256E+17,33.62006,74.50633,32.28927,14.80174,20.55729,-93.60111,23.01808,57.95457,37.07546,36.26257,-3.320631,-7.318305,0,0,0,59.16482,39.12505,-79.36741,59.10159,29.98888,-29.23746,0.001067912,-0.1257102,0.09433498,0,0.3,0,0.2547786,0,0.2547786
6.38256E+17,33.78498,75.06741,32.84961,15.31445,16.16258,-94.04059,23.32436,59.24037,38.07939,36.84853,-3.686857,-7.538041,0,0,0,59.33114,40.16975,-79.67194,59.56627,32.973,-30.2004,0.001067912,-0.1257102,0.09433498,0,0.3,0,0.249964,0,0.249964
6.38256E+17,33.87922,75.46484,33.24651,15.68068,13.89198,-94.18707,23.46572,59.98847,38.68642,37.14151,-3.979838,-7.757777,0,0,0,59.40988,40.90876,-79.86948,59.74983,34.73091,-30.70966,0.001067912,-0.1257102,0.09433498,0,0.3,0,0.2477382,0,0.2477382
6.38256E+17,33.90279,76.23632,34.01696,16.26664,9.350782,-94.69979,23.70132,61.27427,39.87713,37.65423,-4.492554,-8.343738,0,0,0,59.3079,42.34082,-80.09979,60.12923,37.95306,-31.38036,0.001067912,-0.1257102,0.09433498,0,0.3,0,0.2446176,0,0.2446176
6.38256E+17,34.04414,77.40523,35.30106,16.48637,4.589847,-95.28575,23.91336,62.4198,40.92776,38.0937,-5.078516,-9.076189,0,0,0,59.41875,44.66064,-80.40431,60.43766,40.79584,-32.05048,0.001067912,-0.1257102,0.09433498,0,0.3,0,0.2425937,0,0.2425937
6.38256E+17,34.13838,79.15859,37.12215,16.70611,-1.928973,-96.23794,24.14896,63.63547,42.11847,38.75291,-6.030703,-9.881886,0,0,0,59.24007,47.99321,-80.97891,60.81483,43.91619,-32.70782,0.001067912,-0.1257102,0.09433498,0,0.3,0,0.2423428,0,0.2423428
6.38256E+17,34.13838,79.97683,37.91596,16.77936,-5.225006,-96.89715,24.26676,64.19655,42.70215,38.97264,-6.470173,-10.32136,0,0,0,59.01137,49.4632,-81.31622,61.02378,45.40654,-32.98798,0.001067912,-0.1257102,0.09433498,0,0.3,0,0.2426997,0,0.2426997
6.38256E+17,34.16194,81.37952,39.24675,16.8526,-11.89032,-98.4353,24.40812,65.27194,43.79947,39.48536,-7.056135,-11.2003,0,0,0,58.59778,51.92349,-82.00267,61.19091,48.22469,-33.50619,0.001067912,-0.1257102,0.09433498,0,0.3,0,0.243532,0,0.243532
6.38256E+17,34.35042,82.73546,40.67094,16.77936,-17.96966,-101.5848,24.57304,66.25382,44.71001,39.85158,-7.349115,-12.006,0,0,0,58.55152,54.48828,-82.67874,61.34344,50.64166,-34.19755,0.001067912,-0.1257102,0.09433498,0,0.3,0,0.2435681,0,0.2435681
6.38256E+17,34.79806,84.06802,41.97839,16.8526,-23.46305,-104.0752,24.78508,67.37598,45.80734,40.21781,-7.861832,-12.95818,0,0,0,58.765,56.85393,-83.79214,61.58669,53.48386,-34.97299,0.001067912,-0.1257102,0.09433498,0,0.3,0,0.2450831,0,0.2450831
6.38256E+17,35.1279,84.51221,42.49202,17.14558,-25.51392,-105.1739,24.92644,67.84354,46.32097,40.43755,-8.154812,-13.39765,0,0,0,59.16819,57.76033,-84.24927,61.84109,54.75923,-35.28559,0.001067912,-0.1257102,0.09433498,0,0.3,0,0.2456416,0,0.2456416
6.38256E+17,36.0703,85.14342,43.37922,18.39075,-28.15074,-107.6642,25.25628,68.59165,47.20817,40.95026,-8.447793,-14.2766,0,0,0,60.57203,59.29928,-85.1945,62.51973,56.90966,-35.82684,0.001067912,-0.1257102,0.09433498,0,0.3,0,0.2473191,0,0.2473191
6.38256E+17,36.91846,85.75125,44.38315,20.00214,-29.46916,-109.9348,25.72748,69.1761,48.09537,41.46298,-8.814018,-15.59501,0,0,0,61.96085,61.03117,-85.88124,63.66044,58.92575,-36.23555,0.001067912,-0.1257102,0.09433498,0,0.3,0,0.2485969,0,0.2485969
6.38256E+17,37.50746,86.73314,45.76064,21.68678,-29.83538,-111.0335,26.29292,69.43327,48.79579,41.90245,-8.960509,-16.76693,0,0,0,62.79545,63.45068,-86.53542,65.1921,60.35714,-36.40274,0.001067912,-0.1257102,0.09433498,0,0.3,0,0.251426,0,0.251426
6.38256E+17,37.79018,87.31759,46.5311,22.56572,-29.98187,-111.5462,26.64632,69.5034,49.0993,42.19543,-9.033754,-17.35289,0,0,0,63.12726,64.81432,-86.93801,66.14421,60.94709,-36.52932,0.001067912,-0.1257102,0.09433498,0,0.3,0,0.2532338,0,0.2532338
6.38256E+17,38.37918,88.2761,48.14206,24.03063,-30.12836,-113.89,27.306,69.52678,49.68298,42.70815,-8.887264,-18.15859,0,0,0,64.15433,67.65706,-87.34693,68.03976,61.99743,-36.55921,0.001067912,-0.1257102,0.09433498,0,0.3,0,0.256248,0,0.256248
6.38256E+17,38.99174,89.42163,50.14993,25.56878,-30.56783,-117.2593,27.94211,69.52678,50.26667,43.29411,-8.814018,-19.25727,0,0,0,65.26277,71.24507,-87.73341,69.9081,63.03768,-36.55091,0.001067912,-0.1257102,0.09433498,0,0.3,0,0.2602205,0,0.2602205
6.38256E+17,39.22733,90.33338,51.43402,26.52096,-31.08055,-120.3356,28.27195,69.52678,50.54683,43.58709,-8.740773,-19.98972,0,0,0,65.44649,73.5653,-88.18279,70.86253,63.54015,-36.58954,0.001067912,-0.1257102,0.09433498,0,0.3,0,0.2641827,0,0.2641827
6.38256E+17,39.53362,92.20364,54.16566,28.27885,-32.39896,-127.8066,28.90807,69.52678,51.03712,44.17305,-8.740773,-21.16164,0,0,0,65.55066,78.53246,-88.92568,72.66968,64.42433,-36.75293,0.001067912,-0.1257102,0.09433498,0,0.3,0,0.2725672,0,0.2725672
6.38256E+17,39.58073,94.1674,57.2008,30.4762,-34.30334,-139.8188,29.56775,69.62029,51.69085,44.83226,-8.594284,-22.26032,0,0,0,65.24563,84.1122,-89.42757,74.5481,65.68875,-36.94947,0.001067912,-0.1257102,0.09433498,0,0.3,0,0.2819534,0,0.2819534
6.38256E+17,39.58073,95.82726,59.69896,33.18628,-36.50069,-141.8697,30.10963,69.90083,52.5547,45.63795,-8.447793,-23.13926,0,0,0,64.73188,88.73006,-90.04901,76.0994,67.50157,-37.1225,0.001067912,-0.1257102,0.09433498,0,0.3,0,0.2907355,0,0.2907355
6.38256E+17,39.58073,96.50523,60.63285,34.57793,-37.37963,-141.9429,30.34523,70.08785,52.99829,46.07742,-8.447793,-23.72522,0,0,0,64.42129,90.44603,-90.42471,76.74724,68.47259,-37.25053,0.001067912,-0.1257102,0.09433498,0,0.3,0,0.2942046,0,0.2942046
6.38256E+17,39.58073,97.39359,61.87025,36.70204,-38.55156,-142.0894,30.69863,70.53204,53.81545,46.66338,-8.594284,-24.75066,0,0,0,63.99613,92.72077,-90.93899,77.63628,70.34786,-37.58849,0.001067912,-0.1257102,0.09433498,0,0.3,0,0.29719,0,0.29719
6.38256E+17,39.58073,98.49237,63.36448,38.53317,-38.99103,-142.0894,30.93423,71.23338,54.67929,47.10286,-9.106999,-25.92258,0,0,0,63.40148,95.45531,-91.65829,77.98435,72.51406,-38.22412,0.001067912,-0.1257102,0.09433498,0,0.3,0,0.299757,0,0.299757
6.38256E+17,39.58073,99.54439,64.76532,39.92483,-39.21077,-142.0894,31.05203,72.14513,55.75327,47.61557,-9.399981,-26.87477,0,0,0,62.76922,98.0034,-92.42308,77.94811,75.23361,-38.88898,0.001067912,-0.1257102,0.09433498,0,0.3,0,0.3006144,0,0.3006144
6.38256E+17,39.58073,100.0587,65.3957,40.43755,-39.21077,-142.0894,31.07559,72.63608,56.3603,47.90855,-9.692961,-27.46073,0,0,0,62.41153,99.13016,-92.85576,77.84638,76.75133,-39.17818,0.001067912,-0.1257102,0.09433498,0,0.3,0,0.3008459,0,0.3008459
6.38256E+17,39.58073,100.7367,66.16615,41.02351,-38.77129,-142.0894,31.09915,73.85175,57.78448,48.64101,-10.27892,-28.77914,0,0,0,61.89135,100.4807,-93.48496,77.43079,80.3491,-39.98721,0.001067912,-0.1257102,0.09433498,0,0.3,0,0.2961741,0,0.2961741
6.38256E+17,39.58073,101.1341,66.77318,40.51079,-37.59937,-142.0894,31.09915,74.99728,59.06858,49.00723,-11.01137,-30.02431,0,0,0,61.67208,101.6005,-93.75021,76.91251,83.61111,-40.84638,0.001067912,-0.1257102,0.09433498,0,0.3,0,0.2895991,0,0.2895991
6.38256E+17,39.58073,101.6484,68.17402,40.21781,-36.3542,-142.3092,31.09915,76.32983,60.53946,49.4467,-11.74383,-31.41597,0,0,0,61.72023,104.3756,-93.69196,76.24982,87.33777,-41.94498,0.001067912,-0.1257102,0.09433498,0,0.3,0,0.2819196,0,0.2819196
6.38256E+17,39.58073,101.6484,68.64096,40.43755,-35.91473,-142.0894,31.09915,77.05456,61.37996,49.59319,-12.11005,-32.29491,0,0,0,61.97506,105.3861,-93.38371,75.89246,89.43625,-42.53739,0.001067912,-0.1257102,0.09433498,0,0.3,0,0.2753834,0,0.2753834
6.38256E+17,39.55717,101.625,69.29469,40.73053,-34.74281,-142.0894,31.09915,78.31698,62.87419,50.03266,-12.98899,-34.27253,0,0,0,62.32591,106.8172,-92.89616,75.24955,93.13698,-43.6032,0.001067912,-0.1257102,0.09433498,0,0.3,0,0.2638164,0,0.2638164
6.38256E+17,39.55717,101.625,70.20523,41.09675,-33.2779,-141.9429,31.09915,79.5794,64.27502,50.39889,-14.30741,-36.76286,0,0,0,62.79303,108.8054,-92.33065,74.50953,96.61978,-44.82999,0.001067912,-0.1257102,0.09433498,0,0.3,0,0.2520951,0,0.2520951
6.38256E+17,39.55717,101.6484,70.60213,41.24324,-32.6187,-142.0162,31.09915,80.09372,64.92875,50.47213,-14.89337,-38.30101,0,0,0,62.95639,109.6646,-92.13287,74.23801,98.20541,-45.28011,0.001067912,-0.1257102,0.09433498,0,0.3,0,0.2476777,0,0.2476777
6.38256E+17,39.53362,101.6484,71.39594,41.60947,-31.37353,-141.8697,31.14627,81.40291,66.65645,50.54538,-17.01748,-42.84221,0,0,0,63.30793,111.4115,-91.64307,73.63652,102.3626,-46.50392,0.001067912,-0.1257102,0.09433498,0,0.3,0,0.2359081,0,0.2359081
6.38256E+17,39.51006,101.6484,72.28313,41.90245,-30.42134,-141.7964,31.16983,82.03412,67.61369,50.47213,-19.6543,-48.77507,0,0,0,63.68583,113.3735,-91.12053,73.38223,104.627,-47.03741,0.001067912,-0.1257102,0.09433498,0,0.3,0,0.2298827,0,0.2298827
6.38256E+17,39.51006,101.6484,73.26372,42.34192,-29.68889,-141.8697,31.40543,82.08087,67.9172,48.78749,-21.2657,-54.78117,0,0,0,64.11583,115.5533,-90.59908,73.96357,105.2959,-47.20403,0.001067912,-0.1257102,0.09433498,0,0.3,0,0.2283266,0,0.2283266
6.38256E+17,39.51006,101.6484,73.73067,42.56165,-29.39591,-141.8697,31.59391,82.12763,67.98724,47.32259,-21.63192,-56.83204,0,0,0,64.31223,116.5953,-90.36091,74.33728,105.4619,-47.48769,0.001067912,-0.1257102,0.09433498,0,0.3,0,0.2270774,0,0.2270774
6.38256E+17,39.51006,101.6484,74.7346,43.14762,-29.10293,-141.8697,31.99443,82.33804,68.38414,43.73357,-21.2657,-60.42105,0,0,0,64.71617,118.8438,-89.87107,75.10513,106.3857,-48.13066,0.001067912,-0.1257102,0.09433498,0,0.3,0,0.2239083,0,0.2239083
6.38256E+17,39.46294,101.6484,75.48171,43.66033,-29.02968,-141.8697,32.3007,82.52505,69.43477,40.21781,-20.75298,-63.05788,0,0,0,64.93562,120.5243,-89.47288,75.9863,108.7244,-48.15485,0.001067912,-0.1257102,0.09433498,0,0.3,0,0.2218408,0,0.2218408
6.38256E+17,39.39226,101.6484,76.29887,44.0998,-29.24942,-141.7964,32.74835,82.96925,70.4854,37.14151,-21.41219,-65.62146,0,0,0,65.1325,122.3687,-89.03454,76.82153,111.1521,-48.90997,0.001067912,-0.1257102,0.09433498,0,0.3,0,0.2163578,0,0.2163578
6.38256E+17,39.34513,101.6484,76.74246,44.39278,-29.46916,-141.9429,32.93682,83.2264,70.88229,35.60336,-21.85166,-67.23285,0,0,0,65.21983,123.3727,-88.79489,77.05711,112.0958,-49.40555,0.001067912,-0.1257102,0.09433498,0,0.3,0,0.2132376,0,0.2132376
6.38256E+17,39.13309,101.6484,77.55962,44.9055,-29.98187,-142.0162,33.19599,83.53032,71.79285,32.38057,-23.24332,-69.94292,0,0,0,65.19189,125.2269,-88.22601,77.58091,114.1851,-49.77581,0.001067912,-0.1257102,0.09433498,0,0.3,0,0.2093936,0,0.2093936
6.38256E+17,38.8975,101.6484,78.63359,45.49146,-30.78757,-142.0894,33.92635,83.57708,72.65669,29.89024,-25.07445,-71.11485,0,0,0,65.1856,127.6727,-87.55738,79.36826,116.1118,-50.3548,0.001067912,-0.1257102,0.09433498,0,0.3,0,0.2072941,0,0.2072941
6.38256E+17,38.5441,101.6484,79.84765,46.3704,-31.95949,-142.0162,35.22214,83.50694,73.56724,28.86481,-26.4661,-71.99379,0,0,0,65.01472,130.4485,-86.74429,82.46491,118.1213,-51.54439,0.001067912,-0.1257102,0.09433498,0,0.3,0,0.2058825,0,0.2058825
6.38256E+17,38.30849,101.6484,80.24455,46.80988,-32.47221,-142.0894,36.09386,83.43681,74.17426,29.37753,-26.83233,-72.72624,0,0,0,64.77759,131.3584,-86.35235,84.55917,119.4599,-52.36432,0.001067912,-0.1257102,0.09433498,0,0.3,0,0.2054308,0,0.2054308
6.38256E+17,38.00222,101.6484,80.89828,47.46908,-33.2779,-142.1627,37.81374,83.20303,75.59845,32.16084,-26.68584,-76.09552,0,0,0,64.4918,132.8593,-85.81084,88.86333,122.5965,-53.84478,0.001067912,-0.1257102,0.09433498,0,0.3,0,0.2074323,0,0.2074323
6.38256E+17,37.46034,101.6484,81.62204,48.05504,-33.64413,-142.1627,38.6619,83.17965,76.95258,35.96959,-25.95339,-81.58891,0,0,0,63.86398,134.5242,-85.00144,91.04945,125.6516,-54.5467,0.001067912,-0.1257102,0.09433498,0,0.3,0,0.2088818,0,0.2088818
6.38256E+17,37.08338,101.6484,81.94891,48.42127,-33.71738,-142.1627,38.80325,83.20303,77.44288,37.58098,-25.66041,-83.71302,0,0,0,63.37978,135.2772,-84.49636,91.45454,126.7708,-54.61673,0.001067912,-0.1257102,0.09433498,0,0.3,0,0.2093647,0,0.2093647
6.38256E+17,36.16454,101.6484,82.50924,49.15372,-33.79062,-142.2359,39.06242,83.17965,78.51686,39.70509,-25.29418,-85.83713,0,0,0,62.10021,136.6232,-83.31717,92.33011,129.2091,-54.58543,0.001067912,-0.1257102,0.09433498,0,0.3,0,0.2117976,0,0.2117976
6.38256E+17,34.75095,101.6484,83.30305,49.59319,-33.93711,-142.3092,39.41582,83.20303,79.80096,41.24324,-25.14769,-87.7415,0,0,0,60.1452,138.4026,-81.6541,93.35265,132.1507,-54.76456,0.001067912,-0.1257102,0.09433498,0,0.3,0,0.2159206,0,0.2159206
6.38256E+17,33.14886,101.6484,84.42371,50.17915,-34.44983,-142.3824,39.55717,83.20303,81.13174,42.70815,-24.70822,-90.0121,0,0,0,57.85032,140.9959,-79.77301,93.95929,135.2052,-54.59973,0.001067912,-0.1257102,0.09433498,0,0.3,0,0.2219845,0,0.2219845
6.38256E+17,32.18291,101.6484,84.89066,50.47213,-34.96254,-142.4556,39.55717,83.2264,81.87886,43.36735,-24.56173,-91.40376,0,0,0,56.40273,142.0779,-78.72469,94.08846,136.9313,-54.44335,0.001067912,-0.1257102,0.09433498,0,0.3,0,0.2256261,0,0.2256261
6.38256E+17,30.27455,101.6484,85.77785,50.83836,-36.50069,-142.3824,39.55717,83.31992,83.51317,44.61252,-24.19551,-94.33356,0,0,0,53.47152,144.1359,-76.75108,94.25876,140.7295,-54.23717,0.001067912,-0.1257102,0.09433498,0,0.3,0,0.2335636,0,0.2335636
6.38256E+17,28.20127,101.6484,86.87518,51.05809,-38.47831,-142.3824,39.51006,83.71735,85.31091,45.85769,-23.90252,-96.89715,0,0,0,50.20001,146.6846,-74.73238,93.83936,144.9979,-54.55445,0.001067912,-0.1257102,0.09433498,0,0.3,0,0.2405403,0,0.2405403
6.38256E+17,26.19868,101.6484,87.64564,51.13134,-40.67567,-142.2359,39.32158,84.34856,87.01526,47.1761,-24.12226,-99.68047,0,0,0,46.93574,148.4756,-72.95842,92.70684,149.1083,-55.17136,0.001067912,-0.1257102,0.09433498,0,0.3,0,0.2455491,0,0.2455491
6.38256E+17,25.1856,101.6484,87.99585,51.13134,-41.84759,-142.3092,39.15665,84.67585,87.71568,47.8353,-24.342,-100.9256,0,0,0,45.25501,149.2901,-72.11543,91.9492,150.8096,-55.43484,0.001067912,-0.1257102,0.09433498,0,0.3,0,0.2480372,0,0.2480372
6.38256E+17,23.25368,101.6484,88.71961,50.83836,-44.11819,-142.3824,38.70901,85.3772,88.88304,48.64101,-25.07445,-102.3173,0,0,0,42.00409,150.9739,-70.60014,90.0977,153.6667,-55.92594,0.001067912,-0.1257102,0.09433498,0,0.3,0,0.2517726,0,0.2517726
6.38256E+17,21.27464,101.6484,89.37334,50.39889,-46.2423,-142.3824,38.12002,86.26557,89.95702,49.08047,-26.02663,-102.9765,0,0,0,38.61255,152.4952,-69.1843,87.67992,156.3168,-56.60807,0.001067912,-0.1257102,0.09433498,0,0.3,0,0.2539869,0,0.2539869
6.38256E+17,19.15425,101.6484,89.84028,49.73968,-48.43966,-142.3092,37.38966,87.45786,90.77417,49.30021,-27.12531,-103.3427,0,0,0,34.91948,153.5819,-67.81651,84.55861,158.3705,-57.71054,0.001067912,-0.1257102,0.09433498,0,0.3,0,0.2544162,0,0.2544162
6.38256E+17,18.21185,101.6484,90.0504,49.37346,-49.46509,-142.1627,37.08338,88.04231,91.00764,49.37346,-27.63803,-103.416,0,0,0,33.26141,154.071,-67.25533,83.14131,158.9672,-58.35117,0.001067912,-0.1257102,0.09433498,0,0.3,0,0.2545222,0,0.2545222
6.38256E+17,16.30349,101.6484,90.35392,48.27478,-51.29622,-142.0162,36.51794,89.32812,91.10103,49.4467,-28.66346,-103.5625,0,0,0,29.87571,154.7774,-66.20616,80.26905,159.2532,-59.94361,0.001067912,-0.1257102,0.09433498,0,0.3,0,0.2548892,0,0.2548892
6.38256E+17,14.27734,101.6484,90.61074,46.66338,-53.0541,-140.6978,35.74046,90.63729,91.12437,49.08047,-29.17617,-103.4892,0,0,0,26.24442,155.375,-65.21862,77.01031,159.3085,-61.33836,0.001067912,-0.1257102,0.09433498,0,0.3,0,0.2553284,0,0.2553284
6.38256E+17,12.84018,101.6484,90.82086,44.75901,-54.81199,-137.4017,34.60958,92.15688,91.12437,48.49451,-29.68889,-102.6103,0,0,0,23.64822,155.8641,-64.59879,72.8752,159.2222,-62.74918,0.001067912,-0.1257102,0.09433498,0,0.3,0,0.2468802,0,0.2468802
6.38256E+17,12.27474,101.6484,90.84422,43.88007,-55.3247,-134.9846,33.99702,92.83485,91.12437,48.12829,-29.98187,-101.4383,0,0,0,22.62302,155.9184,-64.37124,70.86062,159.1535,-63.28304,0.001067912,-0.1257102,0.09433498,0,0.3,0,0.241791,0,0.241791
6.38256E+17,10.93182,101.6484,91.00764,41.60947,-56.35013,-130.2237,32.79546,94.05051,91.12437,47.39584,-30.78757,-98.87477,0,0,0,20.17877,156.2987,-63.87564,67.11213,158.9836,-64.19426,0.001067912,-0.1257102,0.09433498,0,0.3,0,0.2350558,0,0.2350558
6.38256E+17,9.636024,101.6484,91.17107,38.89939,-57.44881,-124.8036,31.66459,95.03239,91.05434,46.66338,-31.37353,-96.67741,0,0,0,17.80982,156.679,-63.45316,63.84919,158.6397,-64.82628,0.001067912,-0.1257102,0.09433498,0,0.3,0,0.2305078,0,0.2305078
6.38256E+17,8.622946,101.6484,91.31116,36.11608,-58.25451,-119.6764,30.43947,96.13117,90.9843,46.07742,-31.73976,-94.91953,0,0,0,15.95133,157.005,-63.16165,60.33323,158.228,-65.67662,0.001067912,-0.1257102,0.09433498,0,0.3,0,0.2223496,0,0.2223496
6.38256E+17,8.081067,101.625,91.42789,34.72442,-58.62074,-117.9185,29.75623,96.69225,90.9843,45.78444,-32.03274,-94.04059,0,0,0,14.96239,157.2876,-62.96916,58.46056,158.0821,-66.09105,0.001067912,-0.1257102,0.09433498,0,0.3,0,0.2180865,0,0.2180865
6.38256E+17,6.808829,101.625,91.63802,31.9411,-59.27994,-113.6703,28.34263,97.86116,90.9843,45.05199,-32.98492,-91.98972,0,0,0,12.61739,157.7764,-62.67592,54.63898,157.7376,-67.05505,0.001067912,-0.1257102,0.09433498,0,0.3,0,0.2112458,0,0.2112458
6.38256E+17,5.442351,101.625,91.70806,27.91262,-60.01239,-105.9795,26.85836,99.00669,90.9843,44.31954,-33.86386,-90.30508,0,0,0,10.09331,157.9394,-62.40982,50.80537,157.3465,-68.02648,0.001067912,-0.1257102,0.09433498,0,0.3,0,0.2055098,0,0.2055098
6.38256E+17,4.829792,101.625,91.73141,25.42229,-60.30537,-101.7313,25.96308,99.61452,90.9843,44.02656,-34.37658,-89.42614,0,0,0,8.959991,157.9937,-62.3096,48.62045,157.1177,-68.50003,0.001067912,-0.1257102,0.09433498,0,0.3,0,0.2007512,0,0.2007512
6.38256E+17,3.769594,101.5315,91.89484,21.02757,-60.6716,-95.43224,24.1254,100.6899,90.9843,43.29411,-35.5485,-87.81474,0,0,0,7.009628,158.4175,-61.96122,44.38648,156.6765,-69.24068,0.001067912,-0.1257102,0.09433498,0,0.3,0,0.1905945,0,0.1905945
6.38256E+17,2.591596,101.4614,92.08162,16.8526,-61.03782,-90.30508,22.28772,101.5549,90.79752,42.41516,-36.94016,-86.05686,0,0,0,4.827504,158.8845,-61.69487,40.4388,155.8535,-69.6898,0.001067912,-0.1257102,0.09433498,0,0.3,0,0.1831168,0,0.1831168
6.38256E+17,1.342918,101.3913,92.19836,12.01842,-61.3308,-83.42004,20.54428,102.303,90.33057,41.46298,-37.89235,-83.34679,0,0,0,2.505661,159.1884,-61.46519,36.82438,154.4069,-70.09031,0.001067912,-0.1257102,0.09433498,0,0.3,0,0.1785378,0,0.1785378
6.38256E+17,0.6832389,101.2978,92.26839,9.161857,-61.40405,-79.4648,19.60189,102.6303,90.07375,40.87702,-38.25858,-81.80864,0,0,0,1.277365,159.3941,-61.2364,34.95448,153.6447,-70.19664,0.001067912,-0.1257102,0.09433498,0,0.3,0,0.176599,0,0.176599
6.38256E+17,-0.588999,100.9938,92.47852,2.716283,-61.4773,-71.48107,18.23541,102.6303,88.83634,39.5586,-38.6248,-77.99989,0,0,0,-1.10811,160.0194,-60.56075,32.59528,150.765,-69.417,0.001067912,-0.1257102,0.09433498,0,0.3,0,0.1802773,0,0.1802773
6.38256E+17,-1.766997,100.6432,92.6186,-3.216576,-61.55054,-64.88901,17.48149,102.6303,87.66898,38.02045,-37.52613,-74.33764,0,0,0,-3.348132,160.4983,-59.81953,31.26582,148.0494,-69.07569,0.001067912,-0.1257102,0.09433498,0,0.3,0,0.1896561,0,0.1896561
6.38256E+17,-3.039235,100.2691,92.78204,-8.270493,-61.4773,-59.17588,16.39773,102.6303,86.89852,36.99502,-36.06122,-72.06703,0,0,0,-5.80144,161.0363,-59.08361,29.35856,146.2583,-68.5836,0.001067912,-0.1257102,0.09433498,0,0.3,0,0.1965238,0,0.1965238
6.38256E+17,-3.746034,99.98857,92.87543,-11.12705,-61.4773,-56.24608,15.95009,102.6303,86.80514,36.70204,-35.40202,-71.11485,0,0,0,-7.190164,161.3682,-58.53282,28.57494,146.0412,-68.36876,0.001067912,-0.1257102,0.09433498,0,0.3,0,0.200674,0,0.200674
6.38256E+17,-4.924032,99.47426,93.10889,-16.5472,-61.4773,-50.6062,14.5365,102.5836,86.99191,37.50774,-34.66956,-70.08942,0,0,0,-9.545154,162.1131,-57.55666,26.13232,146.499,-67.5687,0.001067912,-0.1257102,0.09433498,0,0.3,0,0.2010549,0,0.2010549
6.38256E+17,-5.88999,98.95994,93.24898,-21.0884,-61.4773,-45.47904,12.15694,102.5836,87.78572,38.16694,-35.25552,-69.79643,0,0,0,-11.53099,162.6304,-56.57598,21.94316,148.3446,-66.48833,0.001067912,-0.1257102,0.09433498,0,0.3,0,0.1886038,0,0.1886038
6.38256E+17,-6.903069,98.46899,93.27232,-24.09145,-61.40405,-41.96327,9.965863,102.4199,88.8597,39.11913,-37.37963,-69.64995,0,0,0,-13.64079,162.8578,-55.67916,18.10973,150.9255,-65.28558,0.001067912,-0.1257102,0.09433498,0,0.3,0,0.1762638,0,0.1762638
6.38256E+17,-7.444948,98.23521,93.27232,-25.11688,-61.25756,-40.7181,8.717185,102.1861,89.46672,39.85158,-38.55156,-70.01617,0,0,0,-14.77551,162.9368,-55.27941,15.94317,152.4541,-64.36954,0.001067912,-0.1257102,0.09433498,0,0.3,0,0.1685345,0,0.1685345
6.38256E+17,-8.458026,97.74427,93.27232,-26.80152,-60.96458,-38.37426,6.384749,101.5315,90.4473,41.38973,-41.04189,-71.1881,0,0,0,-16.93879,163.0956,-54.43911,11.86421,155.0494,-62.32343,0.001067912,-0.1257102,0.09433498,0,0.3,0,0.1546381,0,0.1546381
6.38256E+17,-9.400424,97.20657,93.27232,-28.41291,-60.59835,-35.59094,4.052313,100.8068,91.31116,42.41516,-43.38574,-72.21353,0,0,0,-19.01268,163.2584,-53.50898,7.654127,157.3864,-60.30857,0.001067912,-0.1257102,0.09433498,0,0.3,0,0.1406978,0,0.1406978
6.38256E+17,-10.10722,96.73901,93.27232,-30.39053,-60.23213,-33.02736,1.649197,100.2224,92.40848,43.00113,-45.87607,-72.72624,0,0,0,-20.61743,163.3905,-52.68886,3.153325,160.1871,-58.82864,0.001067912,-0.1257102,0.09433498,0,0.3,0,0.123795,0,0.123795
6.38256E+17,-10.38994,96.5286,93.27232,-31.26948,-60.08564,-31.92868,0.3298394,100.012,93.0155,43.22086,-47.26773,-73.01923,0,0,0,-21.27562,163.4471,-52.31356,0.633139,161.6843,-58.36985,0.001067912,-0.1257102,0.09433498,0,0.3,0,0.1139934,0,0.1139934
6.38256E+17,-10.81402,96.17793,93.27232,-32.4414,-59.79266,-30.53703,-1.790557,99.61452,94.20621,44.24629,-50.05105,-74.55737,0,0,0,-22.28607,163.5374,-51.67747,-3.459526,164.6077,-57.68518,0.001067912,-0.1257102,0.09433498,0,0.3,0,0.0989541,0,0.0989541
6.38256E+17,-11.2381,95.89738,93.27232,-33.24709,-59.42643,-29.65808,-3.486874,99.1002,95.28019,46.5169,-52.54139,-78.14638,0,0,0,-23.27555,163.6061,-51.20877,-6.793172,167.2933,-56.86348,0.001067912,-0.1257102,0.09433498,0,0.3,0,0.08905611,0,0.08905611
6.38256E+17,-11.63862,95.49996,93.27232,-33.97955,-59.13345,-28.85239,-5.041832,98.91319,96.40086,50.61862,-54.81199,-85.54414,0,0,0,-24.27952,163.698,-50.47285,-9.830403,169.9561,-56.925,0.001067912,-0.1257102,0.09433498,0,0.3,0,0.08508395,0,0.08508395
6.38256E+17,-11.89778,95.28956,93.24898,-34.49226,-58.98696,-28.26642,-5.748631,98.91319,96.89115,53.62167,-55.76417,-91.33051,0,0,0,-24.9136,163.6897,-50.10381,-11.19093,171.0895,-57.18615,0.001067912,-0.1257102,0.09433498,0,0.3,0,0.08561946,0,0.08561946
6.38256E+17,-12.51034,94.72849,93.20229,-35.88392,-58.62074,-26.94801,-6.973749,98.74953,97.68497,60.43347,-57.22908,-103.1962,0,0,0,-26.45945,163.6953,-49.10098,-13.58237,172.9805,-57.30989,0.001067912,-0.1257102,0.09433498,0,0.3,0,0.08936191,0,0.08936191
6.38256E+17,-13.2407,93.86349,93.13225,-37.86154,-58.10802,-25.19013,-8.081067,98.39886,98.26865,65.92686,-58.03477,-109.4953,0,0,0,-28.43921,163.6833,-47.48503,-15.81265,174.4475,-56.98073,0.001067912,-0.1257102,0.09433498,0,0.3,0,0.09558597,0,0.09558597
6.38256E+17,-13.99462,92.6712,93.10889,-40.0589,-57.5953,-23.28575,-8.787866,98.30534,98.71223,69.58913,-58.47424,-111.5462,0,0,0,-30.69777,163.7872,-45.17869,-17.19487,175.5003,-57.1221,0.001067912,-0.1257102,0.09433498,0,0.3,0,0.1074906,0,0.1074906
6.38256E+17,-14.39514,91.9231,93.10889,-41.23082,-57.37556,-22.18707,-9.164824,98.28197,98.94572,70.90753,-58.47424,-111.9124,0,0,0,-31.99053,163.857,-43.71119,-17.92157,176.045,-57.26682,0.001067912,-0.1257102,0.09433498,0,0.3,0,0.1151347,0,0.1151347
6.38256E+17,-15.21973,90.26324,93.10889,-43.20844,-56.71636,-19.76999,-9.706704,98.00143,99.22588,72.51893,-58.47424,-112.2054,0,0,0,-34.79489,163.9307,-40.45765,-19.06295,176.7814,-56.90568,0.001067912,-0.1257102,0.09433498,0,0.3,0,0.1306878,0,0.1306878
6.38256E+17,-16.04433,88.53326,93.10889,-45.69878,-56.1304,-17.13316,-10.43706,97.44035,99.31927,72.59217,-57.96152,-112.2054,0,0,0,-37.74455,163.8884,-37.10247,-20.71003,177.1713,-55.91958,0.001067912,-0.1257102,0.09433498,0,0.3,0,0.1432389,0,0.1432389
6.38256E+17,-16.79825,86.9903,93.10889,-47.82288,-55.39795,-14.71607,-11.4737,96.83251,99.29593,70.54131,-57.81504,-110.6672,0,0,0,-40.50525,163.7482,-34.17536,-23.02168,177.2935,-54.92839,0.001067912,-0.1257102,0.09433498,0,0.3,0,0.1516443,0,0.1516443
6.38256E+17,-17.17521,86.21881,93.10889,-48.84832,-54.95848,-13.4709,-12.03914,96.45847,99.29593,69.66236,-57.81504,-109.7883,0,0,0,-41.9164,163.6418,-32.73231,-24.32023,177.3942,-54.31541,0.001067912,-0.1257102,0.09433498,0,0.3,0,0.1552888,0,0.1552888
6.38256E+17,-17.88201,84.81612,93.10889,-50.82594,-54.22602,-11.27355,-13.19358,95.64023,99.20254,68.4172,-58.25451,-108.9094,0,0,0,-44.58548,163.3867,-30.16236,-27.053,177.3804,-52.95078,0.001067912,-0.1257102,0.09433498,0,0.3,0,0.1598846,0,0.1598846
6.38256E+17,-18.65949,83.39005,93.10889,-52.58382,-53.42033,-9.588906,-14.27734,94.72849,98.99241,67.09879,-59.49968,-106.7852,0,0,0,-47.51272,163.0457,-27.65222,-29.77106,177.0892,-51.36014,0.001067912,-0.1257102,0.09433498,0,0.3,0,0.1638638,0,0.1638638
6.38256E+17,-19.01289,82.68871,93.10889,-53.31627,-52.98085,-8.856454,-14.46582,94.30767,98.75893,66.00011,-59.93914,-104.7344,0,0,0,-48.90749,162.8479,-26.41608,-30.42059,176.6295,-50.43214,0.001067912,-0.1257102,0.09433498,0,0.3,0,0.1664685,0,0.1664685
6.38256E+17,-19.67257,81.23926,93.10889,-54.48819,-52.10191,-7.538041,-15.10193,93.65308,98.10521,61.75189,-60.52511,-95.65198,0,0,0,-51.66284,162.3763,-23.84331,-32.18195,175.2302,-49.09443,0.001067912,-0.1257102,0.09433498,0,0.3,0,0.1719265,0,0.1719265
6.38256E+17,-20.40293,79.6963,93.10889,-55.66012,-51.22297,-6.366118,-15.87941,93.02187,97.28806,52.74273,-60.81809,-79.97752,0,0,0,-54.73524,161.7816,-21.19436,-34.26815,173.4311,-47.88648,0.001067912,-0.1257102,0.09433498,0,0.3,0,0.1779804,0,0.1779804
6.38256E+17,-21.1804,78.03645,93.10889,-56.83204,-50.27078,-5.120951,-16.96317,92.43742,96.4709,38.31343,-60.81809,-59.46887,0,0,0,-58.09644,161.0357,-18.41637,-37.00334,171.6077,-47.03869,0.001067912,-0.1257102,0.09433498,0,0.3,0,0.1854672,0,0.1854672
6.38256E+17,-21.76941,76.51686,93.08555,-57.85748,-49.17211,-3.949028,-18.16473,91.64256,95.91057,19.56267,-60.89133,-36.9826,0,0,0,-60.91515,160.2025,-15.81508,-40.15925,170.3771,-45.95106,0.001067912,-0.1257102,0.09433498,0,0.3,0,0.1899017,0,0.1899017
6.38256E+17,-22.02856,75.79214,93.0622,-58.37019,-48.73264,-3.289821,-18.75373,91.19837,95.6304,9.674574,-60.81809,-25.99582,0,0,0,-62.21981,159.7446,-14.57132,-41.7687,169.7539,-45.32967,0.001067912,-0.1257102,0.09433498,0,0.3,0,0.1913446,0,0.1913446
6.38256E+17,-22.64112,74.29593,92.89877,-59.24913,-47.85369,-2.117898,-19.83749,90.28662,94.92999,-7.09857,-60.52511,-8.270493,0,0,0,-65.16299,158.4661,-12.12211,-44.85899,168.1582,-44.00468,0.001067912,-0.1257102,0.09433498,0,0.3,0,0.1951081,0,0.1951081
6.38256E+17,-23.13588,72.93999,92.57191,-60.12807,-46.82826,-1.092466,-20.92125,89.30474,94.06613,-17.05991,-59.64616,2.057076,0,0,0,-67.71346,156.8162,-9.873118,-48.07515,166.1458,-42.59357,0.001067912,-0.1257102,0.09433498,0,0.3,0,0.1964263,0,0.1964263
6.38256E+17,-23.48928,71.77108,92.15166,-60.56754,-45.72958,-0.57975,-22.1228,88.53326,93.24898,-22.91953,-58.62074,8.649141,0,0,0,-69.73901,155.0143,-7.879159,-51.42339,164.2139,-41.85391,0.001067912,-0.1257102,0.09433498,0,0.3,0,0.1983922,0,0.1983922
6.38256E+17,-23.67776,71.21001,91.91819,-60.64079,-45.14362,-0.5065048,-22.7118,88.18259,92.87543,-25.33662,-58.03477,11.35921,0,0,0,-70.77155,154.0567,-6.957717,-53.05394,163.3224,-41.59381,0.001067912,-0.1257102,0.09433498,0,0.3,0,0.199964,0,0.199964
6.38256E+17,-24.05472,70.15799,91.28781,-60.78728,-44.04494,-0.3600145,-23.79556,87.45786,92.24505,-29.29186,-56.64312,15.68068,0,0,0,-72.7904,151.7803,-5.279404,-56.14841,161.7925,-41.01778,0.001067912,-0.1257102,0.09433498,0,0.3,0,0.2033736,0,0.2033736
6.38256E+17,-24.29032,69.1761,90.40061,-60.34781,-42.72653,-0.3600145,-25.09136,86.63962,91.84814,-33.32034,-55.39795,19.9289,0,0,0,-74.35431,148.9216,-3.599249,-59.83403,160.7713,-40.56786,0.001067912,-0.1257102,0.09433498,0,0.3,0,0.2072397,0,0.2072397
6.38256E+17,-24.40812,68.66178,89.86362,-59.83509,-41.99408,-0.4332596,-25.84528,86.1253,91.73141,-35.66418,-54.66549,22.1995,0,0,0,-75.15562,147.2413,-2.732759,-62.0347,160.4242,-40.28343,0.001067912,-0.1257102,0.09433498,0,0.3,0,0.2095234,0,0.2095234
6.38256E+17,-24.64372,67.72665,88.95309,-58.8829,-40.8954,-1.165711,-26.99972,85.1668,91.61468,-39.2532,-53.42033,25.86176,0,0,0,-76.66943,144.3138,-1.226467,-65.61575,159.9833,-39.57027,0.001067912,-0.1257102,0.09433498,0,0.3,0,0.2143575,0,0.2143575
6.38256E+17,-24.8322,66.76814,87.9725,-58.00396,-39.65023,-2.191144,-28.08347,84.06802,91.47459,-42.69572,-52.2484,29.37753,0,0,0,-78.05702,141.1697,0.3318558,-69.24242,159.4175,-38.5804,0.001067912,-0.1257102,0.09433498,0,0.3,0,0.2193653,0,0.2193653
6.38256E+17,-24.90288,66.23045,87.43552,-57.5645,-39.06427,-2.777105,-28.60179,83.57708,91.3812,-44.16063,-51.66244,30.69594,0,0,0,-78.72721,139.4219,1.230953,-70.95992,159.0773,-38.20998,0.001067912,-0.1257102,0.09433498,0,0.3,0,0.2237327,0,0.2237327
6.38256E+17,-24.99712,65.13168,86.38489,-56.6123,-37.89235,-3.875783,-29.59131,82.66533,91.10103,-46.57772,-50.49052,32.89329,0,0,0,-79.93507,135.9271,3.093832,-74.24408,158.1712,-37.61062,0.001067912,-0.1257102,0.09433498,0,0.3,0,0.2336686,0,0.2336686
6.38256E+17,-25.13848,64.00952,85.31091,-55.73336,-36.79367,-4.901215,-30.39235,81.75358,90.51735,-48.26236,-49.39184,34.43144,0,0,0,-81.2829,132.3127,4.867484,-77.13795,156.5253,-36.83132,0.001067912,-0.1257102,0.09433498,0,0.3,0,0.2419824,0,0.2419824
6.38256E+17,-25.27984,62.91074,84.23694,-55.00091,-35.76824,-6.073137,-31.02847,80.88859,89.63016,-48.84832,-48.43966,35.23714,0,0,0,-82.58976,128.6809,6.529229,-79.62054,154.1566,-35.98819,0.001067912,-0.1257102,0.09433498,0,0.3,0,0.248272,0,0.248272
6.38256E+17,-25.32696,62.4198,83.74664,-54.70793,-35.25552,-6.512609,-31.26407,80.51453,89.04648,-48.55533,-47.85369,35.31038,0,0,0,-83.11667,127.0214,7.270753,-80.68384,152.5943,-35.58383,0.001067912,-0.1257102,0.09433498,0,0.3,0,0.2498203,0,0.2498203
6.38256E+17,-25.37408,61.39116,82.76605,-54.12197,-34.44983,-7.391551,-31.66459,79.71967,87.64564,-47.38342,-46.68177,35.23714,0,0,0,-84.05125,123.6276,8.868402,-82.4352,149.0813,-34.69134,0.001067912,-0.1257102,0.09433498,0,0.3,0,0.2523861,0,0.2523861
6.38256E+17,-25.39764,60.33914,81.71543,-53.46276,-33.49764,-8.124002,-32.15935,78.76117,86.15141,-45.62553,-45.50985,34.57793,0,0,0,-84.89978,120.0128,10.46756,-84.65265,145.1923,-33.71211,0.001067912,-0.1257102,0.09433498,0,0.3,0,0.2542594,0,0.2542594
6.38256E+17,-25.4212,59.3105,80.7115,-52.95005,-32.25247,-8.929699,-32.65411,77.84942,84.58715,-44.01414,-44.19143,33.47925,0,0,0,-85.70852,116.5003,11.9795,-86.7747,141.1335,-32.94607,0.001067912,-0.1257102,0.09433498,0,0.3,0,0.2562342,0,0.2562342
6.38256E+17,-25.4212,58.79618,80.17451,-52.73031,-31.73976,-9.515661,-32.91327,77.38185,83.79333,-43.13519,-43.45898,32.7468,0,0,0,-86.06014,114.6523,12.71932,-87.86218,139.0621,-32.60467,0.001067912,-0.1257102,0.09433498,0,0.3,0,0.2575534,0,0.2575534
6.38256E+17,-25.51544,57.65065,79.07719,-52.21759,-30.49459,-10.68758,-33.40803,76.42335,82.11234,-41.5238,-41.92084,31.20865,0,0,0,-87.13603,110.7362,14.20788,-89.96313,134.674,-31.95533,0.001067912,-0.1257102,0.09433498,0,0.3,0,0.2603867,0,0.2603867
6.38256E+17,-25.68036,56.55187,78.04991,-51.70488,-29.17617,-11.78626,-33.73786,75.55836,80.52472,-40.0589,-40.60242,29.96349,0,0,0,-88.38617,107.0039,15.46414,-91.52192,130.5341,-31.31495,0.001067912,-0.1257102,0.09433498,0,0.3,0,0.2622873,0,0.2622873
6.38256E+17,-25.84528,55.54661,77.06932,-51.19216,-27.85776,-12.81169,-33.97346,74.71674,79.03049,-38.74048,-39.28401,28.79156,0,0,0,-89.54662,103.4686,16.51314,-92.79771,126.6093,-30.6342,0.001067912,-0.1257102,0.09433498,0,0.3,0,0.2631032,0,0.2631032
6.38256E+17,-25.93952,55.00891,76.57903,-50.97242,-27.19856,-13.39765,-34.04414,74.29593,78.23669,-38.08128,-38.55156,28.13236,0,0,0,-90.18671,101.6448,17.05666,-93.29205,124.5364,-30.26845,0.001067912,-0.1257102,0.09433498,0,0.3,0,0.2633124,0,0.2633124
6.38256E+17,-26.05732,54.07378,75.66849,-50.45971,-25.8069,-14.56958,-34.25618,73.47769,76.83585,-36.83611,-37.23314,26.88719,0,0,0,-91.12318,98.32488,18.00683,-94.43619,120.8245,-29.68406,0.001067912,-0.1257102,0.09433498,0,0.3,0,0.2641793,0,0.2641793
6.38256E+17,-26.128,53.23217,74.85133,-49.94699,-24.70822,-15.66825,-34.82162,72.63608,75.83192,-36.1769,-36.06122,26.15474,0,0,0,-91.83468,95.32474,18.87628,-96.55475,117.9833,-29.53773,0.001067912,-0.1257102,0.09433498,0,0.3,0,0.2683098,0,0.2683098
6.38256E+17,-26.17512,52.83474,74.47778,-49.72726,-24.19551,-16.18097,-35.10434,72.12176,75.34162,-36.25014,-35.47526,25.86176,0,0,0,-92.2132,93.93005,19.25759,-97.73125,116.5158,-29.31489,0.001067912,-0.1257102,0.09433498,0,0.3,0,0.2692512,0,0.2692512
6.38256E+17,-26.22224,52.13339,73.77736,-49.43428,-23.24332,-17.05991,-35.76402,71.13987,74.45443,-36.46988,-34.44983,25.64202,0,0,0,-92.74253,91.36803,19.94321,-100.2786,113.8021,-29.12604,0.001067912,-0.1257102,0.09433498,0,0.3,0,0.2723908,0,0.2723908
6.38256E+17,-26.26936,51.45543,73.10029,-49.1413,-22.29113,-17.93885,-36.51794,70.15799,73.91744,-36.68962,-33.35115,25.42229,0,0,0,-93.24732,88.88169,20.57594,-103.1822,111.8424,-28.99847,0.001067912,-0.1257102,0.09433498,0,0.3,0,0.2776472,0,0.2776472
6.38256E+17,-26.26936,50.82421,72.49326,-48.9948,-21.48543,-18.67131,-37.08338,69.15273,73.54388,-37.6418,-32.6187,25.27579,0,0,0,-93.56869,86.61037,21.22704,-105.7283,110.1944,-28.46782,0.001067912,-0.1257102,0.09433498,0,0.3,0,0.2816754,0,0.2816754
6.38256E+17,-26.26936,50.49692,72.18974,-48.84832,-21.04596,-19.03753,-37.38966,68.66178,73.40381,-38.15452,-32.25247,25.27579,0,0,0,-93.7346,85.45438,21.56318,-107.0656,109.4706,-28.26167,0.001067912,-0.1257102,0.09433498,0,0.3,0,0.2844737,0,0.2844737
6.38256E+17,-26.29292,49.86571,71.53602,-48.77507,-20.09377,-19.76999,-38.0729,67.6799,73.26372,-39.39969,-31.66651,25.71527,0,0,0,-94.1027,83.06778,22.11162,-109.9789,108.3086,-27.95195,0.001067912,-0.1257102,0.09433498,0,0.3,0,0.2913552,0,0.2913552
6.38256E+17,-26.29292,49.28125,70.83561,-48.62858,-19.06834,-20.50244,-38.75614,66.55774,73.10029,-40.86459,-31.0073,26.66745,0,0,0,-94.3285,80.64265,22.56864,-113.0827,106.929,-27.48284,0.001067912,-0.1257102,0.09433498,0,0.3,0,0.2978188,0,0.2978188
6.38256E+17,-26.29292,48.62666,70.08849,-48.55533,-18.33589,-21.30813,-39.4865,65.34208,72.70339,-42.18301,-30.3481,27.76613,0,0,0,-94.57986,78.00354,23.0774,-116.3393,104.893,-27.15132,0.001067912,-0.1257102,0.09433498,0,0.3,0,0.3049362,0,0.3049362
6.38256E+17,-26.29292,48.29937,69.73828,-48.48209,-17.96966,-21.67436,-39.81633,64.781,72.49326,-42.69572,-29.98187,28.2056,0,0,0,-94.70844,76.73293,23.33763,-117.8148,103.8758,-27.02624,0.001067912,-0.1257102,0.09433498,0,0.3,0,0.3085108,0,0.3085108
6.38256E+17,-26.29292,47.59802,68.99117,-48.48209,-17.31046,-22.40681,-40.24041,63.65885,71.81618,-43.57467,-29.24942,28.93805,0,0,0,-94.97389,74.01236,23.8749,-120.0648,101.2399,-26.47558,0.001067912,-0.1257102,0.09433498,0,0.3,0,0.3124926,0,0.3124926
6.38256E+17,-26.26936,46.80317,68.19736,-48.48209,-16.57801,-23.13926,-40.52313,62.53669,70.71887,-43.7944,-28.44372,29.30428,0,0,0,-95.19717,71.03541,24.52647,-121.7438,97.63966,-25.92281,0.001067912,-0.1257102,0.09433498,0,0.3,0,0.3145489,0,0.3145489
6.38256E+17,-26.2458,46.40574,67.80046,-48.48209,-16.28502,-23.57873,-40.61737,61.95224,70.11184,-43.7944,-27.85776,29.37753,0,0,0,-95.26204,69.54344,24.85804,-122.4532,95.67513,-25.56898,0.001067912,-0.1257102,0.09433498,0,0.3,0,0.3148457,0,0.3148457
6.38256E+17,-26.19868,45.63425,67.00665,-48.40885,-15.47933,-24.31118,-40.75874,60.64306,68.96782,-43.35493,-26.68584,29.52402,0,0,0,-95.36013,66.59095,25.45867,-123.9423,91.71725,-24.55216,0.001067912,-0.1257102,0.09433498,0,0.3,0,0.3142195,0,0.3142195
6.38256E+17,-26.10444,44.93291,66.21284,-48.18911,-14.74688,-24.89715,-40.82941,59.26375,67.47359,-42.62248,-25.58716,29.45077,0,0,0,-95.22887,63.7468,25.99822,-125.0928,86.8806,-23.5789,0.001067912,-0.1257102,0.09433498,0,0.3,0,0.3116456,0,0.3116456
6.38256E+17,-25.96308,44.37183,65.44238,-47.96938,-14.16092,-25.48311,-40.82941,57.97795,65.72256,-41.59705,-24.48849,29.45077,0,0,0,-94.82941,61.18192,26.39754,-125.7049,81.58241,-22.87049,0.001067912,-0.1257102,0.09433498,0,0.3,0,0.3080916,0,0.3080916
6.38256E+17,-25.8924,44.06791,65.06883,-47.82288,-13.86794,-25.77609,-40.82941,57.25322,64.74197,-41.01108,-24.04902,29.37753,0,0,0,-94.64561,59.88541,26.63078,-126.0111,78.60676,-22.51616,0.001067912,-0.1257102,0.09433498,0,0.3,0,0.3061742,0,0.3061742
6.38256E+17,-25.72748,43.41333,64.34506,-47.45666,-13.42846,-26.36205,-40.64093,55.94404,62.71075,-39.76591,-22.80385,28.79156,0,0,0,-94.22881,57.26173,27.20296,-125.8245,72.69061,-21.7601,0.001067912,-0.1257102,0.09433498,0,0.3,0,0.3014017,0,0.3014017
6.38256E+17,-25.49188,42.73536,63.55126,-47.09043,-12.98899,-26.72828,-40.24041,54.82188,60.51611,-38.15452,-21.19245,27.69288,0,0,0,-93.53849,54.44936,27.82909,-124.6166,66.71358,-21.09701,0.001067912,-0.1257102,0.09433498,0,0.3,0,0.2962272,0,0.2962272
6.38256E+17,-25.20916,42.10415,62.57067,-46.57772,-12.69601,-27.16775,-39.60429,53.86338,58.22808,-36.25014,-19.50781,26.15474,0,0,0,-92.55104,51.33031,28.24939,-122.4002,60.83121,-20.41616,0.001067912,-0.1257102,0.09433498,0,0.3,0,0.2893776,0,0.2893776
6.38256E+17,-25.04424,41.87036,62.01034,-46.28474,-12.47628,-27.38748,-39.20378,53.41919,57.08406,-35.15147,-18.70212,25.20255,0,0,0,-91.88215,49.77133,28.29535,-120.989,57.96889,-20.02284,0.001067912,-0.1257102,0.09433498,0,0.3,0,0.2850024,0,0.2850024
6.38256E+17,-24.66728,41.6132,60.72623,-45.62553,-12.03681,-28.04669,-38.30849,52.69447,54.65595,-33.17385,-17.31046,22.8587,0,0,0,-90.15504,46.70164,27.95635,-117.5269,52.27762,-19.58053,0.001067912,-0.1257102,0.09433498,0,0.3,0,0.2756839,0,0.2756839
6.38256E+17,-24.29032,41.49631,59.53553,-45.03957,-11.45084,-28.92563,-37.20118,52.06326,52.18114,-30.9765,-15.84556,20.44161,0,0,0,-88.36807,44.09497,27.45179,-113.2582,46.75597,-19.14423,0.001067912,-0.1257102,0.09433498,0,0.3,0,0.2644706,0,0.2644706
6.38256E+17,-23.86624,41.42618,58.34481,-44.52685,-10.79164,-29.80457,-35.64622,51.85285,49.84641,-28.63265,-14.4539,17.51181,0,0,0,-86.38167,41.59875,26.89182,-107.4003,42.2308,-18.5903,0.001067912,-0.1257102,0.09433498,0,0.3,0,0.2505396,0,0.2505396
6.38256E+17,-23.63064,41.4028,57.78448,-44.30712,-10.49866,-30.31729,-34.7745,51.78272,48.95922,-27.38748,-13.79469,16.12015,0,0,0,-85.31602,40.45121,26.64636,-104.4162,40.56205,-17.97197,0.001067912,-0.1257102,0.09433498,0,0.3,0,0.2426739,0,0.2426739
6.38256E+17,-23.13588,41.35604,56.85059,-43.57467,-9.985942,-31.26948,-33.3609,51.71259,47.72181,-25.04364,-12.76926,13.1171,0,0,0,-83.19616,38.54017,26.36268,-99.69254,38.30941,-16.93362,0.001067912,-0.1257102,0.09433498,0,0.3,0,0.2316653,0,0.2316653
6.38256E+17,-22.73536,41.19239,56.08013,-42.9887,-9.619716,-32.14842,-32.37139,51.66583,46.81127,-23.06602,-12.03681,10.70001,0,0,0,-81.54728,36.75923,26.25758,-96.33856,36.68538,-16.37701,0.001067912,-0.1257102,0.09433498,0,0.3,0,0.2256377,0,0.2256377
6.38256E+17,-22.38196,40.79496,55.30967,-42.54923,-9.326735,-32.88087,-31.97087,51.43205,46.08751,-21.52787,-11.67058,8.722386,0,0,0,-80.19161,34.57985,26.38342,-94.88497,35.12618,-16.33036,0.001067912,-0.1257102,0.09433498,0,0.3,0,0.2258683,0,0.2258683
6.38256E+17,-22.21704,40.5378,54.93612,-42.40274,-9.180244,-33.32034,-31.92375,51.22165,45.73729,-20.94191,-11.52409,7.989935,0,0,0,-79.59026,33.41262,26.51427,-94.66221,34.23473,-16.40921,0.001067912,-0.1257102,0.09433498,0,0.3,0,0.2275008,0,0.2275008
6.38256E+17,-21.86364,40.02348,54.00222,-42.10976,-8.887264,-33.9063,-31.94731,50.59044,45.06022,-20.13621,-11.23111,7.037747,0,0,0,-78.20466,30.73062,26.54745,-94.7425,32.18636,-16.41957,0.001067912,-0.1257102,0.09433498,0,0.3,0,0.2303141,0,0.2303141
6.38256E+17,-21.48668,39.50917,52.64809,-41.74353,-8.521038,-34.56551,-32.13579,49.6553,44.26641,-19.55025,-10.86488,6.525032,0,0,0,-76.5117,27.28285,26.01871,-95.43124,29.49231,-16.43044,0.001067912,-0.1257102,0.09433498,0,0.3,0,0.232635,0,0.232635
6.38256E+17,-20.99193,39.01822,50.87369,-40.93784,-7.861832,-35.59094,-32.32427,48.43964,43.30918,-19.33051,-9.912696,6.232051,0,0,0,-74.17387,23.1547,24.96097,-96.21308,26.09625,-16.29857,0.001067912,-0.1257102,0.09433498,0,0.3,0,0.2343464,0,0.2343464
6.38256E+17,-20.80345,38.87795,50.07989,-40.64486,-7.568851,-36.03041,-32.41851,47.83181,42.91228,-19.25727,-9.25349,6.08556,0,0,0,-73.19287,21.47571,24.2967,-96.66632,24.52085,-16.13695,0.001067912,-0.1257102,0.09433498,0,0.3,0,0.2342624,0,0.2342624
6.38256E+17,-20.28513,38.62079,48.16541,-39.83916,-6.689909,-37.27558,-32.60699,46.3356,41.88499,-19.25727,-8.154812,5.79258,0,0,0,-70.56611,17.64005,22.56727,-97.5893,20.53763,-15.79484,0.001067912,-0.1257102,0.09433498,0,0.3,0,0.2350692,0,0.2350692
6.38256E+17,-19.71969,38.52728,46.39102,-39.03346,-5.737722,-38.4475,-32.65411,44.79264,40.69429,-19.25727,-6.763155,5.426354,0,0,0,-67.77905,14.4361,20.74477,-97.97472,16.19492,-15.46947,0.001067912,-0.1257102,0.09433498,0,0.3,0,0.2359207,0,0.2359207
6.38256E+17,-19.06001,38.52728,44.82675,-38.22777,-4.785534,-39.69267,-32.65411,43.17954,39.43353,-19.18402,-5.298251,4.840393,0,0,0,-64.76578,11.83463,19.10546,-98.16982,11.60517,-15.16503,0.001067912,-0.1257102,0.09433498,0,0.3,0,0.2392879,0,0.2392879
6.38256E+17,-18.75373,38.52728,44.10299,-37.86154,-4.272818,-40.20539,-32.65411,42.29117,38.75646,-19.18402,-4.639044,4.474167,0,0,0,-63.3763,10.6547,18.31064,-98.267,9.092834,-15.01339,0.001067912,-0.1257102,0.09433498,0,0.3,0,0.2413654,0,0.2413654
6.38256E+17,-18.11761,38.52728,42.58541,-37.20233,-3.320631,-41.30406,-32.60699,40.46767,37.42567,-19.03753,-3.320631,3.81496,0,0,0,-60.50132,8.23048,16.56155,-98.33903,3.99777,-14.62285,0.001067912,-0.1257102,0.09433498,0,0.3,0,0.2460729,0,0.2460729
6.38256E+17,-17.50505,38.52728,40.9978,-36.61637,-2.368444,-42.40274,-32.60699,38.57404,36.14157,-19.03753,-1.782483,3.228999,0,0,0,-57.69236,5.76812,14.57056,-98.56046,-1.191314,-14.27669,0.001067912,-0.1257102,0.09433498,0,0.3,0,0.2525272,0,0.2525272
6.38256E+17,-17.03385,38.52728,39.05998,-35.88392,-1.489502,-43.57467,-32.65411,36.63364,34.92751,-18.89104,-0.3908245,2.789528,0,0,0,-55.1745,2.867491,11.73702,-98.9333,-6.411171,-13.97368,0.001067912,-0.1257102,0.09433498,0,0.3,0,0.2579713,0,0.2579713
6.38256E+17,-16.86893,38.52728,38.07939,-35.51769,-0.7570504,-44.38036,-32.74835,35.62838,34.34383,-18.96429,0.3416272,2.496547,0,0,0,-54.13812,1.444628,10.18754,-99.32871,-9.072895,-13.91642,0.001067912,-0.1257102,0.09433498,0,0.3,0,0.2614292,0,0.2614292
6.38256E+17,-16.56265,38.57404,36.79529,-34.78524,0.8543434,-46.065,-32.98395,33.61786,33.38659,-18.89104,2.099511,2.057076,0,0,0,-52.48719,-0.2869856,8.134883,-100.4031,-14.16477,-13.64787,0.001067912,-0.1257102,0.09433498,0,0.3,0,0.272168,0,0.272168
6.38256E+17,-16.18569,38.87795,36.16492,-34.41902,2.538982,-47.09043,-33.3609,31.77098,32.73286,-18.89104,3.344679,1.69085,0,0,0,-50.87275,-0.6074331,6.918511,-101.9943,-18.61198,-13.43765,0.001067912,-0.1257102,0.09433498,0,0.3,0,0.28948,0,0.28948
6.38256E+17,-15.83229,39.11173,35.76801,-34.27253,3.198189,-47.45666,-33.54939,30.8826,32.4527,-18.96429,3.857395,1.617605,0,0,0,-49.49336,-0.7270838,6.180284,-102.7938,-20.72937,-13.33597,0.001067912,-0.1257102,0.09433498,0,0.3,0,0.3009116,0,0.3009116
6.38256E+17,-14.84277,39.5793,34.71738,-33.61332,4.370111,-48.11587,-33.78498,29.64356,32.14919,-19.18402,4.736337,1.471115,0,0,0,-45.78362,-1.296512,4.411697,-103.9065,-23.59755,-13.04834,0.001067912,-0.1257102,0.09433498,0,0.3,0,0.3232822,0,0.3232822
6.38256E+17,-13.4763,40.00011,33.43328,-32.29491,5.542034,-49.50752,-33.5965,29.176,31.98576,-19.40376,5.322299,1.324624,0,0,0,-40.92776,-2.218384,2.4376,-103.5124,-24.74747,-12.53076,0.001067912,-0.1257102,0.09433498,0,0.3,0,0.3408974,0,0.3408974
6.38256E+17,-12.69882,40.14038,32.70952,-31.56245,6.201241,-50.38646,-33.26667,29.15262,31.89237,-19.40376,5.468789,1.104889,0,0,0,-38.25005,-2.887749,1.39517,-102.527,-24.90996,-12.0695,0.001067912,-0.1257102,0.09433498,0,0.3,0,0.3463308,0,0.3463308
6.38256E+17,-11.0025,40.3274,31.05186,-29.95106,7.959125,-52.36408,-32.18291,29.15262,31.58885,-19.18402,5.615279,0.5189275,0,0,0,-32.52962,-4.593,-1.038635,-99.23279,-25.28158,-10.6667,0.001067912,-0.1257102,0.09433498,0,0.3,0,0.3524922,0,0.3524922
6.38256E+17,-9.259066,40.56118,29.60433,-27.82695,10.00999,-54.56144,-30.58083,29.3864,31.05186,-18.45157,5.688524,-0.3600145,0,0,0,-26.89961,-5.880041,-3.344732,-94.10699,-25.4566,-9.10218,0.001067912,-0.1257102,0.09433498,0,0.3,0,0.3511845,0,0.3511845
6.38256E+17,-7.845467,40.8651,28.27354,-25.70284,11.98761,-56.97853,-28.97875,30.20464,30.58492,-17.35289,5.981505,-1.238957,0,0,0,-22.38788,-6.842565,-5.873521,-88.70734,-24.36077,-8.17766,0.001067912,-0.1257102,0.09433498,0,0.3,0,0.3431643,0,0.3431643
6.38256E+17,-7.232908,41.00537,27.59647,-24.89715,12.86655,-58.22369,-28.20127,30.74234,30.44483,-16.69369,5.981505,-1.751673,0,0,0,-20.44735,-7.334155,-7.236767,-86.09312,-23.44775,-7.795569,0.001067912,-0.1257102,0.09433498,0,0.3,0,0.337984,0,0.337984
6.38256E+17,-6.14915,41.16902,26.28902,-23.50549,14.84417,-60.56754,-26.50496,31.86449,30.11797,-15.08229,5.76177,-2.923595,0,0,0,-17.07902,-8.425817,-9.824718,-80.40392,-21.59988,-7.119613,0.001067912,-0.1257102,0.09433498,0,0.3,0,0.3236865,0,0.3236865
6.38256E+17,-5.065392,41.19239,24.88819,-22.48005,16.52881,-62.91139,-24.8322,32.91651,29.90785,-13.39765,5.542034,-4.095518,0,0,0,-13.81483,-9.792975,-12.4947,-74.93452,-19.777,-6.415894,0.001067912,-0.1257102,0.09433498,0,0.3,0,0.311137,0,0.311137
6.38256E+17,-3.840273,41.19239,23.44065,-21.16164,18.1402,-65.62146,-23.20656,33.73475,29.62768,-11.63977,5.395544,-5.413931,0,0,0,-10.27351,-11.17205,-15.30174,-69.67516,-18.50954,-5.837068,0.001067912,-0.1257102,0.09433498,0,0.3,0,0.3029841,0,0.3029841
6.38256E+17,-3.321954,41.19239,22.78693,-20.42919,18.87265,-66.79338,-22.42908,34.08542,29.4876,-10.76083,5.395544,-5.999893,0,0,0,-8.807492,-11.76932,-16.61205,-67.18166,-17.99304,-5.589625,0.001067912,-0.1257102,0.09433498,0,0.3,0,0.2986541,0,0.2986541
6.38256E+17,-2.403116,41.16902,21.64292,-19.11078,20.19107,-68.62451,-20.99193,34.59974,29.13739,-9.076189,5.322299,-7.09857,0,0,0,-6.271229,-12.81692,-18.91726,-62.58189,-17.40372,-5.249889,0.001067912,-0.1257102,0.09433498,0,0.3,0,0.2906341,0,0.2906341
6.38256E+17,-1.554958,41.12226,20.59229,-18.08535,21.50948,-70.38239,-19.55477,34.83352,28.71714,-7.318305,5.395544,-8.197248,0,0,0,-3.998592,-13.77983,-21.04936,-58.08133,-17.42957,-4.830294,0.001067912,-0.1257102,0.09433498,0,0.3,0,0.2829011,0,0.2829011
6.38256E+17,-0.612559,40.95861,19.56501,-17.05991,22.75465,-72.06703,-18.09405,34.8569,28.1568,-5.706912,5.468789,-9.36917,0,0,0,-1.554033,-14.88791,-22.99888,-53.52827,-18.00593,-4.52245,0.001067912,-0.1257102,0.09433498,0,0.3,0,0.2762436,0,0.2762436
6.38256E+17,-0.1884797,40.8651,19.14476,-16.5472,23.26737,-72.653,-17.45793,34.8569,27.87663,-4.97446,5.542034,-9.881886,0,0,0,-0.4756054,-15.37654,-23.77163,-51.53344,-18.31222,-4.487398,0.001067912,-0.1257102,0.09433498,0,0.3,0,0.2732856,0,0.2732856
6.38256E+17,0.612559,40.72483,18.28091,-15.59501,24.2928,-74.04465,-16.20925,34.76339,27.26961,-3.656047,5.76177,-11.2003,0,0,0,1.527613,-16.26871,-25.46994,-47.63543,-19.14487,-4.486545,0.001067912,-0.1257102,0.09433498,0,0.3,0,0.2676556,0,0.2676556
6.38256E+17,1.295798,40.58456,17.55714,-14.78931,25.17174,-75.28983,-14.96058,34.43609,26.70927,-2.337634,5.981505,-12.37222,0,0,0,3.199841,-17.03464,-26.88804,-43.86491,-20.36373,-4.192202,0.001067912,-0.1257102,0.09433498,0,0.3,0,0.2617859,0,0.2617859
6.38256E+17,2.002597,40.58456,16.97346,-14.13011,25.97744,-76.3885,-13.5941,34.06204,26.10224,-1.019221,6.567466,-13.39765,0,0,0,4.899291,-17.43783,-28.23472,-39.75546,-21.71164,-3.946548,0.001067912,-0.1257102,0.09433498,0,0.3,0,0.2550601,0,0.2550601
6.38256E+17,2.473796,40.58456,16.73999,-13.91037,26.34366,-76.90121,-12.8873,33.8984,25.82208,-0.3600145,6.860447,-13.91037,0,0,0,6.028972,-17.5954,-28.7993,-37.64113,-22.31293,-3.832626,0.001067912,-0.1257102,0.09433498,0,0.3,0,0.2526197,0,0.2526197
6.38256E+17,3.604674,40.58456,16.29639,-13.10467,27.00287,-77.78016,-11.49726,33.68799,25.26174,1.178134,7.373164,-15.30203,0,0,0,8.719775,-17.88894,-29.93333,-33.45889,-23.28218,-3.85408,0.001067912,-0.1257102,0.09433498,0,0.3,0,0.249412,0,0.249412
6.38256E+17,5.018272,40.58456,15.75941,-12.07924,27.88181,-78.51261,-10.10722,33.68799,24.84149,2.569792,7.959125,-16.69369,0,0,0,12.02671,-18.23401,-31.38716,-29.30314,-23.69634,-3.963156,0.001067912,-0.1257102,0.09433498,0,0.3,0,0.249503,0,0.249503
6.38256E+17,6.47899,40.58456,15.22242,-10.68758,28.98049,-79.09857,-8.764306,33.96853,24.56132,4.034696,8.545086,-17.71912,0,0,0,15.3783,-18.5678,-32.93493,-25.29684,-23.42644,-4.266273,0.001067912,-0.1257102,0.09433498,0,0.3,0,0.2499983,0,0.2499983
6.38256E+17,7.067988,40.58456,14.9656,-9.881886,29.34671,-79.4648,-8.175306,34.3192,24.46794,4.547412,8.764822,-18.0121,0,0,0,16.69851,-18.72345,-33.67289,-23.5155,-22.84115,-4.664076,0.001067912,-0.1257102,0.09433498,0,0.3,0,0.2487787,0,0.2487787
6.38256E+17,8.245987,40.56118,14.24183,-8.490229,30.15241,-80.56348,-6.997309,35.23095,24.14107,5.79258,9.204292,-18.74455,0,0,0,19.23503,-19.18949,-35.62283,-19.91349,-21.41127,-6.104647,0.001067912,-0.1257102,0.09433498,0,0.3,0,0.245401,0,0.245401
6.38256E+17,9.353305,40.5378,13.65815,-7.538041,30.66513,-82.76083,-5.96067,35.95568,23.83756,6.891257,9.424027,-19.76999,0,0,0,21.58789,-19.55832,-37.28529,-16.80596,-20.32689,-7.389227,0.001067912,-0.1257102,0.09433498,0,0.3,0,0.2433338,0,0.2433338
6.38256E+17,10.5313,40.44429,13.28459,-6.659099,31.25109,-84.29898,-4.782672,36.1427,23.53404,7.91669,9.497273,-20.50244,0,0,0,24.14912,-19.92638,-38.44912,-13.418,-20.25873,-7.977643,0.001067912,-0.1257102,0.09433498,0,0.3,0,0.2418631,0,0.2418631
6.38256E+17,11.21454,40.37416,13.12116,-6.073137,31.61732,-84.95818,-4.005194,36.16608,23.39396,8.50265,9.497273,-20.94191,0,0,0,25.64496,-20.13755,-39.00577,-11.21752,-20.34461,-8.140699,0.001067912,-0.1257102,0.09433498,0,0.3,0,0.2403923,0,0.2403923
6.38256E+17,12.4161,40.30402,12.91104,-4.97446,32.13003,-85.98362,-2.591596,36.1427,23.27722,9.601329,9.643764,-21.67436,0,0,0,28.27189,-20.37211,-39.93412,-7.252004,-20.49617,-8.129872,0.001067912,-0.1257102,0.09433498,0,0.3,0,0.2384047,0,0.2384047
6.38256E+17,13.7119,40.25727,12.81765,-3.656047,32.86248,-86.93581,-1.154438,36.07257,23.23053,10.91974,9.717009,-22.48005,0,0,0,31.13511,-20.50352,-40.74381,-3.231247,-20.67095,-8.002043,0.001067912,-0.1257102,0.09433498,0,0.3,0,0.237334,0,0.237334
6.38256E+17,14.44226,40.25727,12.81765,-2.99684,33.3752,-87.44852,-0.4711992,36.07257,23.23053,11.5057,9.717009,-22.91953,0,0,0,32.75915,-20.50352,-41.15105,-1.318951,-20.67095,-7.974913,0.001067912,-0.1257102,0.09433498,0,0.3,0,0.2378025,0,0.2378025
6.38256E+17,15.97365,40.25727,12.81765,-1.531937,34.25414,-88.62045,0.8481586,36.02581,23.23053,12.89736,9.790254,-23.57873,0,0,0,36.14681,-20.50352,-42.07196,2.375,-20.75893,-7.923029,0.001067912,-0.1257102,0.09433498,0,0.3,0,0.2401432,0,0.2401432
6.38256E+17,17.43437,40.25727,12.81765,-0.2867693,34.98659,-89.79237,2.191077,35.81541,23.25388,14.21577,9.936745,-24.23794,0,0,0,39.35409,-20.50352,-43.03444,6.147037,-21.13406,-7.685787,0.001067912,-0.1257102,0.09433498,0,0.3,0,0.2425197,0,0.2425197
6.38256E+17,18.18829,40.25727,12.81765,0.299192,35.42606,-90.59806,2.874315,35.65176,23.30057,14.87498,10.08323,-24.60417,0,0,0,40.99958,-20.50352,-43.5631,8.078598,-21.40028,-7.448649,0.001067912,-0.1257102,0.09433498,0,0.3,0,0.2443793,0,0.2443793
6.38256E+17,19.79037,40.30402,12.81765,1.471115,36.15851,-91.98972,4.099433,35.41798,23.464,16.12015,10.30297,-25.40986,0,0,0,44.44851,-20.4205,-44.82434,11.5645,-21.6921,-6.994495,0.001067912,-0.1257102,0.09433498,0,0.3,0,0.2507026,0,0.2507026
6.38256E+17,21.22752,40.39754,12.841,2.716283,36.81772,-93.01515,4.735552,35.53487,23.48735,17.07234,10.59595,-26.21556,0,0,0,47.50078,-20.24257,-46.05996,13.34626,-21.44891,-7.240511,0.001067912,-0.1257102,0.09433498,0,0.3,0,0.2585989,0,0.2585989
6.38256E+17,22.49976,40.58456,12.86434,3.81496,37.40368,-94.33356,5.041832,36.28297,23.48735,17.6583,10.96218,-26.72828,0,0,0,50.11638,-19.89945,-47.35695,14.11755,-20.03868,-8.331368,0.001067912,-0.1257102,0.09433498,0,0.3,0,0.265468,0,0.265468
6.38256E+17,23.15944,40.70145,12.91104,4.327676,37.62342,-94.84628,5.041832,36.91418,23.5107,17.87803,11.10867,-26.94801,0,0,0,51.47806,-19.66878,-48.00749,14.04495,-18.8376,-9.154208,0.001067912,-0.1257102,0.09433498,0,0.3,0,0.2697918,0,0.2697918
6.38256E+17,24.64372,41.00537,13.16786,5.499599,38.06289,-95.57873,4.853352,38.80782,23.58074,18.09777,10.96218,-27.16775,0,0,0,54.62786,-18.99891,-49.27256,13.30499,-15.29311,-11.65507,0.001067912,-0.1257102,0.09433498,0,0.3,0,0.2800173,0,0.2800173
6.38256E+17,26.0102,41.4028,13.51807,6.891257,38.28262,-95.87171,4.664873,41.12226,23.9076,18.09777,10.44946,-27.24099,0,0,0,57.53257,-18.11489,-50.444,12.56472,-10.85858,-14.36636,0.001067912,-0.1257102,0.09433498,0,0.3,0,0.2905322,0,0.2905322
6.38256E+17,27.16464,41.89374,13.96167,8.35616,38.50236,-96.23794,4.617752,43.46008,24.60802,18.02452,9.8635,-27.38748,0,0,0,60.00759,-17.01586,-51.41038,12.26299,-6.1642,-16.52382,0.001067912,-0.1257102,0.09433498,0,0.3,0,0.3005984,0,0.3005984
6.38256E+17,27.63584,42.1509,14.14844,9.015368,38.5756,-96.45767,4.664873,44.46534,24.93488,17.95128,9.643764,-27.46073,0,0,0,60.97701,-16.46567,-51.88919,12.31194,-4.161417,-17.46427,0.001067912,-0.1257102,0.09433498,0,0.3,0,0.3043337,0,0.3043337
6.38256E+17,28.50755,42.66522,14.59204,10.26054,38.5756,-96.67741,5.041832,46.05506,25.49521,17.95128,9.131048,-27.53397,0,0,0,62.8338,-15.3256,-52.6609,13.1771,-1.001606,-18.99107,0.001067912,-0.1257102,0.09433498,0,0.3,0,0.3084081,0,0.3084081
6.38256E+17,29.30859,43.24968,15.08233,11.5057,38.42912,-97.19013,6.07847,46.96681,25.82208,18.09777,8.764822,-27.82695,0,0,0,64.53123,-14.03788,-53.39708,15.7867,0.7881805,-20.10291,0.001067912,-0.1257102,0.09433498,0,0.3,0,0.3043166,0,0.3043166
6.38256E+17,29.89759,43.83413,15.54928,12.38465,38.06289,-97.55635,7.515628,47.06033,25.96216,18.61049,8.545086,-28.48616,0,0,0,65.7649,-12.76481,-53.9702,19.51739,1.078944,-20.41253,0.001067912,-0.1257102,0.09433498,0,0.3,0,0.2939642,0,0.2939642
6.38256E+17,30.18031,44.16143,15.8061,12.75087,37.84315,-97.77609,8.340226,47.03695,26.00885,19.04996,8.545086,-28.92563,0,0,0,66.3518,-12.05532,-54.25603,21.66435,1.089486,-20.57268,0.001067912,-0.1257102,0.09433498,0,0.3,0,0.2874162,0,0.2874162
6.38256E+17,30.69863,44.88615,16.38978,13.48332,37.40368,-98.14231,10.03654,46.6629,26.05555,20.14863,8.691576,-29.95106,0,0,0,67.44372,-10.47609,-54.75564,26.15707,0.5417928,-20.55718,0.001067912,-0.1257102,0.09433498,0,0.3,0,0.2736565,0,0.2736565
6.38256E+17,31.33475,45.70439,17.20694,14.06928,36.81772,-98.58179,11.87422,46.0083,26.05555,21.54029,8.911312,-30.83001,0,0,0,68.94365,-8.586839,-55.11238,31.1098,-0.5100693,-20.3935,0.001067912,-0.1257102,0.09433498,0,0.3,0,0.2599055,0,0.2599055
6.38256E+17,31.66459,46.1252,17.60384,14.36226,36.45149,-98.72827,12.60458,45.61087,26.05555,22.27274,9.057802,-31.12299,0,0,0,69.68781,-7.629133,-55.35968,33.13798,-1.154818,-20.15482,0.001067912,-0.1257102,0.09433498,0,0.3,0,0.2557923,0,0.2557923
6.38256E+17,32.37139,47.03695,18.51438,15.02147,35.6458,-99.31424,14.0653,44.7225,26.0322,23.81089,9.277537,-31.56245,0,0,0,71.32982,-5.513697,-55.82802,37.24941,-2.636411,-19.67279,0.001067912,-0.1257102,0.09433498,0,0.3,0,0.248845,0,0.248845
6.38256E+17,33.05463,47.92532,19.40158,15.53419,34.76685,-100.1199,15.21973,43.99778,26.00885,25.1293,9.497273,-31.78219,0,0,0,72.90046,-3.44555,-56.3271,40.53408,-3.866177,-19.36264,0.001067912,-0.1257102,0.09433498,0,0.3,0,0.245669,0,0.245669
6.38256E+17,33.9499,49.16436,20.66233,16.0469,33.74142,-101.2186,16.35061,43.08603,26.00885,26.22798,9.936745,-32.14842,0,0,0,74.97445,-0.531352,-56.9859,43.87816,-5.404339,-18.78897,0.001067912,-0.1257102,0.09433498,0,0.3,0,0.2474738,0,0.2474738
6.38256E+17,34.35042,49.88908,21.3861,16.41313,33.15546,-101.6581,16.91605,42.54833,26.00885,26.66745,10.15648,-32.29491,0,0,0,75.9143,1.167807,-57.27391,45.59946,-6.322299,-18.41552,0.001067912,-0.1257102,0.09433498,0,0.3,0,0.2492521,0,0.2492521
6.38256E+17,34.98654,51.40867,22.90367,17.14558,31.83705,-102.537,17.95269,41.42618,26.00885,27.54639,10.6692,-32.66114,0,0,0,77.45049,4.741589,-57.68393,48.84309,-8.263525,-17.60299,0.001067912,-0.1257102,0.09433498,0,0.3,0,0.2546565,0,0.2546565
6.38256E+17,35.3635,53.0919,24.56132,17.58505,30.15241,-103.416,19.08357,40.04686,26.0322,28.49858,11.54814,-33.24709,0,0,0,78.42818,8.692549,-57.8418,52.50964,-10.67206,-16.57044,0.001067912,-0.1257102,0.09433498,0,0.3,0,0.2622062,0,0.2622062
6.38256E+17,35.5991,54.98553,26.45245,17.80479,28.17479,-104.2949,20.14377,38.62079,26.35906,29.45077,12.28059,-33.97955,0,0,0,79.11775,13.17578,-57.83583,56.26854,-12.90334,-14.95216,0.001067912,-0.1257102,0.09433498,0,0.3,0,0.2757361,0,0.2757361
6.38256E+17,35.7169,55.92066,27.40969,17.87803,27.07611,-104.5879,20.75632,38.01296,26.63923,29.96349,12.57357,-34.56551,0,0,0,79.45784,15.419,-57.84152,58.42295,-13.72234,-14.19664,0.001067912,-0.1257102,0.09433498,0,0.3,0,0.2826906,0,0.2826906
6.38256E+17,35.8347,57.65065,29.20743,17.95128,24.65902,-105.5401,21.84008,37.05445,27.26961,30.84243,12.9398,-35.95716,0,0,0,79.86934,19.60853,-57.74968,62.32026,-14.82633,-12.85382,0.001067912,-0.1257102,0.09433498,0,0.3,0,0.2961996,0,0.2961996
6.38256E+17,35.90538,59.26375,30.93513,18.02452,22.38842,-106.419,22.97096,36.54013,28.18015,31.86786,13.01304,-37.42207,0,0,0,80.17002,23.58725,-57.62135,66.38894,-14.79896,-11.72681,0.001067912,-0.1257102,0.09433498,0,0.3,0,0.3069905,0,0.3069905
6.38256E+17,35.92894,60.9236,32.66283,18.02452,20.04458,-107.298,24.07828,36.54013,29.32417,33.03978,12.35384,-39.61942,0,0,0,80.25589,27.63204,-57.59866,70.35565,-13.51822,-10.90788,0.001067912,-0.1257102,0.09433498,0,0.3,0,0.3150947,0,0.3150947
6.38256E+17,35.9525,61.62495,33.38659,18.02452,18.9459,-107.7374,24.50236,36.58689,29.74442,33.5525,12.06085,-40.64486,0,0,0,80.29021,29.3346,-57.64712,71.84509,-12.94867,-10.71756,0.001067912,-0.1257102,0.09433498,0,0.3,0,0.3186526,0,0.3186526
6.38256E+17,35.97606,62.98088,34.85747,18.09777,16.6753,-108.5431,25.35052,37.05445,30.63161,34.50468,11.62138,-42.54923,0,0,0,80.35909,32.72165,-57.64796,74.65553,-11.03927,-10.77476,0.001067912,-0.1257102,0.09433498,0,0.3,0,0.3218946,0,0.3218946
6.38256E+17,36.02318,64.29005,36.305,18.09777,14.47795,-109.2756,26.05732,38.48052,31.58885,35.45687,11.18191,-44.16063,0,0,0,80.45592,36.03493,-57.70609,76.5386,-7.264537,-11.82023,0.001067912,-0.1257102,0.09433498,0,0.3,0,0.3160578,0,0.3160578
6.38256E+17,36.02318,65.43559,37.51905,18.09777,12.42708,-109.9348,26.3636,40.95861,32.49939,36.33582,10.44946,-45.77202,0,0,0,80.36513,38.86443,-57.83095,76.53539,-1.704257,-13.92416,0.001067912,-0.1257102,0.09433498,0,0.3,0,0.2995117,0,0.2995117
6.38256E+17,36.02318,65.94991,38.05604,18.09777,11.47489,-110.1545,26.38716,42.54833,32.96634,36.70204,10.08323,-46.35798,0,0,0,80.30442,40.12294,-57.91444,75.91019,1.643484,-15.34379,0.001067912,-0.1257102,0.09433498,0,0.3,0,0.2877602,0,0.2877602
6.38256E+17,36.02318,66.95518,39.13002,18.02452,9.643764,-110.5207,26.38716,45.98492,33.76015,37.36125,9.277537,-47.09043,0,0,0,80.19199,42.61681,-58.06905,74.11514,8.386235,-18.96194,0.001067912,-0.1257102,0.09433498,0,0.3,0,0.2616308,0,0.2616308
6.38256E+17,36.02318,68.12408,40.29738,18.02452,8.03237,-110.887,26.29292,48.97734,34.39052,37.65423,7.959125,-47.5299,0,0,0,79.94253,45.3921,-58.41211,72.13406,13.91456,-22.35237,0.001067912,-0.1257102,0.09433498,0,0.3,0,0.2424929,0,0.2424929
6.38256E+17,36.02318,68.75529,40.90441,18.09777,7.226673,-111.0335,26.2458,50.28652,34.67069,37.72747,7.226673,-47.6764,0,0,0,79.76986,46.85138,-58.64957,71.22493,16.25765,-23.89341,0.001067912,-0.1257102,0.09433498,0,0.3,0,0.2354242,0,0.2354242
6.38256E+17,36.02318,69.94759,42.11847,18.17101,5.76177,-111.18,26.22224,52.50745,35.27772,37.87396,6.127995,-47.96938,0,0,0,79.4871,49.70258,-59.03842,69.89229,20.29231,-26.44917,0.001067912,-0.1257102,0.09433498,0,0.3,0,0.2246711,0,0.2246711
6.38256E+17,36.02318,71.16325,43.30918,18.24426,4.296866,-111.2532,26.26936,54.21405,36.00148,37.94721,5.395544,-48.18911,0,0,0,79.11555,52.52424,-59.54939,69.20431,23.6441,-28.13697,0.001067912,-0.1257102,0.09433498,0,0.3,0,0.2190339,0,0.2190339
6.38256E+17,36.02318,72.30878,44.4065,18.3175,3.051698,-111.5462,26.45784,55.73364,36.84199,37.94721,4.663092,-48.62858,0,0,0,78.70959,55.12927,-60.10765,69.07618,26.83534,-29.54892,0.001067912,-0.1257102,0.09433498,0,0.3,0,0.2137279,0,0.2137279
6.38256E+17,36.02318,72.93999,45.03687,18.3175,2.392492,-111.6194,26.62276,56.45836,37.30893,38.02045,4.223621,-48.92156,0,0,0,78.49812,56.60035,-60.39848,69.23663,28.43136,-30.22469,0.001067912,-0.1257102,0.09433498,0,0.3,0,0.2115257,0,0.2115257
6.38256E+17,36.04674,74.29593,46.39102,18.39075,0.9275885,-111.9856,27.09396,57.67403,38.40625,38.0937,3.491169,-49.50752,0,0,0,78.05582,59.74648,-61.09949,70.20705,31.53687,-31.11768,0.001067912,-0.1257102,0.09433498,0,0.3,0,0.2095408,0,0.2095408
6.38256E+17,36.04674,75.39471,47.51169,18.46399,-0.61056,-112.5716,27.68295,58.46889,39.59696,38.45993,2.831963,-50.45971,0,0,0,77.65102,62.32101,-61.65569,71.88516,34.25927,-31.32992,0.001067912,-0.1257102,0.09433498,0,0.3,0,0.208588,0,0.208588
6.38256E+17,36.04674,76.23632,48.32884,18.46399,-1.855728,-113.1576,28.46043,59.02996,40.88106,38.97264,1.953021,-51.77813,0,0,0,77.28353,64.21255,-62.16062,74.29295,36.86725,-31.29379,0.001067912,-0.1257102,0.09433498,0,0.3,0,0.2067287,0,0.2067287
6.38256E+17,36.04674,76.65713,48.72574,18.3175,-2.441689,-113.4506,28.83739,59.17023,41.58148,39.26562,1.66004,-52.43733,0,0,0,77.08326,65.13421,-62.4358,75.64925,38.10933,-30.957,0.001067912,-0.1257102,0.09433498,0,0.3,0,0.2075642,0,0.2075642
6.38256E+17,36.11742,77.61563,49.58959,17.73154,-3.467122,-114.1098,29.56775,59.33388,43.07571,39.92483,1.220569,-53.90223,0,0,0,76.70695,67.15182,-63.22568,78.50154,40.64577,-29.98102,0.001067912,-0.1257102,0.09433498,0,0.3,0,0.2127791,0,0.2127791
6.38256E+17,36.35302,78.69103,50.71026,17.07234,-4.565799,-114.769,30.15675,59.54428,44.42985,40.65728,0.9275885,-55.58687,0,0,0,76.67725,69.66801,-64.16876,80.85159,43.07421,-29.19156,0.001067912,-0.1257102,0.09433498,0,0.3,0,0.2206842,0,0.2206842
6.38256E+17,36.49438,79.20535,51.24725,16.8526,-5.078516,-115.062,30.39235,59.61442,45.01353,41.02351,0.7810982,-56.17283,0,0,0,76.70332,70.86845,-64.67014,81.84023,44.11275,-28.81402,0.001067912,-0.1257102,0.09433498,0,0.3,0,0.2251619,0,0.2251619
6.38256E+17,36.61218,80.16386,52.27453,16.55962,-6.323683,-115.7212,30.86355,59.6378,46.04081,41.60947,0.5613627,-57.34475,0,0,0,76.48994,73.14577,-65.40193,83.82016,45.84634,-28.09431,0.001067912,-0.1257102,0.09433498,0,0.3,0,0.2340326,0,0.2340326
6.38256E+17,36.6593,81.1925,53.30181,16.41313,-7.202625,-116.3071,31.21695,59.66118,46.88131,42.19543,0.4148723,-58.44344,0,0,0,76.02737,75.43764,-66.2001,85.3577,47.29187,-27.50173,0.001067912,-0.1257102,0.09433498,0,0.3,0,0.2437623,0,0.2437623
