zeyangz2/LSTM/data/srikar and zeyang_2.csv
Timestamp,Therapist joint angle 0,Therapist joint angle 1,Therapist joint angle 2,Therapist joint angle 3,Therapist joint angle 4,Therapist joint angle 5,Patient joint angle 0,Patient joint angle 1,Patient joint angle 2,Patient joint angle 3,Patient joint angle 4,Patient joint angle 5,Virtual joint angle 0,Virtual joint angle 1,Virtual joint angle 2,Therapist position x,Therapist position y,Therapist position z,Patient position x,Patient position y,Patient position z,Virtual position x,Virtual position y,Virtual position z,Assistive Force, Obstacle Force Magnitude, Therapist Constant Force, Patient Constant Force, Recovery Factor, Assistance Level
6.38234E+17,28.08347,4.722397,-24.46794,-3.582802,-13.20873,-17.27965,13.80614,-0.9585064,-4.412633,9.967555,-3.100896,-142.5289,0,0,0,36.56179,-87.04581,-99.82829,29.36948,-111.8354,-48.83415,0.001067912,-0.1257102,0.09433498,0,0.3,0,0.4550493,0.004785517,0.4550493
6.38234E+17,28.08347,4.722397,-24.46794,-3.582802,-13.20873,-17.27965,13.87682,-0.9351282,-5.299829,9.674574,-2.807915,-142.8219,0,0,0,36.56179,-87.04581,-99.82829,29.02367,-111.6062,-50.86697,0.001067912,-0.1257102,0.09433498,0,0.3,0,0.4354246,0.01563176,0.4354246
6.38234E+17,28.08347,4.722397,-24.46794,-3.582802,-13.20873,-17.27965,13.9475,-0.9351282,-6.537234,9.601329,-2.58818,-142.8951,0,0,0,36.56179,-87.04581,-99.82829,28.47813,-111.3093,-53.68294,0.001067912,-0.1257102,0.09433498,0,0.3,0,0.4099238,0.02877242,0.4099238
6.38234E+17,28.08347,4.722397,-24.46794,-3.582802,-13.20873,-17.27965,14.15954,-0.9351282,-9.759157,9.601329,-1.489502,-142.8219,0,0,0,36.56179,-87.04581,-99.82829,27.0867,-110.2466,-60.98563,0.001067912,-0.1257102,0.09433498,0,0.3,0,0.3445718,0.06823332,0.3445718
6.38234E+17,28.08347,4.722397,-24.46794,-3.509557,-13.28197,-17.27965,14.15954,-0.8649935,-11.58024,9.528083,0.1951368,-142.8219,0,0,0,36.56179,-87.04581,-99.82829,26.06849,-109.2987,-65.02155,0.001067912,-0.1257102,0.09433498,0,0.3,0,0.3035842,0.1097041,0.3035842
6.38234E+17,28.08347,4.722397,-24.46794,-3.582802,-13.20873,-17.27965,14.15954,-0.8649935,-11.60359,9.454838,1.220569,-142.8219,0,0,0,36.56179,-87.04581,-99.82829,26.05547,-109.2878,-65.07316,0.001067912,-0.1257102,0.09433498,0,0.3,0,0.2981951,0.1245916,0.2981951
6.38234E+17,28.08347,4.699019,-24.46794,-3.582802,-13.20873,-17.27965,14.1831,-0.8649935,-11.60359,9.308348,1.953021,-142.8219,0,0,0,36.5639,-87.10004,-99.82434,26.09793,-109.2878,-65.08389,0.001067912,-0.1257102,0.09433498,0,0.3,0,0.2901958,0.1470688,0.2901958
6.38234E+17,28.08347,4.699019,-24.46794,-3.582802,-13.20873,-17.27965,14.1831,-0.8649935,-11.60359,9.235103,2.465737,-142.8219,0,0,0,36.5639,-87.10004,-99.82434,26.09793,-109.2878,-65.08389,0.001067912,-0.1257102,0.09433498,0,0.3,0,0.2847333,0.1631239,0.2847333
6.38234E+17,28.08347,4.699019,-24.46794,-3.582802,-13.20873,-17.35289,14.1831,-0.8649935,-11.60359,9.235103,2.758718,-142.8219,0,0,0,36.5639,-87.10004,-99.82434,26.09793,-109.2878,-65.08389,0.001067912,-0.1257102,0.09433498,0,0.3,0,0.2806365,0.1751651,0.2806365
6.38234E+17,28.08347,4.699019,-24.46794,-3.582802,-13.20873,-17.27965,14.1831,-0.8649935,-11.60359,9.235103,2.905208,-142.8219,0,0,0,36.5639,-87.10004,-99.82434,26.09793,-109.2878,-65.08389,0.001067912,-0.1257102,0.09433498,0,0.3,0,0.27745,0.1845306,0.27745
6.38234E+17,28.08347,4.699019,-24.46794,-3.582802,-13.28197,-17.35289,14.1831,-0.8649935,-11.60359,9.161857,2.978453,-142.8219,0,0,0,36.5639,-87.10004,-99.82434,26.09793,-109.2878,-65.08389,0.001067912,-0.1257102,0.09433498,0,0.3,0,0.2761084,0.1884739,0.2761084
6.38234E+17,28.08347,4.628884,-24.51463,-3.509557,-13.20873,-15.30203,14.1831,-0.8649935,-11.60359,9.235103,3.051698,-142.8219,0,0,0,36.52359,-87.21768,-99.89989,26.09793,-109.2878,-65.08389,0.001067912,-0.1257102,0.09433498,0,0.3,0,0.27374,0.1952585,0.27374
6.38234E+17,28.08347,4.41848,-24.81814,-3.729292,-13.20873,-1.458692,14.1831,-0.8649935,-11.60359,9.235103,3.051698,-142.8219,0,0,0,36.23957,-87.41104,-100.4322,26.09793,-109.2878,-65.08389,0.001067912,-0.1257102,0.09433498,0,0.3,0,0.2737071,0.2004267,0.2737071
6.38234E+17,28.10703,4.348346,-24.81814,-4.388499,-13.13548,8.795631,14.1831,-0.8649935,-11.60359,9.161857,3.051698,-142.8951,0,0,0,36.27337,-87.5738,-100.4361,26.09793,-109.2878,-65.08389,0.001067912,-0.1257102,0.09433498,0,0.3,0,0.2724547,0.2027492,0.2724547
6.38234E+17,28.17771,4.231455,-25.1917,-6.073137,-12.98899,24.32361,14.1831,-0.8649935,-11.60359,9.161857,3.051698,-142.8219,0,0,0,35.99467,-87.47758,-101.1575,26.09793,-109.2878,-65.08389,0.001067912,-0.1257102,0.09433498,0,0.3,0,0.2749757,0.2061999,0.2749757
6.38234E+17,28.20127,4.067808,-25.40182,-8.416983,-12.69601,32.23409,14.1831,-0.8649935,-11.60359,9.235103,3.051698,-142.6754,0,0,0,35.82637,-87.64849,-101.5377,26.09793,-109.2878,-65.08389,0.001067912,-0.1257102,0.09433498,0,0.3,0,0.2753187,0.2087559,0.2753187
6.38234E+17,28.20127,3.974295,-25.40182,-10.02838,-12.47628,34.65118,14.1831,-0.8649935,-11.62694,9.235103,3.051698,-142.7486,0,0,0,35.83359,-87.86559,-101.5242,26.08489,-109.2768,-65.13549,0.001067912,-0.1257102,0.09433498,0,0.3,0,0.2738472,0.2100224,0.2738472
6.38234E+17,28.22483,3.880782,-25.47187,-12.44547,-12.25654,36.18932,14.1831,-0.8416153,-11.65029,9.161857,3.124943,-142.8219,0,0,0,35.79849,-88.01271,-101.6555,26.07205,-109.2115,-65.1863,0.001067912,-0.1257102,0.09433498,0,0.3,0,0.2727676,0.212377,0.2727676
6.38234E+17,28.22483,3.90416,-25.49521,-14.42309,-12.03681,37.58098,14.13598,-0.8182371,-11.67363,9.088613,3.198189,-140.0385,0,0,0,35.77354,-87.93504,-101.702,25.97439,-109.1461,-65.21574,0.001067912,-0.1257102,0.09433498,0,0.3,0,0.2722979,0.2144001,0.2722979
6.38234E+17,28.22483,3.90416,-25.47187,-15.22878,-11.81707,41.24324,14.11242,-0.8182371,-11.65029,9.308348,3.344679,-134.2522,0,0,0,35.79675,-87.95842,-101.6588,25.94496,-109.1571,-65.15345,0.001067912,-0.1257102,0.09433498,0,0.3,0,0.2718329,0.2161384,0.2718329
6.38234E+17,28.20127,3.90416,-25.33178,-15.00905,-11.52409,44.83226,14.11242,-0.8182371,-11.62694,9.454838,3.491169,-131.6154,0,0,0,35.90849,-88.09828,-101.3845,25.95793,-109.168,-65.10184,0.001067912,-0.1257102,0.09433498,0,0.3,0,0.2700879,0.2170556,0.2700879
6.38234E+17,28.17771,3.90416,-24.60802,-14.13011,-9.766206,52.74273,14.04174,-0.7948589,-11.60359,9.747819,3.710905,-127.1474,0,0,0,36.60203,-88.80936,-100.0237,25.84365,-109.1246,-65.01752,0.001067912,-0.1257102,0.09433498,0,0.3,0,0.2614601,0.2196039,0.2614601
6.38234E+17,28.55467,4.091186,-24.07103,-11.49328,-6.177193,56.77122,13.97106,-0.7247244,-11.53355,9.967555,4.296866,-123.9979,0,0,0,37.58055,-88.89023,-99.29246,25.75524,-108.994,-64.82864,0.001067912,-0.1257102,0.09433498,0,0.3,0,0.258898,0.2223303,0.258898
6.38234E+17,29.07299,4.792531,-22.46007,-6.439363,-2.002218,57.86989,13.87682,-0.6545897,-11.41681,10.40703,5.542034,-119.8229,0,0,0,39.81599,-88.74375,-96.73537,25.64926,-108.8849,-64.52602,0.001067912,-0.1257102,0.09433498,0,0.3,0,0.2511933,0.2255507,0.2511933
6.38234E+17,27.82431,6.38225,-20.70902,-1.971408,1.586795,58.5291,13.90038,-0.5376987,-11.20669,11.43246,7.006938,-114.6957,0,0,0,39.84655,-86.56071,-92.85197,25.80783,-108.7088,-64.06832,0.001067912,-0.1257102,0.09433498,0,0.3,0,0.2399669,0.2296385,0.2399669
6.38234E+17,27.09396,7.177108,-19.96191,-0.8727306,2.758718,59.26155,13.92394,-0.4208077,-11.1133,12.16491,7.739389,-113.3773,0,0,0,39.52407,-85.32797,-91.09309,25.90257,-108.4788,-63.86975,0.001067912,-0.1257102,0.09433498,0,0.3,0,0.2349846,0.2319591,0.2349846
6.38234E+17,26.3636,8.673313,-18.51438,-0.140279,4.589847,64.16898,14.1831,-0.1636474,-10.62301,14.21577,9.497273,-112.5716,0,0,0,39.73534,-82.98911,-88.1758,26.65022,-108.0954,-62.89855,0.001067912,-0.1257102,0.09433498,0,0.3,0,0.231802,0.2365645,0.231802
6.38234E+17,25.86884,10.37992,-17.79062,0.738663,6.274486,72.29919,14.56006,0.1402692,-10.2261,17.36532,11.62138,-110.9602,0,0,0,39.45312,-79.59686,-86.98691,27.57185,-107.5553,-62.1967,0.001067912,-0.1257102,0.09433498,0,0.3,0,0.2383608,0.2401066,0.2383608
6.38234E+17,25.91596,11.01113,-17.51045,1.251379,6.713957,75.44874,14.56006,0.3740513,-10.08602,19.1232,12.72006,-109.1291,0,0,0,39.67243,-78.35103,-86.70573,27.65191,-107.0686,-61.88845,0.001067912,-0.1257102,0.09433498,0,0.3,0,0.2416058,0.2414394,0.2416058
6.38234E+17,26.15156,11.24492,-17.02016,2.936018,7.666144,78.74477,14.08886,0.8416153,-9.922588,21.76003,14.55119,-105.3936,0,0,0,40.4418,-78.15583,-85.98569,26.86382,-106.0466,-61.31253,0.001067912,-0.1257102,0.09433498,0,0.3,0,0.2397296,0.243967,0.2397296
6.38234E+17,26.15156,11.82937,-16.50652,4.840393,8.984557,79.33073,13.54698,1.16891,-9.73581,23.37142,16.60205,-99.53397,0,0,0,40.82639,-77.16785,-85.20242,25.94753,-105.3592,-60.65984,0.001067912,-0.1257102,0.09433498,0,0.3,0,0.2426145,0.2461681,0.2426145
6.38234E+17,25.8924,13.23206,-15.75941,6.525032,9.424027,78.15881,13.57054,1.800122,-9.292212,24.32361,18.72616,-91.98972,0,0,0,40.87,-74.46423,-84.15313,26.22179,-104.0612,-59.71771,0.001067912,-0.1257102,0.09433498,0,0.3,0,0.247266,0.2476254,0.247266
6.38234E+17,25.63324,13.91003,-15.26911,7.110993,9.277537,77.71934,13.7119,2.314442,-9.175476,24.90957,19.53186,-88.03448,0,0,0,40.80423,-73.23561,-83.31163,26.54311,-102.9086,-59.56396,0.001067912,-0.1257102,0.09433498,0,0.3,0,0.2440715,0.2484243,0.2440715
6.38234E+17,25.16204,14.89192,-14.45196,7.843444,8.471841,77.27986,14.04174,3.459974,-9.128781,25.86176,20.63054,-81.36917,0,0,0,40.64343,-71.50996,-81.82957,27.16238,-100.2632,-59.74475,0.001067912,-0.1257102,0.09433498,0,0.3,0,0.2318531,0.2507542,0.2318531
6.38234E+17,24.97356,15.73353,-13.6348,8.282915,7.666144,77.06013,14.32446,4.605506,-9.105433,26.66745,21.14326,-75.65604,0,0,0,40.91915,-70.08224,-80.49277,27.66483,-97.61233,-60.00978,0.001067912,-0.1257102,0.09433498,0,0.3,0,0.2195137,0.2540649,0.2195137
6.38234E+17,25.0678,17.04271,-12.32736,8.795631,6.640712,76.6939,14.34802,6.218602,-9.058739,27.76613,21.50948,-68.40478,0,0,0,41.95566,-67.84264,-78.65306,27.64822,-93.89203,-60.26024,0.001067912,-0.1257102,0.09433498,0,0.3,0,0.207423,0.258164,0.207423
6.38234E+17,25.13848,17.58041,-11.76702,8.942122,6.201241,76.40092,14.37158,6.686166,-8.988697,28.05911,21.65597,-66.57365,0,0,0,42.44988,-66.92008,-77.88741,27.70227,-92.83629,-60.23412,0.001067912,-0.1257102,0.09433498,0,0.3,0,0.2050507,0.2603273,0.2050507
6.38234E+17,25.60968,18.93634,-9.969283,9.381593,4.882828,75.66847,14.37158,7.878454,-8.241585,29.08454,21.94895,-63.27761,0,0,0,44.54105,-64.7121,-75.42595,28.04169,-90.34426,-58.90946,0.001067912,-0.1257102,0.09433498,0,0.3,0,0.2040099,0.2644647,0.2040099
6.38234E+17,25.96308,20.31566,-8.101501,10.18729,3.491169,75.229,14.37158,9.211012,-6.91079,30.10997,22.16869,-60.56754,0,0,0,46.52073,-62.37112,-72.81216,28.68936,-87.68571,-56.38174,0.001067912,-0.1257102,0.09433498,0,0.3,0,0.205218,0.2681964,0.205218
6.38234E+17,26.05732,22.06903,-5.906858,10.77325,1.733285,75.00926,14.34802,10.45006,-5.46326,30.91567,21.94895,-59.17588,0,0,0,48.25664,-59.18928,-69.65991,29.3513,-85.20744,-53.60214,0.001067912,-0.1257102,0.09433498,0,0.3,0,0.2095495,0.2713311,0.2095495
6.38234E+17,26.05732,22.93402,-4.622759,10.99299,0.7810982,75.00926,14.37158,11.12803,-4.482675,31.20865,21.72922,-58.95615,0,0,0,49.22544,-57.6036,-67.6786,29.88949,-83.85528,-51.69791,0.001067912,-0.1257102,0.09433498,0,0.3,0,0.211269,0.2726891,0.211269
6.38234E+17,26.15156,24.61725,-1.984518,11.5057,-1.123276,74.93602,14.4187,12.48396,-2.381421,31.86786,21.28975,-59.10264,0,0,0,51.39643,-54.37248,-63.67534,31.04014,-81.05906,-47.62019,0.001067912,-0.1257102,0.09433498,0,0.3,0,0.2157992,0.2749941,0.2157992
6.38234E+17,26.17512,26.44075,0.3035145,12.16491,-2.807915,75.08251,14.44226,13.79314,-0.4902926,32.60031,20.33756,-59.90833,0,0,0,52.9813,-50.6211,-60.55965,32.01439,-78.20219,-44.04288,0.001067912,-0.1257102,0.09433498,0,0.3,0,0.2221093,0.2766374,0.2221093
6.38234E+17,26.17512,27.5629,1.79774,12.53114,-3.613612,75.229,14.44226,14.51786,0.6770707,33.03978,19.67835,-60.27456,0,0,0,53.99199,-48.23037,-58.50338,32.5891,-76.56226,-41.81133,0.001067912,-0.1257102,0.09433498,0,0.3,0,0.2268846,0.277166,0.2268846
6.38234E+17,26.41072,30.36828,5.229787,13.41008,-5.957458,75.59522,14.34802,16.20109,3.198575,34.06521,17.77398,-60.78728,0,0,0,56.58265,-42.02895,-54.4185,33.57714,-72.58635,-37.08136,0.001067912,-0.1257102,0.09433498,0,0.3,0,0.2427822,0.2773487,0.2427822
6.38234E+17,26.717,32.21516,7.611208,13.84955,-8.008322,76.0347,14.13598,17.58041,4.926273,34.87091,16.60205,-61.00701,0,0,0,58.6632,-37.73623,-51.79735,33.84285,-69.22985,-33.97313,0.001067912,-0.1257102,0.09433498,0,0.3,0,0.2539637,0.2765667,0.2539637
6.38234E+17,27.32955,34.20231,10.36619,14.21577,-10.71839,76.40092,14.04174,19.26364,7.120916,35.74985,15.06391,-61.22675,0,0,0,61.65038,-32.86517,-49.05561,34.5538,-64.97723,-30.19109,0.001067912,-0.1257102,0.09433498,0,0.3,0,0.2671754,0.2748837,0.2671754
6.38234E+17,27.80075,35.20757,11.81372,14.43551,-12.03681,76.54742,14.0653,20.12863,8.428363,36.33582,14.25821,-61.29999,0,0,0,63.54999,-30.29378,-47.82057,35.17842,-62.67021,-27.93894,0.001067912,-0.1257102,0.09433498,0,0.3,0,0.2755276,0.2736722,0.2755276
6.38234E+17,28.79027,36.96094,15.03564,15.60743,-14.67363,76.84039,14.0653,21.78849,10.90317,37.80072,12.42708,-61.66622,0,0,0,67.97678,-25.25531,-44.65096,36.22244,-58.09578,-23.77184,0.001067912,-0.1257102,0.09433498,0,0.3,0,0.293135,0.2704775,0.293135
6.38234E+17,30.01539,38.45715,18.42099,17.73154,-17.60344,76.91364,14.04174,23.56523,13.58811,39.19238,10.6692,-62.39867,0,0,0,73.3146,-20.23294,-41.44413,37.25772,-52.95513,-19.3798,0.001067912,-0.1257102,0.09433498,0,0.3,0,0.3138233,0.2661813,0.3138233
6.38234E+17,31.28763,39.74295,21.87639,20.14863,-19.87404,76.98688,14.13598,25.2017,15.99288,40.43755,9.277537,-63.49735,0,0,0,79.05441,-15.14088,-38.26508,38.44019,-48.05756,-15.71887,0.001067912,-0.1257102,0.09433498,0,0.3,0,0.3367123,0.2607255,0.3367123
6.38234E+17,31.94731,40.49105,23.86091,21.54029,-21.04596,76.98688,14.23022,26.09007,17.23028,41.02351,8.545086,-64.2298,0,0,0,82.20499,-12.01455,-36.5249,39.1496,-45.37037,-13.9747,0.001067912,-0.1257102,0.09433498,0,0.3,0,0.3501359,0.2575347,0.3501359
6.38234E+17,33.12531,41.65996,27.24626,24.32361,-23.09683,76.91364,14.60718,27.96033,19.82183,41.97569,7.153428,-65.84119,0,0,0,87.80487,-6.565558,-33.78754,41.10778,-39.57673,-10.61577,0.001067912,-0.1257102,0.09433498,0,0.3,0,0.3699574,0.2505305,0.3699574
6.38234E+17,34.25618,42.80549,30.74835,27.47315,-25.14769,76.10795,15.26685,30.08775,23.0204,43.07437,5.835015,-67.23285,0,0,0,93.44708,-0.6409373,-31.13641,44.11315,-32.52898,-6.732201,0.001067912,-0.1257102,0.09433498,0,0.3,0,0.3852473,0.2429521,0.3852473
6.38234E+17,35.19858,43.95102,34.15705,30.76918,-27.19856,74.49654,15.87941,32.40219,26.56919,44.39278,4.736337,-69.43021,0,0,0,98.49397,5.55331,-28.71855,47.12528,-24.46075,-2.689521,0.001067912,-0.1257102,0.09433498,0,0.3,0,0.397276,0.2352923,0.397276
6.38234E+17,35.66978,44.48872,35.8147,32.60031,-28.44372,73.25138,16.16213,33.78151,28.67044,45.19848,4.150376,-70.96836,0,0,0,100.9731,8.662189,-27.67455,48.66036,-19.50422,-0.445816,0.001067912,-0.1257102,0.09433498,0,0.3,0,0.4018365,0.2314437,0.4018365
6.38234E+17,36.5415,45.40047,38.40625,35.96959,-30.49459,70.46806,16.63333,36.3531,32.33596,46.73663,2.758718,-74.19114,0,0,0,105.0728,13.80296,-26.56721,51.15898,-10.27638,2.895452,0.001067912,-0.1257102,0.09433498,0,0.3,0,0.4097699,0.2237922,0.4097699
6.38234E+17,37.27186,46.19533,40.5542,39.04589,-32.10598,67.39177,16.98673,38.64417,35.13763,48.27478,1.440305,-77.41393,0,0,0,108.405,18.27104,-25.90307,52.85003,-2.425216,4.657951,0.001067912,-0.1257102,0.09433498,0,0.3,0,0.4182087,0.2162304,0.4182087
6.38234E+17,37.6017,46.40574,41.41805,40.29105,-32.76519,66.07335,17.17521,39.74295,36.44508,48.86074,0.8543434,-79.09857,0,0,0,109.9332,19.92799,-25.60758,53.67052,1.336275,5.297364,0.001067912,-0.1257102,0.09433498,0,0.3,0,0.4210263,0.2125056,0.4210263
6.38234E+17,38.30849,46.49924,42.79554,42.92788,-33.57088,64.16898,17.57573,41.58982,38.8265,49.66644,-0.2443342,-81.51566,0,0,0,113.0622,22.22753,-25.232,55.36255,7.980791,6.43171,0.001067912,-0.1257102,0.09433498,0,0.3,0,0.4282253,0.2051183,0.4282253
6.38234E+17,38.94461,46.49924,43.93955,44.97874,-33.93711,63.0703,18.28253,42.99252,40.97445,50.47213,-0.9035407,-84.006,0,0,0,115.8608,24.05583,-24.99066,58.02829,13.60222,7.290985,0.001067912,-0.1257102,0.09433498,0,0.3,0,0.4301788,0.1980513,0.4301788
6.38234E+17,39.22733,46.47587,44.21972,45.78444,-34.0836,62.63083,18.73017,43.46008,41.86165,50.9116,-0.9767859,-84.88493,0,0,0,116.888,24.47198,-25.17068,59.65665,15.76113,7.592869,0.001067912,-0.1257102,0.09433498,0,0.3,0,0.4285297,0.1947211,0.4285297
6.38234E+17,39.86345,46.47587,44.52324,47.10286,-34.01036,61.75189,19.90817,44.11467,43.44926,51.86379,-0.6838052,-86.49634,0,0,0,118.794,24.96597,-26.08963,63.82749,19.36456,7.892993,0.001067912,-0.1257102,0.09433498,0,0.3,0,0.4210008,0.1887026,0.4210008
6.38234E+17,40.52313,46.45249,44.56993,47.9818,-33.71738,61.09268,21.08616,44.41859,43.84616,52.74273,-0.02459868,-87.96124,0,0,0,120.5,25.00472,-27.37791,67.50014,20.50868,6.706554,0.001067912,-0.1257102,0.09433498,0,0.3,0,0.4127147,0.1833767,0.4127147
6.38234E+17,41.13569,46.42911,44.56993,48.86074,-33.35115,60.21374,22.42908,44.53548,43.82282,53.1822,1.147324,-88.69369,0,0,0,122.0262,24.96723,-28.64453,71.49658,20.66516,4.864108,0.001067912,-0.1257102,0.09433498,0,0.3,0,0.3992667,0.1789101,0.3992667
6.38234E+17,41.44197,46.40574,44.56993,49.30021,-33.13141,59.55453,23.183,44.55886,43.79947,53.40194,1.806531,-88.84018,0,0,0,122.7973,24.92972,-29.26928,73.73908,20.66632,3.837229,0.001067912,-0.1257102,0.09433498,0,0.3,0,0.3906542,0.1770493,0.3906542
6.38234E+17,41.98385,46.24208,44.68667,50.2524,-32.69194,58.16287,24.87932,44.55886,43.37922,53.9879,3.124943,-88.91342,0,0,0,124.4208,24.85756,-30.08836,78.50581,19.99195,0.9362628,0.001067912,-0.1257102,0.09433498,0,0.3,0,0.3674864,0.1742207,0.3674864
6.38234E+17,42.54929,45.91479,45.27035,51.42432,-32.39896,56.47824,26.69344,44.5121,42.44533,54.35413,4.663092,-89.27965,0,0,0,126.8,25.28937,-30.21083,83.14475,18.43448,-2.987873,0.001067912,-0.1257102,0.09433498,0,0.3,0,0.3435205,0.1726771,0.3435205
6.38234E+17,42.80845,45.72776,45.55051,52.08353,-32.32572,55.4528,27.61227,44.48872,42.09512,54.72035,5.395544,-89.86562,0,0,0,127.9468,25.45039,-30.22093,85.52395,17.84743,-4.843102,0.001067912,-0.1257102,0.09433498,0,0.3,0,0.3311772,0.1723109,0.3311772
6.38234E+17,43.30321,45.40047,46.36767,53.69492,-32.54545,52.74273,29.42639,44.32507,41.69822,55.52605,6.640712,-90.67131,0,0,0,130.4146,26.2842,-29.97296,90.45035,16.95847,-7.999241,0.001067912,-0.1257102,0.09433498,0,0.3,0,0.3082363,0.1723074,0.3082363
6.38234E+17,43.63305,45.30696,47.09144,56.18526,-33.64413,49.95942,31.57035,43.78737,41.11454,57.13744,7.666144,-90.96429,0,0,0,132.1126,27.35777,-29.77826,96.30796,15.16064,-11.62195,0.001067912,-0.1257102,0.09433498,0,0.3,0,0.2774304,0.1734687,0.2774304
6.38234E+17,43.77441,45.19007,47.16148,57.13744,-34.81605,49.30021,32.65411,43.2263,40.41412,58.23612,8.105616,-91.03754,0,0,0,132.6644,27.2857,-29.88504,99.07397,13.14913,-13.75418,0.001067912,-0.1257102,0.09433498,0,0.3,0,0.262913,0.1753938,0.262913
6.38234E+17,43.84509,45.00304,47.16148,57.50367,-35.5485,49.00723,33.29023,42.78211,39.76039,58.89533,8.398596,-90.96429,0,0,0,133.0487,26.97843,-29.82644,100.5323,11.41336,-15.24725,0.001067912,-0.1257102,0.09433498,0,0.3,0,0.2561626,0.1765644,0.2561626
6.38234E+17,43.91577,44.48872,47.48834,58.45585,-36.72043,48.56776,34.53891,41.75347,38.4296,60.28699,9.277537,-90.96429,0,0,0,134.1616,26.68756,-29.0122,103.3949,7.688628,-18.12806,0.001067912,-0.1257102,0.09433498,0,0.3,0,0.247997,0.1790922,0.247997
6.38234E+17,43.91577,43.85751,47.60507,59.3348,-37.74586,48.34802,35.55198,40.81834,37.61245,61.38566,10.30297,-90.81779,0,0,0,134.9989,25.83435,-28.14266,105.9986,4.881801,-20.03024,0.001067912,-0.1257102,0.09433498,0,0.3,0,0.2401213,0.1818277,0.2401213
6.38234E+17,43.86865,43.03927,47.67512,59.77427,-38.33182,48.27478,36.02318,40.04686,37.0988,62.63083,11.18191,-90.81779,0,0,0,135.8672,24.57226,-27.00836,107.3408,2.789754,-20.73369,0.001067912,-0.1257102,0.09433498,0,0.3,0,0.2376724,0.1846311,0.2376724
6.38234E+17,43.82153,42.61847,47.79185,59.92076,-38.40507,48.20153,36.04674,39.81308,36.60851,63.29004,11.47489,-90.81779,0,0,0,136.3385,24.05505,-26.28445,107.0697,1.688118,-21.23373,0.001067912,-0.1257102,0.09433498,0,0.3,0,0.2421563,0.1858938,0.2421563
6.38234E+17,43.49169,41.75347,47.97863,60.06725,-38.18533,48.78749,36.02318,39.53254,34.69404,64.46196,11.76787,-90.74455,0,0,0,136.6495,22.88583,-24.30967,105.1251,-1.411351,-23.78076,0.001067912,-0.1257102,0.09433498,0,0.3,0,0.258615,0.1878641,0.258615
6.38234E+17,42.40793,41.47293,47.97863,59.99401,-37.23314,53.76817,36.02318,39.22863,33.26986,65.3409,11.91436,-90.08535,0,0,0,134.1931,22.39767,-21.43069,103.7726,-3.810692,-25.64071,0.001067912,-0.1257102,0.09433498,0,0.3,0,0.2617969,0.1894499,0.2617969
6.38234E+17,41.58333,41.49631,47.97863,59.62778,-36.79367,58.74884,36.02318,38.94809,33.01303,65.85361,11.98761,-89.64587,0,0,0,132.0409,22.43843,-19.54163,103.7204,-4.644254,-25.71253,0.001067912,-0.1257102,0.09433498,0,0.3,0,0.2569519,0.1903182,0.2569519
6.38234E+17,40.40533,41.58982,48.04868,58.74884,-36.13447,70.61456,35.99962,38.36363,32.96634,66.65932,12.1341,-89.27965,0,0,0,128.9308,22.7225,-16.88539,104.1076,-5.765665,-25.05624,0.001067912,-0.1257102,0.09433498,0,0.3,0,0.24983,0.1922033,0.24983
6.38234E+17,39.32158,41.6132,47.88524,58.01638,-34.81605,89.07233,35.99962,37.61553,32.94299,67.39177,12.06085,-89.20641,0,0,0,125.8587,22.48066,-14.69885,104.7107,-7.167439,-24.22611,0.001067912,-0.1257102,0.09433498,0,0.3,0,0.2426382,0.1942843,0.2426382
6.38234E+17,38.94461,41.6132,47.58173,57.7234,-34.01036,98.15474,35.99962,37.05445,32.94299,67.6115,11.98761,-89.20641,0,0,0,124.5464,21.95791,-14.24365,105.1762,-8.205719,-23.58539,0.001067912,-0.1257102,0.09433498,0,0.3,0,0.2384477,0.1954079,0.2384477
6.38234E+17,38.16714,41.73009,46.39102,57.0642,-32.10598,109.5077,35.99962,35.79203,32.94299,67.97772,11.84112,-89.79237,0,0,0,121.1639,20.13484,-14.19634,106.2015,-10.56987,-22.17407,0.001067912,-0.1257102,0.09433498,0,0.3,0,0.2250608,0.197943,0.2250608
6.38234E+17,37.50746,41.96388,44.82675,55.67254,-30.64108,114.4884,35.76402,34.78677,32.94299,68.05097,11.62138,-92.2827,0,0,0,117.6094,17.93869,-15.1198,106.3895,-12.47957,-20.64187,0.001067912,-0.1257102,0.09433498,0,0.3,0,0.2102342,0.2009567,0.2102342
6.38234E+17,36.75354,42.1509,43.14575,53.69492,-29.68889,117.1985,35.08078,34.41272,32.94299,67.97772,11.03542,-96.60417,0,0,0,113.7242,15.54489,-16.0745,104.9047,-13.19616,-18.97919,0.001067912,-0.1257102,0.09433498,0,0.3,0,0.192224,0.2044701,0.192224
6.38234E+17,36.51794,42.33792,42.39864,52.66949,-29.39591,117.4915,34.63314,34.41272,32.94299,67.83124,10.74244,-98.4353,0,0,0,112.1634,14.68632,-16.86914,103.7345,-13.19616,-18.16416,0.001067912,-0.1257102,0.09433498,0,0.3,0,0.1851172,0.2063889,0.1851172
6.38234E+17,36.44726,43.01589,40.50751,50.61862,-29.39591,112.5108,33.64362,34.41272,32.91964,67.31852,10.52271,-100.7791,0,0,0,109.3813,12.93274,-20.24476,101.1002,-13.2257,-16.43308,0.001067912,-0.1257102,0.09433498,0,0.3,0,0.1749818,0.2104122,0.1749818
6.38234E+17,36.35302,43.4367,38.84985,48.20153,-30.3481,102.11,32.93682,34.43609,32.70952,66.87905,10.44946,-102.0975,0,0,0,106.9799,11.18318,-22.99659,98.97829,-13.44585,-15.56827,0.001067912,-0.1257102,0.09433498,0,0.3,0,0.1692859,0.2145407,0.1692859
6.38234E+17,36.28234,43.41333,38.14943,46.66338,-31.08055,95.29817,32.60699,34.45947,32.49939,66.58607,10.6692,-103.123,0,0,0,106.0677,10.12889,-23.86299,97.85854,-13.66449,-15.37397,0.001067912,-0.1257102,0.09433498,0,0.3,0,0.1664688,0.2166241,0.1664688
6.38234E+17,36.23522,43.2263,36.98207,44.0998,-32.39896,82.62676,32.06511,34.55299,31.89237,66.00011,11.3284,-104.3682,0,0,0,104.8524,8.155807,-25.27197,95.70724,-14.2379,-15.57297,0.001067912,-0.1257102,0.09433498,0,0.3,0,0.1624532,0.220807,0.1624532
6.38234E+17,36.23522,43.01589,35.88475,42.04893,-33.4244,70.32157,31.52323,34.55299,31.00517,65.3409,11.98761,-104.8076,0,0,0,103.8357,6.281667,-26.6593,93.33708,-15.3152,-16.17623,0.001067912,-0.1257102,0.09433498,0,0.3,0,0.1624751,0.2248892,0.1624751
6.38234E+17,36.61218,43.03927,34.9742,41.02351,-34.30334,57.7234,30.98135,34.55299,30.37479,64.68169,12.79331,-105.1739,0,0,0,103.7137,5.092957,-28.76137,91.24429,-16.06401,-16.38196,0.001067912,-0.1257102,0.09433498,0,0.3,0,0.1697053,0.2286649,0.1697053
6.38234E+17,37.15406,42.87563,34.27379,41.24324,-34.74281,47.61557,30.60439,34.55299,29.95454,64.24223,13.37927,-106.1993,0,0,0,104.3758,3.887985,-30.61076,89.81198,-16.55548,-16.51279,0.001067912,-0.1257102,0.09433498,0,0.3,0,0.1768628,0.2320669,0.1768628
6.38234E+17,37.41322,42.75873,33.85353,41.60947,-34.74281,43.36735,30.46303,34.55299,29.74442,64.09573,13.599,-106.7852,0,0,0,104.6178,3.140587,-31.58099,89.22205,-16.79889,-16.65728,0.001067912,-0.1257102,0.09433498,0,0.3,0,0.1795132,0.2336406,0.1795132
6.38234E+17,37.8373,42.33792,33.26986,42.6349,-34.30334,34.50468,30.25099,34.55299,29.23078,63.72951,13.96523,-108.1769,0,0,0,105.3391,1.668068,-32.73003,88.13582,-17.38733,-17.22701,0.001067912,-0.1257102,0.09433498,0,0.3,0,0.1831537,0.2366071,0.1831537
6.38234E+17,37.8373,41.87036,32.96634,43.29411,-33.71738,26.15474,30.25099,34.55299,28.74048,63.58302,14.11172,-108.9826,0,0,0,105.4237,0.4747476,-32.62106,87.63296,-17.9403,-18.08926,0.001067912,-0.1257102,0.09433498,0,0.3,0,0.1791078,0.2395594,0.1791078
6.38234E+17,37.6017,41.80023,32.87295,43.14762,-33.57088,18.68373,30.06251,34.55299,28.6004,63.50977,14.18496,-110.008,0,0,0,104.8198,0.2350065,-32.247,86.99489,-18.09672,-18.04937,0.001067912,-0.1257102,0.09433498,0,0.3,0,0.1772316,0.2425078,0.1772316
6.38234E+17,37.27186,41.09888,32.14919,42.34192,-33.35115,13.19034,29.75623,34.55299,28.46032,63.58302,14.25821,-110.4475,0,0,0,103.8287,-1.893809,-31.91638,86.04804,-18.25244,-17.83515,0.001067912,-0.1257102,0.09433498,0,0.3,0,0.1687768,0.2455876,0.1687768
6.38234E+17,37.05982,40.63132,32.26592,41.53622,-33.13141,11.5057,29.59131,34.55299,28.34358,63.72951,14.33146,-110.5207,0,0,0,103.8907,-2.571958,-30.78144,85.49643,-18.38167,-17.79591,0.001067912,-0.1257102,0.09433498,0,0.3,0,0.1656939,0.2471792,0.1656939
6.38234E+17,36.4237,40.35078,32.59278,40.29105,-32.47221,10.99299,29.21435,34.55299,28.2035,63.80275,14.25821,-110.4475,0,0,0,102.99,-2.660559,-28.77871,84.36392,-18.5361,-17.48729,0.001067912,-0.1257102,0.09433498,0,0.3,0,0.1616334,0.2503894,0.1616334
6.38234E+17,35.97606,40.84172,32.63948,39.19238,-31.44678,13.92279,28.67247,34.55299,28.2035,63.94925,14.11172,-110.4475,0,0,0,101.5134,-1.734379,-28.50597,82.93337,-18.5361,-16.69617,0.001067912,-0.1257102,0.09433498,0,0.3,0,0.1654011,0.2534574,0.1654011
6.38234E+17,36.09386,41.21577,32.75621,37.80072,-30.86081,18.17101,27.84787,34.57636,28.2035,63.94925,14.11172,-110.4475,0,0,0,101.5987,-0.9308726,-28.992,80.72784,-18.4913,-15.54564,0.001067912,-0.1257102,0.09433498,0,0.3,0,0.1809928,0.2560304,0.1809928
6.38234E+17,36.28234,41.16902,32.77956,37.288,-30.64108,18.61049,27.4238,34.59974,28.2035,63.876,14.11172,-110.4475,0,0,0,102.1261,-0.9833505,-29.23237,79.58042,-18.4465,-14.97973,0.001067912,-0.1257102,0.09433498,0,0.3,0,0.1894811,0.2570794,0.1894811
6.38234E+17,36.47082,41.12226,32.66283,36.04284,-29.83538,16.70611,26.4814,34.74001,28.22684,63.72951,14.25821,-110.4475,0,0,0,102.4898,-1.21216,-29.69531,76.98569,-18.15232,-13.81496,0.001067912,-0.1257102,0.09433498,0,0.3,0,0.2045236,0.2587749,0.2045236
6.38234E+17,36.56506,41.16902,32.75621,35.09065,-29.02968,13.62981,25.4212,34.95041,28.22684,63.29004,14.47795,-110.5207,0,0,0,102.784,-1.01276,-29.77469,73.99306,-17.75043,-12.66966,0.001067912,-0.1257102,0.09433498,0,0.3,0,0.2216716,0.259884,0.2216716
6.38234E+17,36.63574,41.26253,32.91964,34.79766,-28.59021,11.87193,24.87932,34.99717,28.22684,62.99706,14.55119,-110.5207,0,0,0,103.0601,-0.642783,-29.76021,72.49117,-17.66126,-12.03343,0.001067912,-0.1257102,0.09433498,0,0.3,0,0.2321306,0.260193,0.2321306
6.38234E+17,36.84778,41.75347,34.15705,34.43144,-28.37048,7.257483,23.79556,35.06731,28.25019,62.48434,14.69768,-110.4475,0,0,0,104.5576,1.803996,-28.82763,69.50314,-17.50189,-10.73222,0.001067912,-0.1257102,0.09433498,0,0.3,0,0.2599547,0.2601496,0.2599547
6.38234E+17,37.22474,42.66522,36.49178,35.31038,-29.39591,0.299192,22.73536,35.16082,28.46032,61.97163,14.84417,-110.5207,0,0,0,107.2927,6.517391,-27.12379,66.69279,-17.09159,-9.19173,0.001067912,-0.1257102,0.09433498,0,0.3,0,0.29801,0.2590086,0.29801
6.38234E+17,38.16714,43.67049,39.80709,38.16694,-31.88625,-12.37222,21.5338,35.46473,29.06735,61.01944,14.84417,-111.5462,0,0,0,112.361,12.98944,-25.39598,63.64515,-15.83456,-7.056509,0.001067912,-0.1257102,0.09433498,0,0.3,0,0.3539698,0.2563812,0.3539698
6.38234E+17,38.80325,43.64711,41.81495,40.95026,-33.86386,-21.38138,20.94481,35.83878,29.4409,60.50672,14.84417,-112.3519,0,0,0,116.181,16.0041,-23.86678,62.07349,-14.7023,-6.176252,0.001067912,-0.1257102,0.09433498,0,0.3,0,0.3867416,0.2525829,0.3867416
6.38234E+17,39.27446,43.55359,42.93562,42.70815,-34.74281,-25.84933,20.73277,36.1427,29.74442,60.21374,14.77092,-113.2308,0,0,0,118.68,17.60438,-23.21936,61.54319,-13.78115,-5.761916,0.001067912,-0.1257102,0.09433498,0,0.3,0,0.404715,0.2503783,0.404715
6.38234E+17,40.14618,43.01589,44.49989,45.93093,-36.06122,-31.48921,20.19089,36.75054,30.58492,59.99401,14.4047,-114.476,0,0,0,123.1239,19.2094,-22.37455,60.29645,-11.66023,-4.388578,0.001067912,-0.1257102,0.09433498,0,0.3,0,0.4363254,0.2453764,0.4363254
6.38234E+17,41.06501,41.77685,44.94349,47.8353,-36.3542,-31.6357,19.53121,37.2181,31.58885,59.77427,13.89198,-116.5269,0,0,0,127.2081,17.80628,-22.34868,58.85481,-9.58454,-2.4364,0.001067912,-0.1257102,0.09433498,0,0.3,0,0.46395,0.2397447,0.46395
6.38234E+17,41.58333,41.0755,45.08357,48.27478,-35.91473,-30.24404,19.24849,37.4285,32.0091,59.77427,13.599,-117.2593,0,0,0,129.3935,16.81296,-22.52517,58.21158,-8.679729,-1.643509,0.001067912,-0.1257102,0.09433498,0,0.3,0,0.4789832,0.2367016,0.4789832
6.38234E+17,42.50217,40.07024,45.03687,48.71425,-34.59632,-26.72828,18.89509,37.77918,32.54609,59.55453,12.9398,-117.9185,0,0,0,132.6916,14.95891,-23.55359,57.36314,-7.365724,-0.7591026,0.001067912,-0.1257102,0.09433498,0,0.3,0,0.5037594,0.2302603,0.5037594
6.38234E+17,43.44457,39.48579,44.38315,49.08047,-33.35115,-24.0182,18.84797,38.12985,32.98969,59.40804,12.50033,-118.065,0,0,0,134.91,12.84314,-25.90875,57.34359,-6.1634,-0.3654462,0.001067912,-0.1257102,0.09433498,0,0.3,0,0.5208331,0.2235334,0.5208331
6.38234E+17,43.98645,39.13511,43.9629,49.30021,-32.83843,-23.21251,18.98933,38.27012,33.12977,59.40804,12.28059,-118.1382,0,0,0,136.123,11.5301,-27.32375,57.78109,-5.728994,-0.4399587,0.001067912,-0.1257102,0.09433498,0,0.3,0,0.5278578,0.220118,0.5278578
6.38234E+17,45.32936,38.03634,42.91228,49.88617,-31.66651,-23.79847,19.67257,38.31688,33.15312,59.26155,11.54814,-118.1382,0,0,0,139.2623,7.849936,-30.67965,59.77183,-5.613879,-1.161563,0.001067912,-0.1257102,0.09433498,0,0.3,0,0.5404071,0.2132113,0.5404071
6.38234E+17,46.10685,37.26486,42.11847,50.10591,-30.93406,-25.77609,20.40293,38.31688,33.17647,59.26155,11.10867,-118.1382,0,0,0,140.9266,5.179815,-32.76572,61.91396,-5.584153,-1.894413,0.001067912,-0.1257102,0.09433498,0,0.3,0,0.5428601,0.2064344,0.5428601
6.38234E+17,47.11992,36.00243,40.83437,50.32565,-30.05512,-28.77914,21.86364,38.27012,33.12977,59.48129,10.37621,-118.1382,0,0,0,142.9457,0.8427367,-35.60926,66.12828,-5.728994,-3.548646,0.001067912,-0.1257102,0.09433498,0,0.3,0,0.5343497,0.2000601,0.5343497
6.38234E+17,47.59112,35.34784,40.18064,50.32565,-29.61565,-29.95106,22.68824,38.15323,33.05973,59.77427,10.08323,-118.065,0,0,0,143.8344,-1.383107,-36.97028,68.50539,-6.031764,-4.488136,0.001067912,-0.1257102,0.09433498,0,0.3,0,0.5277843,0.1970706,0.5277843
6.38234E+17,48.91048,33.45421,38.35956,49.95942,-27.78452,-31.70894,25.56256,37.2181,32.54609,61.09268,9.204292,-118.065,0,0,0,146.225,-7.70206,-40.83692,76.77663,-8.401738,-7.835706,0.001067912,-0.1257102,0.09433498,0,0.3,0,0.4988229,0.1891033,0.4988229
6.38234E+17,49.311,32.77624,37.77588,49.88617,-27.19856,-31.92868,26.50496,36.56351,32.21923,61.67865,8.984557,-118.065,0,0,0,146.9555,-9.861272,-41.99744,79.52769,-10.02762,-8.876678,0.001067912,-0.1257102,0.09433498,0,0.3,0,0.488728,0.1867908,0.488728
6.38234E+17,50.08848,31.30341,36.44508,49.4467,-25.88014,-32.14842,28.31907,34.62312,31.00517,62.70407,8.618331,-118.065,0,0,0,148.1567,-14.63563,-44.42113,84.64162,-15.18082,-11.27872,0.001067912,-0.1257102,0.09433498,0,0.3,0,0.4684716,0.1826414,0.4684716
6.38234E+17,50.74816,29.9241,35.20768,49.08047,-24.48849,-32.07517,29.92115,32.58922,30.09463,63.58302,8.545086,-115.8676,0,0,0,149.0315,-19.08401,-46.57818,89.39641,-20.20028,-13.0176,0.001067912,-0.1257102,0.09433498,0,0.3,0,0.4494555,0.179095,0.4494555
6.38234E+17,51.03088,29.26951,34.69404,48.78749,-23.90252,-32.07517,30.65151,31.56057,29.62768,64.16898,8.545086,-113.6703,0,0,0,149.4537,-21.09355,-47.45805,91.53677,-22.76996,-13.88686,0.001067912,-0.1257102,0.09433498,0,0.3,0,0.4406106,0.1775263,0.4406106
6.38234E+17,51.73767,27.70317,33.83019,48.42127,-22.87709,-32.14842,32.04155,29.52667,28.25019,65.3409,8.618331,-108.9826,0,0,0,150.9941,-25.42946,-49.26315,95.04461,-28.39787,-16.49198,0.001067912,-0.1257102,0.09433498,0,0.3,0,0.4285463,0.1747103,0.4285463
6.38234E+17,52.39735,26.09007,33.08308,48.12829,-21.77841,-32.14842,33.31378,27.49277,26.77931,66.07335,8.618331,-104.4414,0,0,0,152.5514,-29.73615,-50.85838,97.96628,-34.13877,-19.28876,0.001067912,-0.1257102,0.09433498,0,0.3,0,0.4186098,0.1721902,0.4186098
6.38234E+17,52.77431,25.29522,32.66283,48.05504,-21.19245,-32.07517,33.9499,26.37061,25.86877,66.51283,8.618331,-101.5848,0,0,0,153.3056,-31.93408,-51.87635,99.21498,-37.40693,-20.97996,0.001067912,-0.1257102,0.09433498,0,0.3,0,0.4147016,0.17103,0.4147016
6.38234E+17,53.50467,23.65874,31.86902,47.8353,-20.09377,-32.14842,35.2457,24.47698,24.18777,66.95229,8.691576,-96.0182,0,0,0,154.7905,-36.38667,-53.83057,101.5684,-43.0423,-24.61117,0.001067912,-0.1257102,0.09433498,0,0.3,0,0.4060996,0.1689077,0.4060996
6.38234E+17,54.35283,21.74173,31.40207,47.68882,-18.77536,-32.14842,37.38966,22.81713,23.04375,67.68475,8.984557,-91.69674,0,0,0,157.116,-41.07253,-55.67026,106.3341,-47.64755,-29.21871,0.001067912,-0.1257102,0.09433498,0,0.3,0,0.3839665,0.1672348,0.3839665
6.38234E+17,54.44707,20.36242,30.70166,47.46908,-17.60344,-32.07517,39.74566,21.69497,22.90367,68.71018,9.424027,-90.52482,0,0,0,157.103,-44.90925,-56.07037,112.4042,-50.19189,-33.17778,0.001067912,-0.1257102,0.09433498,0,0.3,0,0.3367228,0.166481,0.3367228
6.38234E+17,54.47063,19.87147,30.25806,47.10286,-17.16397,-31.85544,41.15925,21.11052,22.90367,69.66236,9.717009,-90.30508,0,0,0,156.7449,-46.50584,-56.42366,116.0313,-51.45834,-35.61814,0.001067912,-0.1257102,0.09433498,0,0.3,0,0.3066103,0.1666221,0.3066103
6.38234E+17,54.49419,19.21688,29.41755,46.00418,-16.50476,-30.53703,43.53881,20.15201,22.85697,71.85973,10.59595,-90.08535,0,0,0,155.8245,-48.91483,-57.17762,121.9147,-53.58833,-40.0529,0.001067912,-0.1257102,0.09433498,0,0.3,0,0.2548287,0.1677701,0.2548287
6.38234E+17,54.49419,18.56229,28.6471,45.12524,-16.13853,-28.63265,44.74036,19.49742,22.69354,73.98383,11.25516,-90.52482,0,0,0,154.9497,-51.22648,-57.80175,124.695,-55.16877,-42.51973,0.001067912,-0.1257102,0.09433498,0,0.3,0,0.2266708,0.1696727,0.2266708
6.38234E+17,54.47063,17.97784,28.22684,44.53928,-15.69907,-27.16775,45.91837,18.88959,22.71689,75.66847,11.69463,-90.59806,0,0,0,154.5513,-52.98392,-57.99004,127.6256,-56.48382,-44.75144,0.001067912,-0.1257102,0.09433498,0,0.3,0,0.2000724,0.1720955,0.2000724
6.38234E+17,54.47063,17.1596,28.18015,44.02656,-15.33284,-26.14231,47.21416,18.37527,22.71689,77.35311,11.91436,-90.23183,0,0,0,154.9412,-54.8508,-57.71165,130.6687,-57.6181,-47.4094,0.001067912,-0.1257102,0.09433498,0,0.3,0,0.1749816,0.1750239,0.1749816
6.38234E+17,54.44707,16.64528,28.25019,43.80682,-15.18635,-25.84933,47.82672,18.14149,22.71689,78.23206,11.91436,-89.3529,0,0,0,155.2957,-55.91904,-57.36206,132.0806,-58.13481,-48.69883,0.001067912,-0.1257102,0.09433498,0,0.3,0,0.1638648,0.1766496,0.1638648
6.38234E+17,54.42351,15.68677,28.43697,43.51384,-15.1131,-25.48311,48.8398,17.72068,22.71689,79.62371,11.98761,-85.83713,0,0,0,156.0664,-57.85526,-56.71428,134.4025,-59.06663,-50.85435,0.001067912,-0.1257102,0.09433498,0,0.3,0,0.1474137,0.1801296,0.1474137
6.38234E+17,54.39995,14.588,28.71714,43.36735,-15.25959,-25.33662,49.57016,17.27649,22.74024,80.50266,12.06085,-78.29288,0,0,0,157.029,-60.01186,-55.92804,136.164,-60.03159,-52.34301,0.001067912,-0.1257102,0.09433498,0,0.3,0,0.1382402,0.1837803,0.1382402
6.38234E+17,54.39995,13.72301,29.02065,43.29411,-15.40608,-25.33662,49.9,17.04271,22.81028,80.72239,12.1341,-73.60519,0,0,0,157.9323,-61.62284,-55.28133,137.0673,-60.48836,-52.92858,0.001067912,-0.1257102,0.09433498,0,0.3,0,0.1369992,0.1856098,0.1369992
6.38234E+17,54.39995,12.13329,29.53429,43.14762,-15.69907,-25.33662,50.34764,16.64528,23.0204,80.94212,12.1341,-67.08636,0,0,0,159.4532,-64.64423,-54.19248,138.5181,-61.18324,-53.54449,0.001067912,-0.1257102,0.09433498,0,0.3,0,0.1377008,0.1892023,0.1377008
6.38234E+17,54.39995,10.45006,29.93119,43.00113,-16.06529,-25.92258,50.79528,16.20109,23.32392,81.01537,12.35384,-62.54516,0,0,0,160.7291,-68.02766,-53.27903,140.1405,-61.89688,-54.03495,0.001067912,-0.1257102,0.09433498,0,0.3,0,0.1388253,0.1927015,0.1388253
6.38234E+17,54.37639,8.743448,30.21136,42.78139,-16.43152,-27.02126,51.29004,15.64002,23.34727,80.94212,12.72006,-59.10264,0,0,0,161.6787,-71.61716,-52.49859,141.4408,-63.13111,-54.99413,0.001067912,-0.1257102,0.09433498,0,0.3,0,0.1420467,0.1960771,0.1420467
6.38234E+17,54.37639,7.971967,30.37479,42.70815,-16.57801,-27.53397,51.59631,15.26597,23.34727,80.94212,12.9398,-56.83204,0,0,0,162.1579,-73.20175,-52.15528,142.2265,-63.97021,-55.60773,0.001067912,-0.1257102,0.09433498,0,0.3,0,0.1427092,0.1977244,0.1427092
6.38234E+17,54.37639,6.499141,30.91178,42.48841,-16.57801,-28.7059,52.1382,14.2607,23.34727,80.94212,12.79331,-51.63163,0,0,0,163.3828,-75.96521,-51.27753,143.7571,-66.23258,-56.59195,0.001067912,-0.1257102,0.09433498,0,0.3,0,0.1440982,0.2009404,0.1440982
6.38234E+17,54.35283,5.704282,31.68224,42.56165,-16.79774,-29.80457,52.44447,12.7645,23.34727,80.79563,12.1341,-48.40885,0,0,0,164.7396,-76.87317,-50.20279,144.9975,-69.61835,-56.86607,0.001067912,-0.1257102,0.09433498,0,0.3,0,0.1404702,0.2041564,0.1404702
6.38234E+17,54.35283,5.4705,33.57337,43.14762,-17.38371,-31.19623,52.44447,10.84749,23.34727,79.55046,10.96218,-46.65096,0,0,0,167.7947,-75.04165,-48.01171,145.7211,-73.98542,-56.30969,0.001067912,-0.1257102,0.09433498,0,0.3,0,0.1497126,0.2072121,0.1497126
6.38234E+17,54.35283,5.610769,36.00148,44.61252,-17.96966,-32.29491,52.44447,9.37466,23.34727,78.23206,9.936745,-43.50142,0,0,0,171.5403,-71.49277,-45.32544,146.1982,-77.35994,-55.9429,0.001067912,-0.1257102,0.09433498,0,0.3,0,0.1776276,0.2097259,0.1776276
6.38234E+17,54.35283,5.867929,37.75253,45.78444,-18.40914,-33.24709,52.44447,8.72007,23.37061,77.42635,9.497273,-41.15757,0,0,0,174.1407,-68.45171,-43.46049,146.4277,-78.84293,-55.76647,0.001067912,-0.1257102,0.09433498,0,0.3,0,0.2024214,0.210612,0.2024214
6.38234E+17,54.32927,6.779679,41.18458,48.42127,-19.28808,-36.25014,52.44447,7.761563,23.60409,75.59522,8.618331,-36.46988,0,0,0,178.9082,-61.26596,-39.92999,147.0762,-80.83412,-55.2678,0.001067912,-0.1257102,0.09433498,0,0.3,0,0.2547799,0.2115202,0.2547799
6.38234E+17,54.35283,8.579801,43.1224,50.76511,-19.80079,-39.76591,52.42091,7.55116,24.91153,74.05708,7.812634,-32.14842,0,0,0,181.2229,-54.08746,-38.38134,149.28,-80.06931,-53.47568,0.001067912,-0.1257102,0.09433498,0,0.3,0,0.2765271,0.2118104,0.2765271
6.38234E+17,54.35283,9.468172,44.42985,51.49756,-19.87404,-41.74353,52.39735,7.597916,26.0789,73.54436,7.446409,-30.31729,0,0,0,182.7448,-49.94028,-37.28988,151.1643,-78.792,-51.9267,0.001067912,-0.1257102,0.09433498,0,0.3,0,0.2850741,0.2118139,0.2850741
6.38234E+17,54.11723,11.40856,47.48834,53.69492,-20.31351,-45.40579,52.32668,7.644672,28.69379,73.61761,6.933692,-28.33967,0,0,0,185.5503,-40.38282,-34.11901,155.2859,-75.88494,-48.44683,0.001067912,-0.1257102,0.09433498,0,0.3,0,0.30786,0.2114539,0.30786
6.38234E+17,53.59891,13.41909,49.56625,56.40499,-21.04596,-48.62858,52.256,7.925211,31.82232,75.229,6.201241,-27.38748,0,0,0,186.0965,-32.1898,-31.14234,160.0407,-71.56946,-44.46004,0.001067912,-0.1257102,0.09433498,0,0.3,0,0.3096902,0.2109634,0.3096902
6.38234E+17,53.36331,14.35422,50.47679,57.57691,-21.41219,-49.87375,52.20887,8.20575,33.45663,76.40092,5.76177,-27.0945,0,0,0,186.2042,-28.45313,-29.87748,162.3974,-68.87154,-42.42192,0.001067912,-0.1257102,0.09433498,0,0.3,0,0.306586,0.2107558,0.306586
6.38234E+17,52.77431,16.48163,52.60139,59.77427,-22.36438,-52.95005,51.78479,9.304525,36.51513,79.98994,4.370111,-26.72828,0,0,0,186.1716,-19.80854,-26.90647,165.7367,-62.26311,-37.85683,0.001067912,-0.1257102,0.09433498,0,0.3,0,0.305573,0.2103624,0.305573
6.38234E+17,52.39735,17.86095,53.97888,61.45891,-23.02358,-55.66012,51.26648,10.35654,38.17278,83.06623,2.831963,-26.65503,0,0,0,186.0044,-14.17142,-25.09364,166.6159,-57.51044,-34.70538,0.001067912,-0.1257102,0.09433498,0,0.3,0,0.3061686,0.2099515,0.3061686
6.38234E+17,52.02039,19.1935,55.26298,62.92381,-23.90252,-59.17588,50.6068,11.57221,39.45688,85.77631,0.6346079,-27.82695,0,0,0,185.645,-8.794158,-23.41462,166.4498,-52.85957,-31.65963,0.001067912,-0.1257102,0.09433498,0,0.3,0,0.3083846,0.2095417,0.3083846
6.38234E+17,51.85547,19.80134,55.87001,63.43653,-24.26875,-60.78728,50.34764,12.15667,39.99387,86.80173,-0.6838052,-29.65808,0,0,0,185.484,-6.295372,-22.67908,166.3546,-50.72963,-30.47323,0.001067912,-0.1257102,0.09433498,0,0.3,0,0.3099533,0.2093167,0.3099533
6.38234E+17,51.54919,21.04038,57.01402,64.90143,-25.14769,-64.66927,50.15916,13.13855,40.9978,87.90041,-2.88116,-32.88087,0,0,0,185.0673,-1.374144,-21.40009,166.8802,-46.98255,-29.10896,0.001067912,-0.1257102,0.09433498,0,0.3,0,0.3145967,0.2087981,0.3145967
6.38234E+17,51.26648,22.0924,58.0413,66.07335,-26.09988,-68.55127,49.9,14.09706,41.97839,87.60744,-3.906592,-34.41902,0,0,0,184.6392,2.919925,-20.24865,167.1546,-43.3026,-27.5927,0.001067912,-0.1257102,0.09433498,0,0.3,0,0.3164588,0.2082457,0.3164588
6.38234E+17,50.93663,23.00415,58.95185,66.95229,-26.97882,-72.28677,49.311,15.19583,43.14575,85.26359,-4.126328,-33.46683,0,0,0,184.0116,6.686522,-19.00311,166.7259,-38.9908,-24.99876,0.001067912,-0.1257102,0.09433498,0,0.3,0,0.3118587,0.207761,0.3118587
6.38234E+17,50.77172,23.40158,59.34875,67.24528,-27.34505,-73.97141,48.86336,15.85042,43.82282,83.79868,-4.126328,-32.51464,0,0,0,183.6656,8.329733,-18.40498,166.1549,-36.43849,-23.21662,0.001067912,-0.1257102,0.09433498,0,0.3,0,0.3062582,0.2075897,0.3062582
6.38234E+17,50.46544,24.2432,60.1659,67.97772,-28.00425,-76.90121,47.82672,17.41676,44.92014,81.08862,-4.053083,-30.83001,0,0,0,182.99,11.76459,-17.31919,164.0816,-31.15971,-19.70928,0.001067912,-0.1257102,0.09433498,0,0.3,0,0.2978031,0.207385,0.2978031
6.38234E+17,50.1356,25.01468,60.91301,68.78342,-28.59021,-79.02532,46.6016,18.93634,46.08751,78.59828,-4.492554,-29.3651,0,0,0,182.1996,14.91075,-16.19973,161.448,-25.86168,-15.68479,0.001067912,-0.1257102,0.09433498,0,0.3,0,0.2901289,0.2073404,0.2901289
6.38234E+17,49.75864,25.76278,61.68347,69.51588,-29.24942,-81.58891,45.42361,20.01174,47.34826,76.62066,-5.517986,-28.63265,0,0,0,181.2822,18.05654,-14.93025,159.1139,-21.36596,-11.57164,0.001067912,-0.1257102,0.09433498,0,0.3,0,0.2875862,0.2073577,0.2875862
6.38234E+17,49.5466,26.20697,62.10373,69.95535,-29.76214,-82.98056,44.83461,20.52606,47.8619,75.74171,-6.177193,-28.41291,0,0,0,180.7191,19.84858,-14.25532,157.7697,-19.36021,-9.66676,0.001067912,-0.1257102,0.09433498,0,0.3,0,0.2895548,0.2073493,0.2895548
6.38234E+17,49.0754,27.00183,62.92088,70.90753,-30.78757,-85.76388,43.82153,21.27416,48.60901,74.35006,-7.422361,-27.97344,0,0,0,179.483,23.18977,-12.74199,155.3113,-16.43669,-6.514616,0.001067912,-0.1257102,0.09433498,0,0.3,0,0.2970193,0.2072341,0.2970193
6.38234E+17,48.41572,27.93695,63.80808,72.1527,-31.66651,-88.76694,42.76133,21.81186,49.19269,72.73866,-8.594284,-27.24099,0,0,0,177.621,26.9665,-10.73777,152.5846,-14.24898,-3.350363,0.001067912,-0.1257102,0.09433498,0,0.3,0,0.309535,0.2069128,0.309535
6.38234E+17,47.6618,28.82533,64.67193,73.47112,-32.47221,-91.91647,41.91317,22.16254,49.4962,71.347,-9.766206,-25.92258,0,0,0,175.4512,30.59626,-8.48771,150.2288,-12.95629,-0.9946993,0.001067912,-0.1257102,0.09433498,0,0.3,0,0.3230679,0.2063558,0.3230679
6.38234E+17,47.26128,29.29289,65.06883,74.20357,-32.91168,-93.45463,41.48909,22.25605,49.65963,70.61456,-10.27892,-24.97039,0,0,0,174.2294,32.3838,-7.357634,149.0949,-12.46522,0.2357629,0.001067912,-0.1257102,0.09433498,0,0.3,0,0.3301171,0.2059848,0.3301171
6.38234E+17,46.31889,30.29815,65.72256,75.81496,-33.93711,-96.89715,40.75874,22.46645,50.03319,69.36938,-11.52409,-22.77304,0,0,0,171.1753,35.79745,-4.879248,147.1782,-11.34785,2.406093,0.001067912,-0.1257102,0.09433498,0,0.3,0,0.3395758,0.2051204,0.3395758
6.38234E+17,44.9524,31.58395,66.09611,77.71934,-35.5485,-101.5848,40.09905,22.79375,50.64022,68.63693,-12.91575,-20.64893,0,0,0,166.3919,39.15779,-1.681396,145.5945,-9.557172,4.554856,0.001067912,-0.1257102,0.09433498,0,0.3,0,0.3395384,0.2042247,0.3395384
6.38234E+17,44.08069,32.40219,66.11945,78.81802,-36.64718,-103.8554,39.67498,23.07429,50.7803,68.78342,-13.79469,-19.98972,0,0,0,163.1504,40.82258,0.1217799,144.2802,-8.703526,5.590819,0.001067912,-0.1257102,0.09433498,0,0.3,0,0.3395631,0.2033629,0.3395631
6.38234E+17,43.44457,32.89313,66.11945,79.62371,-37.37963,-105.6133,39.32158,23.26131,50.827,69.07641,-14.4539,-19.76999,0,0,0,160.8461,41.78466,1.47518,143.1396,-8.219124,6.398074,0.001067912,-0.1257102,0.09433498,0,0.3,0,0.3397033,0.2029361,0.3397033
6.38234E+17,42.12521,33.5711,66.11945,81.52808,-39.21077,-109.8615,38.61478,23.61198,50.827,70.17509,-16.06529,-19.40376,0,0,0,156.3132,43.1045,4.492298,140.7704,-7.470302,7.896859,0.001067912,-0.1257102,0.09433498,0,0.3,0,0.3384255,0.2021076,0.3384255
6.38234E+17,40.82941,33.8984,66.09611,83.35921,-40.8954,-114.6225,38.02578,23.84577,50.85035,72.1527,-18.11616,-19.98972,0,0,0,152.0736,43.6883,7.64622,138.8375,-6.930065,9.189192,0.001067912,-0.1257102,0.09433498,0,0.3,0,0.3344254,0.2013614,0.3344254
6.38234E+17,39.53362,34.03867,65.76924,85.33684,-42.72653,-120.1891,37.46034,23.86915,50.85035,74.35006,-20.46,-21.23489,0,0,0,147.7411,43.26445,10.66026,137.0653,-6.880304,10.53321,0.001067912,-0.1257102,0.09433498,0,0.3,0,0.3278218,0.2007271,0.3278218
6.38234E+17,38.96818,34.06204,65.37234,86.14253,-43.60548,-122.533,37.17762,23.86915,50.85035,75.30224,-21.55868,-21.7476,0,0,0,145.7079,42.46848,11.78882,136.1809,-6.880304,11.20736,0.001067912,-0.1257102,0.09433498,0,0.3,0,0.3214903,0.2004852,0.3214903
6.38234E+17,38.0729,34.17893,64.0649,86.72849,-45.21687,-124.1443,36.49438,23.86915,50.85035,76.6939,-23.09683,-22.69979,0,0,0,141.98,39.94226,12.90037,134.0301,-6.880304,12.81849,0.001067912,-0.1257102,0.09433498,0,0.3,0,0.3038678,0.2002258,0.3038678
6.38234E+17,37.41322,34.48285,62.03368,85.70306,-46.97475,-123.8514,35.85826,23.86915,50.85035,77.79259,-24.41524,-24.31118,0,0,0,138.3398,36.31257,12.50445,132.0105,-6.880304,14.29534,0.001067912,-0.1257102,0.09433498,0,0.3,0,0.2794941,0.2003647,0.2794941
6.38234E+17,37.08338,34.57636,60.00248,83.21272,-48.07343,-119.4567,35.64622,23.86915,50.85035,78.81802,-25.22094,-25.99582,0,0,0,135.8409,32.35666,11.37218,131.3337,-6.880304,14.78263,0.001067912,-0.1257102,0.09433498,0,0.3,0,0.2534842,0.2007075,0.2534842
6.38234E+17,36.8949,34.57636,57.78448,79.25748,-48.87913,-111.9856,35.64622,23.86915,50.827,79.7702,-25.66041,-27.9002,0,0,0,133.6479,27.93706,9.685359,131.3137,-6.922436,14.75475,0.001067912,-0.1257102,0.09433498,0,0.3,0,0.2254636,0.2016936,0.2254636
6.38234E+17,36.72998,34.57636,54.37578,72.07946,-49.68482,-99.46073,35.66978,23.89252,50.7803,80.79563,-25.51392,-30.9765,0,0,0,130.4877,21.35475,6.521681,131.3361,-6.956907,14.62704,0.001067912,-0.1257102,0.09433498,0,0.3,0,0.1877729,0.2033063,0.1877729
6.38234E+17,36.70642,34.36596,50.17327,63.58302,-49.68482,-85.39766,35.69334,23.89252,50.12658,81.01537,-24.92796,-33.46683,0,0,0,127.0051,13.21656,2.000594,130.8461,-8.13012,13.78627,0.001067912,-0.1257102,0.09433498,0,0.3,0,0.1569063,0.2054488,0.1569063
6.38234E+17,36.70642,33.78151,45.83068,55.01333,-48.43966,-71.33459,35.74046,23.89252,47.97863,79.55046,-24.48849,-34.34578,0,0,0,123.4195,4.580485,-2.808764,129.0822,-11.9058,11.01952,0.001067912,-0.1257102,0.09433498,0,0.3,0,0.1410004,0.2078815,0.1410004
6.38234E+17,36.72998,33.47759,43.86951,51.42432,-47.56071,-65.62146,35.74046,23.89252,46.43771,78.23206,-24.26875,-33.54007,0,0,0,121.7867,0.7726132,-5.138946,127.6592,-14.53747,9.04208,0.001067912,-0.1257102,0.09433498,0,0.3,0,0.1371606,0.2091457,0.1371606
6.38234E+17,36.96558,32.56584,39.45688,44.39278,-44.85064,-54.26846,35.7169,23.82239,41.8383,73.32462,-24.19551,-28.11993,0,0,0,118.5396,-7.831859,-10.84581,123.1412,-22.13935,2.912448,0.001067912,-0.1257102,0.09433498,0,0.3,0,0.1284887,0.2117516,0.1284887
6.38234E+17,37.29542,31.25666,35.53454,38.67966,-41.33487,-44.96632,35.64622,23.44834,36.305,66.00011,-24.12226,-18.23184,0,0,0,116.0326,-15.97394,-16.01023,117.3088,-31.05075,-4.773749,0.001067912,-0.1257102,0.09433498,0,0.3,0,0.1184336,0.2144931,0.1184336
6.38234E+17,37.4839,30.55531,33.87688,36.18932,-39.4305,-40.93784,35.57554,23.09766,33.59671,61.89838,-24.04902,-13.25116,0,0,0,115.1133,-19.57101,-18.24414,114.2891,-35.41112,-8.568589,0.001067912,-0.1257102,0.09433498,0,0.3,0,0.1165496,0.2158805,0.1165496
6.38234E+17,37.86086,29.43316,31.07521,32.7468,-36.20771,-35.3712,35.52842,22.02227,29.06735,53.69492,-22.80385,-6.146383,0,0,0,113.5238,-25.33377,-22.3165,109.4845,-43.20263,-15.01927,0.001067912,-0.1257102,0.09433498,0,0.3,0,0.1232801,0.2185423,0.1232801
6.38234E+17,38.21426,28.42789,28.74048,30.25646,-33.13141,-31.56245,35.57554,20.87674,25.93881,47.1761,-20.46,-2.264389,0,0,0,112.209,-30.09057,-25.8308,106.4209,-49.04612,-19.56872,0.001067912,-0.1257102,0.09433498,0,0.3,0,0.1295251,0.2210532,0.1295251
6.38234E+17,38.61478,27.46939,26.89605,28.71832,-30.42134,-29.07212,35.74046,20.33904,22.99706,43.00113,-18.04291,-0.2135241,0,0,0,111.4857,-34.06438,-28.76813,103.4663,-53.05293,-24.57573,0.001067912,-0.1257102,0.09433498,0,0.3,0,0.1306679,0.2234914,0.1306679
6.38234E+17,38.85038,26.95507,26.10224,28.2056,-29.10293,-28.04669,35.8347,20.29228,21.59622,41.53622,-16.87099,0.3724372,0,0,0,111.3649,-35.95324,-30.08908,101.9588,-54.39191,-27.16094,0.001067912,-0.1257102,0.09433498,0,0.3,0,0.1296626,0.2247047,0.1296626
6.38234E+17,39.53362,25.7394,24.77145,27.54639,-26.53935,-26.14231,36.02318,20.24553,18.70116,39.04589,-14.60039,1.104889,0,0,0,112.0246,-39.81893,-32.61561,98.72511,-56.81469,-32.58209,0.001067912,-0.1257102,0.09433498,0,0.3,0,0.1334449,0.2270649,0.1334449
6.38234E+17,40.33466,24.64063,24.02434,27.61964,-24.70822,-24.89715,36.16454,20.22215,16.66995,37.65423,-13.28197,0.8119082,0,0,0,113.5908,-42.85124,-34.57243,96.41317,-58.30183,-36.4469,0.001067912,-0.1257102,0.09433498,0,0.3,0,0.1429246,0.2292626,0.1429246
6.38234E+17,40.90009,23.93928,23.79086,27.91262,-23.68279,-24.31118,36.28234,20.17539,15.75941,37.21476,-12.69601,0.006211365,0,0,0,115.0198,-44.55925,-35.56789,95.50223,-58.99571,-38.25545,0.001067912,-0.1257102,0.09433498,0,0.3,0,0.1504053,0.2302638,0.1504053
6.38234E+17,42.21945,22.39632,23.79086,28.86481,-21.9249,-23.65198,36.58862,20.01174,14.82551,36.6288,-11.59733,-2.264389,0,0,0,118.996,-47.86064,-37.20516,95.0246,-59.92665,-40.34615,0.001067912,-0.1257102,0.09433498,0,0.3,0,0.1659997,0.2320534,0.1659997
6.38234E+17,43.70373,20.78322,24.09438,30.54945,-19.80079,-23.359,37.1305,19.59093,14.75547,36.77529,-10.64515,-5.340686,0,0,0,123.7536,-51.06477,-38.86611,96.33607,-60.88974,-41.11171,0.001067912,-0.1257102,0.09433498,0,0.3,0,0.1790997,0.2336001,0.1790997
6.38234E+17,45.16444,19.70782,25.02827,32.52707,-18.04291,-23.359,37.81374,18.84283,14.75547,37.58098,-9.912696,-8.343738,0,0,0,129.0302,-52.50953,-40.05838,98.19783,-62.53385,-41.81678,0.001067912,-0.1257102,0.09433498,0,0.3,0,0.1987498,0.2348391,0.1987498
6.38234E+17,46.57804,18.91297,26.66258,34.87091,-16.79774,-24.38443,38.70901,17.76744,14.77882,38.75291,-9.25349,-10.98056,0,0,0,135.0863,-52.59725,-40.50711,100.6874,-64.89619,-42.71215,0.001067912,-0.1257102,0.09433498,0,0.3,0,0.2237859,0.2356627,0.2237859
6.38234E+17,47.11992,18.60905,27.47973,36.04284,-16.43152,-25.19013,39.15665,17.20636,14.82551,39.41211,-9.033754,-12.006,0,0,0,137.697,-52.40149,-40.48325,101.98,-66.11391,-43.11688,0.001067912,-0.1257102,0.09433498,0,0.3,0,0.234411,0.2359355,0.234411
6.38234E+17,47.96808,18.39865,29.32417,38.31343,-16.13853,-27.02126,40.21685,16.10758,15.08233,41.02351,-8.081567,-14.49633,0,0,0,142.4947,-50.82409,-39.90337,105.1259,-68.40961,-44.02455,0.001067912,-0.1257102,0.09433498,0,0.3,0,0.2535954,0.2362505,0.2535954
6.38234E+17,48.58064,18.46878,31.47211,40.58403,-16.13853,-29.3651,41.32417,15.56988,15.57263,42.92788,-6.909645,-16.47395,0,0,0,147.0543,-48.1398,-38.61583,108.4611,-69.3119,-44.99636,0.001067912,-0.1257102,0.09433498,0,0.3,0,0.2717723,0.2362397,0.2717723
6.38234E+17,48.722,18.58567,32.38266,41.68271,-16.21178,-30.61027,41.88961,15.5465,15.92284,44.02656,-6.470173,-17.42614,0,0,0,148.6607,-46.76114,-37.84952,110.2066,-69.14311,-45.47787,0.001067912,-0.1257102,0.09433498,0,0.3,0,0.2758476,0.2361776,0.2758476
6.38234E+17,48.81624,19.42729,34.11036,43.95331,-16.43152,-33.46683,43.11473,15.5465,16.76334,46.88312,-5.810967,-20.13621,0,0,0,150.9258,-42.70475,-36.29998,114.0915,-68.59267,-46.49199,0.001067912,-0.1257102,0.09433498,0,0.3,0,0.2821432,0.2359791,0.2821432
6.38234E+17,48.81624,20.75984,35.55789,45.85769,-17.45695,-36.54313,44.33985,15.5465,17.97739,50.03266,-5.444741,-22.91953,0,0,0,152.205,-37.86788,-35.18074,118.5556,-67.74911,-47.03051,0.001067912,-0.1257102,0.09433498,0,0.3,0,0.2845288,0.2357282,0.2845288
6.38234E+17,48.58064,21.90538,36.67855,47.39584,-18.92185,-39.91241,45.47073,15.56988,19.6117,53.47519,-5.517986,-25.92258,0,0,0,152.5088,-33.84707,-33.80377,123.4834,-66.47128,-46.87911,0.001067912,-0.1257102,0.09433498,0,0.3,0,0.278773,0.2355289,0.278773
6.38234E+17,48.39216,22.23267,37.02876,47.9818,-19.72755,-41.5238,45.89481,15.56988,20.47555,55.23307,-5.664476,-27.31424,0,0,0,152.3391,-32.65228,-33.05978,125.7353,-65.78221,-46.48189,0.001067912,-0.1257102,0.09433498,0,0.3,0,0.2725236,0.2354977,0.2725236
6.38234E+17,48.0152,22.39632,37.19219,48.71425,-21.04596,-43.64791,46.67228,15.64002,22.08651,58.82208,-6.250438,-30.53703,0,0,0,151.5636,-32.07043,-31.95427,129.8868,-64.26424,-45.83218,0.001067912,-0.1257102,0.09433498,0,0.3,0,0.2520344,0.2356664,0.2520344
6.38234E+17,47.61468,22.27943,36.91203,48.71425,-21.9249,-44.52685,47.3084,15.71015,23.32392,61.82513,-6.616664,-33.54007,0,0,0,150.2985,-32.71496,-31.17924,133.1593,-62.99548,-45.51028,0.001067912,-0.1257102,0.09433498,0,0.3,0,0.2299472,0.2361637,0.2299472
6.38234E+17,47.16704,21.62484,35.88475,48.20153,-22.51087,-44.45361,47.87384,15.80367,24.02434,64.53521,-6.543418,-36.03041,0,0,0,148.2286,-35.54671,-30.93033,135.4285,-62.13146,-45.86858,0.001067912,-0.1257102,0.09433498,0,0.3,0,0.201857,0.2370498,0.201857
6.38234E+17,46.88432,20.68971,34.74073,47.54232,-22.51087,-43.06195,48.133,15.80367,24.04768,65.70713,-6.103948,-37.05584,0,0,0,146.5362,-39.11545,-31.14865,136.0181,-62.10933,-46.44928,0.001067912,-0.1257102,0.09433498,0,0.3,0,0.180098,0.2382754,0.180098
6.38234E+17,46.7194,20.03512,34.06366,46.88312,-22.36438,-41.96327,48.22724,15.80367,24.04768,66.07335,-5.664476,-37.42207,0,0,0,145.58,-41.43406,-31.25538,136.2184,-62.10933,-46.67316,0.001067912,-0.1257102,0.09433498,0,0.3,0,0.1670321,0.2390326,0.1670321
6.38234E+17,46.366,18.60905,32.80291,45.34497,-21.99815,-39.69267,48.29792,15.80367,24.04768,66.21985,-4.785534,-37.86154,0,0,0,143.7542,-46.1827,-31.29198,136.3684,-62.10933,-46.84129,0.001067912,-0.1257102,0.09433498,0,0.3,0,0.1424342,0.2408151,0.1424342
6.38234E+17,46.03617,17.11284,31.58885,43.95331,-21.48543,-37.34882,48.29792,15.80367,24.04768,65.78037,-3.393876,-37.93478,0,0,0,142.0105,-51.00253,-31.38516,136.3684,-62.10933,-46.84129,0.001067912,-0.1257102,0.09433498,0,0.3,0,0.1202337,0.2429219,0.1202337
6.38234E+17,45.68277,15.78029,30.30475,42.70815,-20.97272,-35.22471,48.15656,15.80367,24.04768,64.90143,-1.635992,-36.25014,0,0,0,139.9574,-55.51379,-31.68909,136.0682,-62.10933,-46.50522,0.001067912,-0.1257102,0.09433498,0,0.3,0,0.1006914,0.2453124,0.1006914
6.38234E+17,45.51785,15.10232,29.62768,42.04893,-20.67974,-34.19928,47.99164,15.80367,24.04768,64.31547,-0.6838052,-34.712,0,0,0,138.8892,-57.82183,-31.94898,135.7169,-62.10933,-46.11407,0.001067912,-0.1257102,0.09433498,0,0.3,0,0.09122736,0.246598,0.09122736
6.38234E+17,45.23512,13.69963,28.36693,40.80377,-19.94728,-32.4414,47.59112,15.80367,24.04768,62.92381,1.293814,-31.41597,0,0,0,136.9688,-62.4062,-32.50081,134.8591,-62.10933,-45.16835,0.001067912,-0.1257102,0.09433498,0,0.3,0,0.07714315,0.2493134,0.07714315
6.38234E+17,45.02308,12.18004,27.45638,39.77834,-19.14159,-30.9765,46.90788,15.80367,24.04768,61.09268,3.417924,-27.53397,0,0,0,135.7006,-66.84497,-32.75872,133.3807,-62.10933,-43.56898,0.001067912,-0.1257102,0.09433498,0,0.3,0,0.07196435,0.2521092,0.07196435
6.38234E+17,44.9524,11.05789,26.94275,39.19238,-18.48238,-30.09755,46.24821,15.80367,24.02434,59.48129,5.175808,-24.31118,0,0,0,135.1536,-69.94953,-32.97163,131.8994,-62.13146,-42.07591,0.001067912,-0.1257102,0.09433498,0,0.3,0,0.0742567,0.2534823,0.0742567
6.38234E+17,44.9524,9.818846,26.38241,38.60641,-17.74993,-29.21861,45.47073,15.80367,23.97764,57.65016,6.494221,-20.72217,0,0,0,134.6994,-73.3707,-33.42667,130.103,-62.17566,-40.3674,0.001067912,-0.1257102,0.09433498,0,0.3,0,0.08302262,0.2561208,0.08302262
6.38234E+17,44.9524,8.158993,25.77538,38.02045,-17.09072,-28.41291,44.48121,15.80367,23.93095,55.08658,7.519653,-16.25422,0,0,0,134.2292,-77.80733,-33.89756,127.8038,-62.21979,-38.21053,0.001067912,-0.1257102,0.09433498,0,0.3,0,0.1032397,0.2584578,0.1032397
6.38234E+17,44.9524,7.293999,25.54191,37.80072,-16.79774,-28.04669,44.05713,15.80367,23.93095,53.84141,7.812634,-14.20335,0,0,0,134.0744,-80.03751,-34.05264,126.8371,-62.21979,-37.26816,0.001067912,-0.1257102,0.09433498,0,0.3,0,0.1155115,0.2594834,0.1155115
6.38234E+17,44.97597,5.680903,24.95823,37.36125,-16.28502,-27.31424,43.35033,15.80367,23.9076,51.64405,8.178861,-10.83407,0,0,0,133.561,-84.34714,-34.67688,125.1764,-62.24182,-35.74963,0.001067912,-0.1257102,0.09433498,0,0.3,0,0.1398706,0.2612385,0.1398706
6.38234E+17,44.99953,4.091186,24.02434,36.99502,-15.77231,-26.58179,42.59641,15.73353,23.88425,49.4467,8.398596,-8.050756,0,0,0,132.4402,-88.93452,-35.90762,123.4172,-62.42092,-34.11796,0.001067912,-0.1257102,0.09433498,0,0.3,0,0.1655553,0.2625994,0.1655553
6.38234E+17,44.99953,2.244308,23.23053,36.4823,-15.1131,-25.77609,41.79537,15.47637,23.79086,47.46908,8.545086,-5.560421,0,0,0,131.4113,-93.96663,-36.93653,121.5033,-63.08521,-32.43386,0.001067912,-0.1257102,0.09433498,0,0.3,0,0.1929104,0.2635435,0.1929104
6.38234E+17,44.97597,0.6312115,22.50677,35.96959,-14.23416,-25.11688,40.92365,14.91529,23.67413,45.41821,8.691576,-3.070086,0,0,0,130.3268,-98.37426,-37.91382,119.4827,-64.45474,-30.53036,0.001067912,-0.1257102,0.09433498,0,0.3,0,0.2140962,0.2641357,0.2140962
6.38234E+17,44.9524,-0.1402692,22.13321,35.67661,-13.79469,-24.67741,40.45245,14.44773,23.60409,44.31954,8.691576,-1.385447,0,0,0,129.7104,-100.5,-38.42397,118.4273,-65.57278,-29.45618,0.001067912,-0.1257102,0.09433498,0,0.3,0,0.2223728,0.2643302,0.2223728
6.38234E+17,44.88173,-0.9585064,21.45614,35.16389,-12.98899,-23.94496,39.58073,13.27882,23.48735,42.12218,8.691576,1.54436,0,0,0,128.5046,-102.9893,-39.31375,116.5572,-68.32254,-27.3601,0.001067912,-0.1257102,0.09433498,0,0.3,0,0.2268847,0.2646413,0.2268847
6.38234E+17,44.69325,-0.9351282,20.59229,34.79766,-12.62277,-23.28575,38.94461,12.2268,23.0671,40.29105,8.764822,3.521979,0,0,0,126.7602,-103.6562,-40.22516,114.7597,-71.09709,-26.35319,0.001067912,-0.1257102,0.09433498,0,0.3,0,0.2197298,0.2650252,0.2197298
6.38234E+17,44.59901,-0.9351282,20.07865,34.65118,-12.40303,-22.91953,38.82682,11.78261,22.43672,39.33887,8.838067,4.254431,0,0,0,125.7622,-104.0716,-40.81499,113.754,-72.67568,-27.00406,0.001067912,-0.1257102,0.09433498,0,0.3,0,0.2136026,0.2652769,0.2136026
6.38234E+17,44.52832,-0.9351282,19.37823,34.28495,-12.1833,-22.40681,38.82682,11.17478,21.03589,38.0937,8.984557,5.353109,0,0,0,124.5288,-104.6219,-41.75386,112.0318,-75.26942,-29.14401,0.001067912,-0.1257102,0.09433498,0,0.3,0,0.2014581,0.2659043,0.2014581
6.38234E+17,44.52832,-0.9351282,18.7712,33.99197,-12.03681,-21.96734,38.87394,10.09938,19.51831,37.36125,9.057802,6.158805,0,0,0,123.5924,-105.0836,-42.70575,110.3569,-78.95327,-31.45579,0.001067912,-0.1257102,0.09433498,0,0.3,0,0.1840593,0.2667491,0.1840593
6.38234E+17,44.45765,-0.9351282,18.14083,33.77223,-11.81707,-21.7476,38.85038,8.135615,19.1681,37.14151,9.424027,6.525032,0,0,0,122.4626,-105.548,-43.54671,110.2725,-83.73574,-31.44536,0.001067912,-0.1257102,0.09433498,0,0.3,0,0.1626123,0.2678717,0.1626123
6.38234E+17,44.36341,-0.9351282,17.69723,33.62574,-11.59733,-21.67436,38.85038,6.89657,19.12141,37.288,10.00999,6.378541,0,0,0,121.5703,-105.8657,-44.04775,110.4447,-86.6303,-31.23156,0.001067912,-0.1257102,0.09433498,0,0.3,0,0.1501037,0.2685629,0.1501037
6.38234E+17,43.93933,-0.9117499,16.73999,33.18628,-11.23111,-21.45462,38.85038,4.55875,18.95798,37.80072,11.84112,5.279863,0,0,0,119.171,-106.4708,-44.68304,110.5597,-92.16788,-31.08871,0.001067912,-0.1257102,0.09433498,0,0.3,0,0.1256986,0.2702051,0.1256986
6.38234E+17,43.25609,-0.9117499,15.85279,32.23409,-10.49866,-20.64893,38.85038,2.922275,18.60777,38.53317,14.03847,4.107941,0,0,0,116.3297,-107.0502,-44.71418,110.2316,-96.2308,-31.49618,0.001067912,-0.1257102,0.09433498,0,0.3,0,0.1056143,0.2721201,0.1056143
6.38234E+17,42.43149,-0.8883717,15.15238,31.2819,-9.546471,-19.33051,38.85038,2.291064,17.95405,39.19238,16.01609,3.155754,0,0,0,113.4791,-107.4315,-44.2116,109.3672,-98.1756,-32.56924,0.001067912,-0.1257102,0.09433498,0,0.3,0,0.0895925,0.274261,0.0895925
6.38234E+17,41.46553,-0.8649935,14.522,30.10997,-8.521038,-18.08535,38.85038,2.291064,17.72057,39.5586,16.89503,2.569792,0,0,0,110.4317,-107.7528,-43.37829,109.0428,-98.34205,-32.97208,0.001067912,-0.1257102,0.09433498,0,0.3,0,0.08160244,0.2765194,0.08160244
6.38234E+17,40.87653,-0.8182371,14.1251,29.45077,-8.008322,-17.42614,38.87394,2.291064,17.60384,39.77834,16.74854,2.496547,0,0,0,108.5565,-107.8725,-42.92522,108.9359,-98.42448,-33.21848,0.001067912,-0.1257102,0.09433498,0,0.3,0,0.07830589,0.2776747,0.07830589
6.38234E+17,39.4865,-0.4909423,13.28459,27.98586,-7.27587,-15.81474,38.85038,2.291064,16.88007,40.07132,16.01609,2.643037,0,0,0,104.2789,-107.5742,-41.78875,107.8712,-98.92377,-34.42659,0.001067912,-0.1257102,0.09433498,0,0.3,0,0.06861624,0.2800705,0.06861624
6.38234E+17,37.9551,0.07013461,12.51413,26.52096,-6.836399,-14.05686,38.68546,2.291064,15.71271,40.07132,14.55119,2.936018,0,0,0,99.7873,-106.6687,-40.42155,105.8553,-99.68614,-36.1522,0.001067912,-0.1257102,0.09433498,0,0.3,0,0.05847405,0.2825943,0.05847405
6.38234E+17,37.2483,0.3974294,12.21062,25.86176,-6.616664,-13.17792,38.49697,2.291064,15.17572,40.07132,13.74549,3.082508,0,0,0,97.7821,-106.0582,-39.75209,104.67,-100.019,-36.7475,0.001067912,-0.1257102,0.09433498,0,0.3,0,0.05523122,0.2838812,0.05523122
6.38234E+17,35.76402,1.239045,11.79037,24.25036,-6.470173,-11.34679,38.0729,2.291064,14.33522,39.70509,11.91436,3.082508,0,0,0,93.84277,-104.303,-38.06142,102.5266,-100.5172,-37.46555,0.001067912,-0.1257102,0.09433498,0,0.3,0,0.05418314,0.2864556,0.05418314
6.38234E+17,34.46822,2.267686,11.53355,22.71221,-6.836399,-10.02838,37.93154,2.33782,13.70484,39.48536,10.15648,2.569792,0,0,0,90.49967,-102.0309,-36.51559,101.3256,-100.7639,-38.33918,0.001067912,-0.1257102,0.09433498,0,0.3,0,0.06286793,0.2889117,0.06286793
6.38234E+17,33.33735,3.319705,11.46351,21.10082,-7.495606,-9.149435,37.93154,2.33782,12.58418,39.77834,8.764822,0.5921727,0,0,0,87.72675,-99.61792,-34.9883,99.76434,-101.357,-40.34249,0.001067912,-0.1257102,0.09433498,0,0.3,0,0.0753563,0.2911735,0.0753563
6.38234E+17,32.84259,3.974295,11.46351,20.36837,-7.935077,-8.856454,37.93154,2.33782,11.65029,39.92483,8.178861,-0.7994855,0,0,0,86.51933,-98.09752,-34.31716,98.45801,-101.8132,-42.01864,0.001067912,-0.1257102,0.09433498,0,0.3,0,0.08315069,0.2922176,0.08315069
6.38234E+17,32.04155,5.353609,11.46351,19.04996,-8.887264,-8.343738,37.88441,2.33782,9.47899,40.3643,7.446409,-3.875783,0,0,0,84.49858,-94.89802,-33.34195,95.30368,-102.7397,-45.85832,0.001067912,-0.1257102,0.09433498,0,0.3,0,0.1033487,0.2940793,0.1033487
6.38234E+17,31.42899,6.873192,11.48686,17.95128,-9.839451,-8.050756,37.53102,2.33782,8.591794,40.80377,7.299919,-7.831022,0,0,0,82.88176,-91.37075,-32.72223,93.30407,-103.064,-46.88997,0.001067912,-0.1257102,0.09433498,0,0.3,0,0.1190061,0.2956767,0.1190061
6.38234E+17,30.95779,8.696692,11.62694,16.77936,-10.86488,-7.831022,37.3661,2.33782,8.218237,41.8292,7.812634,-15.37527,0,0,0,81.63217,-87.10072,-32.26425,92.43209,-103.1911,-47.30547,0.001067912,-0.1257102,0.09433498,0,0.3,0,0.1379604,0.2970137,0.1379604
6.38234E+17,30.88711,9.304525,11.69698,16.41313,-11.15786,-7.757777,37.3661,2.33782,8.171543,42.34192,8.105616,-17.35289,0,0,0,81.43258,-85.67052,-32.21657,92.36681,-103.2066,-47.39096,0.001067912,-0.1257102,0.09433498,0,0.3,0,0.1440688,0.2975954,0.1440688
6.38234E+17,30.81643,10.91762,11.9538,15.90041,-12.03681,-7.611286,37.22474,2.33782,8.218237,44.68576,9.790254,-20.2827,0,0,0,81.22665,-81.85215,-32.17981,92.13317,-103.1911,-47.07779,0.001067912,-0.1257102,0.09433498,0,0.3,0,0.1583379,0.2985936,0.1583379
6.38234E+17,30.81643,12.62423,12.32736,15.53419,-12.98899,-7.684532,36.40014,2.47809,8.381668,47.46908,12.79331,-19.03753,0,0,0,81.247,-77.78101,-32.14569,90.59356,-102.81,-45.47251,0.001067912,-0.1257102,0.09433498,0,0.3,0,0.1673309,0.2994373,0.1673309
6.38234E+17,30.86355,14.40097,12.81765,15.46094,-13.79469,-7.684532,35.0101,2.852141,8.381668,49.30021,16.23583,-16.10773,0,0,0,81.43468,-73.51207,-32.0859,87.56287,-101.9404,-43.34417,0.001067912,-0.1257102,0.09433498,0,0.3,0,0.1745904,0.3001712,0.1745904
6.38234E+17,30.86355,15.40624,13.12116,15.60743,-14.30741,-7.757777,34.25618,3.132679,8.405016,49.73968,17.70073,-13.83713,0,0,0,81.47913,-71.09262,-32.01152,85.92154,-101.2804,-42.18659,0.001067912,-0.1257102,0.09433498,0,0.3,0,0.1799981,0.3004832,0.1799981
6.38234E+17,30.91067,17.62716,13.84493,15.82717,-15.25959,-7.684532,32.74835,3.834026,8.498405,49.73968,20.77703,-6.439363,0,0,0,81.67786,-65.74449,-31.9339,82.63461,-99.61917,-39.87195,0.001067912,-0.1257102,0.09433498,0,0.3,0,0.1946444,0.3009567,0.1946444
6.38234E+17,31.05203,19.89485,14.66208,16.33988,-16.21178,-7.611286,31.97087,4.675641,8.591794,48.93398,23.34061,1.397869,0,0,0,82.08945,-60.27917,-32.01081,80.92053,-97.63352,-38.70344,0.001067912,-0.1257102,0.09433498,0,0.3,0,0.2122552,0.3011882,0.2122552
6.38234E+17,31.14627,21.08714,15.12903,16.63286,-16.87099,-7.611286,31.78239,5.189961,8.661836,48.42127,24.73227,4.327676,0,0,0,82.35438,-57.40051,-32.07851,80.52428,-96.41648,-38.38844,0.001067912,-0.1257102,0.09433498,0,0.3,0,0.2211825,0.30121,0.2211825
6.38234E+17,31.33475,23.86915,16.15631,17.29207,-18.48238,-7.611286,31.61747,6.592653,8.918655,47.24934,27.73532,8.136425,0,0,0,82.71226,-50.77353,-32.49791,80.28388,-93.07784,-37.93952,0.001067912,-0.1257102,0.09433498,0,0.3,0,0.2388753,0.3010755,0.2388753
6.38234E+17,31.42899,25.90305,16.95012,17.80479,-19.72755,-7.684532,31.64103,7.621294,8.942002,46.29716,29.34671,9.454838,0,0,0,82.82036,-45.95324,-32.82271,80.21027,-90.69378,-38.17901,0.001067912,-0.1257102,0.09433498,0,0.3,0,0.2524859,0.3007568,0.2524859
6.38234E+17,31.45255,27.09534,17.41706,18.17101,-20.38675,-7.684532,31.66459,8.088859,8.942002,45.5647,30.00592,9.894309,0,0,0,82.7718,-43.14882,-33.02727,80.18572,-89.61578,-38.33858,0.001067912,-0.1257102,0.09433498,0,0.3,0,0.2621211,0.3005026,0.2621211
6.38234E+17,31.54679,29.36302,18.39765,18.83022,-21.77841,-7.684532,31.66459,9.070744,8.942002,43.95331,30.88486,10.11404,0,0,0,82.82442,-37.79732,-33.44023,80.00676,-87.35615,-38.62875,0.001067912,-0.1257102,0.09433498,0,0.3,0,0.279563,0.2998223,0.279563
6.38234E+17,31.61747,31.70084,19.49497,19.56267,-22.7306,-7.684532,31.66459,10.26303,8.96535,41.8292,31.25109,9.235103,0,0,0,82.80811,-32.28184,-33.83924,79.79033,-84.61221,-38.97966,0.001067912,-0.1257102,0.09433498,0,0.3,0,0.2953944,0.2989338,0.2953944
6.38234E+17,31.61747,33.94515,20.61563,20.14863,-23.82928,-7.757777,31.66459,11.66572,8.96535,39.5586,31.25109,8.06318,0,0,0,82.60833,-26.99822,-34.16376,79.46439,-81.40726,-39.50814,0.001067912,-0.1257102,0.09433498,0,0.3,0,0.3075911,0.297881,0.3075911
6.38234E+17,31.54679,36.47,21.96978,20.73459,-25.29418,-7.757777,31.71171,13.27882,8.96535,36.99502,30.37215,6.378541,0,0,0,82.20664,-21.05282,-34.44651,79.14413,-77.74168,-40.26327,0.001067912,-0.1257102,0.09433498,0,0.3,0,0.3211033,0.296674,0.3211033
6.38234E+17,31.42899,38.55066,23.20718,21.17406,-26.68584,-7.831022,31.82951,14.63475,8.96535,35.09065,28.90724,4.400921,0,0,0,81.7802,-16.10555,-34.52482,79.0059,-74.67912,-41.07293,0.001067912,-0.1257102,0.09433498,0,0.3,0,0.3326268,0.2953266,0.3326268
6.38234E+17,31.38187,39.74295,23.95429,21.3938,-27.41829,-7.904267,31.85307,15.42961,8.988697,34.2117,28.10155,3.155754,0,0,0,81.58774,-13.25795,-34.59266,78.83334,-72.884,-41.46739,0.001067912,-0.1257102,0.09433498,0,0.3,0,0.3390681,0.2945984,0.3390681
6.38234E+17,31.26407,41.87036,25.49521,21.83327,-29.17617,-8.197248,31.82951,17.11284,9.152128,32.38057,25.97744,0.8851534,0,0,0,81.32394,-8.010426,-34.40647,78.40039,-69.06354,-42.0484,0.001067912,-0.1257102,0.09433498,0,0.3,0,0.3483779,0.2930521,0.3483779
6.38234E+17,31.12271,43.90427,26.96609,22.1995,-30.86081,-8.856454,31.82951,18.72594,9.245518,30.69594,23.78008,-0.6529952,0,0,0,80.91534,-3.02924,-34.33524,77.90437,-65.45672,-42.84749,0.001067912,-0.1257102,0.09433498,0,0.3,0,0.3575594,0.2914235,0.3575594
6.38234E+17,31.00491,44.93291,27.73655,22.49248,-31.59327,-9.295925,31.82951,19.45066,9.315559,30.03673,22.90114,-1.238957,0,0,0,80.59694,-0.4954644,-34.24019,77.6983,-63.83646,-43.17945,0.001067912,-0.1257102,0.09433498,0,0.3,0,0.363425,0.290566,0.363425
6.38234E+17,30.65151,46.77979,29.27747,22.93195,-33.35115,-10.3946,31.82951,20.85336,9.525684,28.71832,21.58273,-2.410879,0,0,0,79.8024,4.209664,-33.68796,77.3596,-60.69172,-43.72509,0.001067912,-0.1257102,0.09433498,0,0.3,0,0.3739246,0.2887745,0.3739246
6.38234E+17,30.25099,48.32275,30.58492,23.22493,-34.96254,-11.27355,31.78239,22.18591,10.2728,27.91262,20.70378,-2.923595,0,0,0,78.85273,8.151596,-33.14436,77.56009,-57.50766,-43.17248,0.001067912,-0.1257102,0.09433498,0,0.3,0,0.3789783,0.2869188,0.3789783
6.38234E+17,29.73267,49.77219,31.91571,23.37142,-36.42745,-11.85951,31.61747,23.68212,11.93045,27.54639,20.48405,-1.458692,0,0,0,77.67605,11.96937,-32.34964,78.47275,-53.55791,-40.88147,0.001067912,-0.1257102,0.09433498,0,0.3,0,0.3779637,0.2850825,0.3779637
6.38234E+17,29.40283,50.42678,32.59278,23.44467,-37.1599,-12.07924,31.54679,24.4536,12.74761,27.61964,20.55729,0.07945653,0,0,0,76.9723,13.78759,-31.76196,78.90437,-51.51207,-39.82547,0.001067912,-0.1257102,0.09433498,0,0.3,0,0.376942,0.2841859,0.376942
6.38234E+17,28.69603,51.59569,33.80684,23.37142,-38.69805,-12.29898,31.33475,26.2771,14.54535,28.64507,21.2165,4.107941,0,0,0,75.40147,17.04638,-30.60374,79.59711,-46.69026,-37.61443,0.001067912,-0.1257102,0.09433498,0,0.3,0,0.3688509,0.2824824,0.3688509
6.38234E+17,27.77719,52.81136,35.23103,23.00519,-40.45593,-12.15249,30.53371,29.15262,17.58049,31.42839,23.12087,12.01842,0,0,0,73.4137,20.65861,-28.97408,79.6288,-38.81189,-33.34881,0.001067912,-0.1257102,0.09433498,0,0.3,0,0.3448396,0.2810354,0.3448396
6.38234E+17,27.16464,53.41919,36.09487,22.78546,-41.40812,-12.006,29.61487,31.11639,19.40158,33.40601,24.21955,17.73154,0,0,0,72.14861,22.67986,-27.75061,78.30611,-33.51514,-30.58958,0.001067912,-0.1257102,0.09433498,0,0.3,0,0.3260926,0.2798638,0.3260926
6.38234E+17,26.64632,53.84,36.7486,22.49248,-42.06733,-11.93275,28.69603,32.7061,20.73237,34.79766,24.95201,21.61354,0,0,0,71.06915,24.16397,-26.71428,76.54472,-29.3118,-28.51521,0.001067912,-0.1257102,0.09433498,0,0.3,0,0.3100541,0.2794203,0.3100541
6.38234E+17,25.79816,54.3777,37.77588,21.97976,-43.23925,-11.78626,26.99972,35.32447,22.60015,36.6288,26.41691,27.32666,0,0,0,69.35167,26.34519,-24.8774,72.65826,-22.65617,-25.74837,0.001067912,-0.1257102,0.09433498,0,0.3,0,0.2834134,0.2787805,0.2834134
6.38234E+17,24.78508,54.86864,38.75646,21.32055,-44.33792,-10.76083,24.90288,38.17661,24.39789,37.94721,27.73532,33.91872,0,0,0,67.16475,28.4201,-22.89269,67.33541,-15.66973,-23.30735,0.001067912,-0.1257102,0.09433498,0,0.3,0,0.2544974,0.2785065,0.2544974
6.38234E+17,23.79556,55.26608,39.55027,20.51486,-45.29012,-9.442415,22.42908,40.77158,26.12559,38.53317,28.76075,40.21781,0,0,0,64.91483,30.11625,-21.13747,60.93488,-9.292196,-20.72365,0.001067912,-0.1257102,0.09433498,0,0.3,0,0.2286181,0.2785539,0.2286181
6.38234E+17,23.32436,55.40634,39.80709,20.00214,-45.72958,-8.783209,21.15685,41.87036,27.01279,38.60641,29.20022,43.22086,0,0,0,63.77781,30.68357,-20.43274,57.69925,-6.44809,-19.25949,0.001067912,-0.1257102,0.09433498,0,0.3,0,0.217226,0.2786871,0.217226
6.38234E+17,22.3584,55.6635,40.1106,18.46399,-46.46204,-6.952079,18.35321,43.764,28.97396,38.45993,30.07917,50.17915,0,0,0,61.29336,31.47594,-19.33418,50.66356,-1.073118,-15.63343,0.001067912,-0.1257102,0.09433498,0,0.3,0,0.1986155,0.2791298,0.1986155
6.38234E+17,21.36888,55.85053,40.29738,16.48637,-46.97475,-4.901215,15.66737,45.37709,30.7717,38.31343,31.1046,57.50367,0,0,0,58.70066,32.00149,-18.3238,43.71994,3.685211,-12.47069,0.001067912,-0.1257102,0.09433498,0,0.3,0,0.1876493,0.2797171,0.1876493
6.38234E+17,20.45005,55.94404,40.46081,14.65524,-47.34098,-2.557369,13.7119,46.56938,31.96241,38.38668,31.83705,63.58302,0,0,0,56.32555,32.36993,-17.29913,38.46337,7.0562,-10.70917,0.001067912,-0.1257102,0.09433498,0,0.3,0,0.1824309,0.2800547,0.1824309
6.38234E+17,19.43697,55.9908,40.67094,12.38465,-47.7072,-0.3600145,12.01558,47.64478,32.82626,38.60641,32.42301,69.73561,0,0,0,53.73969,32.74887,-16.06158,33.75172,9.83682,-9.772704,0.001067912,-0.1257102,0.09433498,0,0.3,0,0.1786057,0.2809489,0.1786057
6.38234E+17,17.69353,56.15445,40.92776,8.50265,-48.00018,3.81496,9.942304,48.95396,33.59671,38.82615,32.93573,77.93907,0,0,0,49.12305,33.35201,-14.3671,27.85892,12.84591,-9.418493,0.001067912,-0.1257102,0.09433498,0,0.3,0,0.1718636,0.2827659,0.1718636
6.38234E+17,16.65689,56.24796,41.11454,5.93907,-48.14668,6.451786,8.952785,49.53841,33.80684,39.11913,33.15546,82.04079,0,0,0,46.37136,33.75839,-13.36264,25.01306,14.00525,-9.577055,0.001067912,-0.1257102,0.09433498,0,0.3,0,0.1681283,0.2836483,0.1681283
6.38234E+17,13.54698,56.45836,41.60483,-2.70386,-48.36641,15.31445,6.620349,50.82421,33.85353,40.58403,33.74142,93.76003,0,0,0,37.99989,34.78374,-10.63883,18.2761,15.98204,-10.8841,0.001067912,-0.1257102,0.09433498,0,0.3,0,0.1556966,0.2858098,0.1556966
6.38234E+17,12.67526,56.45836,41.69822,-5.413931,-48.29316,18.09777,6.172709,50.91772,33.85353,41.31649,33.88792,97.49553,0,0,0,35.63175,34.92819,-9.920511,17.02716,16.11938,-10.91397,0.001067912,-0.1257102,0.09433498,0,0.3,0,0.1511456,0.286357,0.1511456
6.38234E+17,10.97894,56.48174,41.86165,-11.49328,-48.00018,23.88414,5.84287,50.80084,33.55002,43.36735,34.1809,103.9411,0,0,0,30.97169,35.21168,-8.701242,16.08221,15.5557,-11.19327,0.001067912,-0.1257102,0.09433498,0,0.3,0,0.1412677,0.2875159,0.1412677
6.38234E+17,9.494664,56.45836,42.02508,-16.91342,-47.48747,28.86481,5.93711,50.4034,32.80291,45.5647,34.40063,108.1893,0,0,0,26.88012,35.43586,-7.628782,16.26407,14.0171,-11.95655,0.001067912,-0.1257102,0.09433498,0,0.3,0,0.138229,0.2887667,0.138229
6.38234E+17,8.858545,56.45836,42.02508,-19.11078,-47.19449,30.69594,6.03135,50.02935,32.38266,46.3704,34.47387,109.7275,0,0,0,25.09411,35.43586,-7.340261,16.505,12.93318,-12.13772,0.001067912,-0.1257102,0.09433498,0,0.3,0,0.1396144,0.2894017,0.1396144
6.38234E+17,7.609867,56.45836,42.02508,-23.06602,-46.60852,34.06521,6.45543,48.76693,31.14525,47.61557,34.54712,112.9503,0,0,0,21.57946,35.43586,-6.831649,17.63626,9.505038,-12.48057,0.001067912,-0.1257102,0.09433498,0,0.3,0,0.1522631,0.2906203,0.1522631
6.38234E+17,6.26695,56.45836,42.04842,-26.65503,-45.87607,36.70204,7.091548,46.89668,29.60433,48.34802,34.62037,116.2463,0,0,0,17.79256,35.47224,-6.330155,19.38197,4.769685,-12.55487,0.001067912,-0.1257102,0.09433498,0,0.3,0,0.1777547,0.2916447,0.1777547
6.38234E+17,4.924032,56.48174,42.07177,-29.73133,-45.14362,38.97264,7.798347,44.65237,28.11011,48.78749,35.13308,119.6156,0,0,0,13.99012,35.5387,-5.962662,21.39692,-0.5516823,-12.11515,0.001067912,-0.1257102,0.09433498,0,0.3,0,0.2114721,0.2923144,0.2114721
6.38234E+17,4.264353,56.50512,42.14182,-31.19623,-44.70415,39.99807,8.151747,43.55359,27.54977,48.93398,35.42606,121.227,0,0,0,12.1252,35.67804,-5.736989,22.44899,-2.996841,-11.62998,0.001067912,-0.1257102,0.09433498,0,0.3,0,0.2290085,0.292494,0.2290085
6.38234E+17,2.827195,56.5285,42.49202,-34.27253,-43.75196,42.26867,8.952785,41.35604,26.31237,49.22696,35.93878,124.3033,0,0,0,8.070454,36.25679,-4.927403,24.77545,-8.07454,-11.08531,0.001067912,-0.1257102,0.09433498,0,0.3,0,0.2703824,0.292531,0.2703824
6.38234E+17,1.649197,56.5285,43.00566,-36.90935,-43.09276,44.46603,9.494664,39.67281,24.88819,49.30021,36.15851,125.7682,0,0,0,4.73429,37.06824,-3.918535,26.18838,-12.4849,-11.76484,0.001067912,-0.1257102,0.09433498,0,0.3,0,0.3090256,0.292072,0.3090256
6.38234E+17,1.060198,56.50512,43.26248,-38.30101,-42.72653,45.49146,9.636024,38.92471,24.09438,49.22696,36.305,126.1344,0,0,0,3.052629,37.44689,-3.397067,26.47779,-14.59816,-12.40026,0.001067912,-0.1257102,0.09433498,0,0.3,0,0.3274146,0.2916735,0.3274146
6.38234E+17,-0.1177998,56.43498,43.65939,-41.23082,-42.06733,47.68882,9.706704,37.63891,22.64685,48.27478,36.08527,126.6471,0,0,0,-0.3408584,37.99213,-2.562607,26.46132,-18.28356,-13.65386,0.001067912,-0.1257102,0.09433498,0,0.3,0,0.3593276,0.2905544,0.3593276
6.38234E+17,-1.201558,56.31809,44.03294,-43.72115,-41.40812,49.59319,9.706704,36.75054,21.57287,46.22392,35.27958,128.1853,0,0,0,-3.494402,38.44375,-1.74534,26.28162,-20.87134,-14.70442,0.001067912,-0.1257102,0.09433498,0,0.3,0,0.3845915,0.2890859,0.3845915
6.38234E+17,-2.143956,56.22458,44.35981,-45.84526,-40.60242,51.49756,9.706704,36.3531,20.47555,43.4406,33.59494,128.5515,0,0,0,-6.261288,38.85323,-1.099437,25.97257,-22.53062,-16.51116,0.001067912,-0.1257102,0.09433498,0,0.3,0,0.4049391,0.2873278,0.4049391
6.38234E+17,-3.062795,56.13107,44.56993,-47.60315,-39.86997,53.1822,9.541784,36.42324,19.42492,39.63185,31.32433,125.109,0,0,0,-8.970834,39.07465,-0.6922754,25.13836,-23.23352,-18.79918,0.001067912,-0.1257102,0.09433498,0,0.3,0,0.4190972,0.2853525,0.4190972
6.38234E+17,-3.533994,56.08431,44.71001,-48.3356,-39.50375,53.84141,9.353305,36.42324,19.09806,37.36125,29.85943,122.0327,0,0,0,-10.3692,39.24305,-0.4500203,24.52954,-23.48447,-19.4259,0.001067912,-0.1257102,0.09433498,0,0.3,0,0.4251073,0.2843107,0.4251073
6.38234E+17,-4.476392,55.94404,45.13026,-49.58077,-38.91778,55.08658,8.787866,36.47,18.84124,31.9411,26.27042,115.0744,0,0,0,-13.20446,39.75121,0.3170564,22.96244,-23.59124,-19.8136,0.001067912,-0.1257102,0.09433498,0,0.3,0,0.4345569,0.2821265,0.4345569
6.38234E+17,-5.442351,55.6635,45.6906,-50.82594,-38.25858,56.47824,7.845467,36.56351,18.84124,25.935,22.09544,107.3836,0,0,0,-16.18409,40.31298,1.519484,20.49865,-23.41632,-19.58432,0.001067912,-0.1257102,0.09433498,0,0.3,0,0.4407841,0.2797749,0.4407841
6.38234E+17,-5.86643,55.52323,46.04081,-51.55839,-37.9656,57.35718,7.115108,36.65702,18.86459,22.56572,19.67835,102.7692,0,0,0,-17.52648,40.71349,2.227578,18.59098,-23.22406,-19.41288,0.001067912,-0.1257102,0.09433498,0,0.3,0,0.4418404,0.2785649,0.4418404
6.38234E+17,-6.714589,55.19594,46.81127,-53.02329,-37.45288,59.04182,5.018272,36.82067,19.02802,14.94823,14.47795,94.05301,0,0,0,-20.26735,41.57961,3.799391,13.14068,-22.79534,-18.70096,0.001067912,-0.1257102,0.09433498,0,0.3,0,0.439751,0.2761295,0.439751
6.38234E+17,-7.656987,54.84526,47.58173,-54.63469,-37.01341,60.87295,2.191077,37.05445,20.07865,5.865825,8.545086,86.28902,0,0,0,-23.34743,42.42734,5.313082,5.819017,-21.54208,-16.2592,0.001067912,-0.1257102,0.09433498,0,0.3,0,0.4273169,0.2736659,0.4273169
6.38234E+17,-8.646505,54.49459,48.2121,-56.31932,-36.57394,62.63083,-0.612559,37.28823,21.59622,-4.97446,1.733285,79.47723,0,0,0,-26.591,43.04389,6.514744,-1.658962,-19.85216,-13.18466,0.001067912,-0.1257102,0.09433498,0,0.3,0,0.4107959,0.2712967,0.4107959
6.38234E+17,-9.211945,54.26081,48.51562,-57.05178,-36.3542,63.43653,-1.319358,37.38175,21.85304,-10.83407,-1.562747,76.84039,0,0,0,-28.46132,43.25493,7.143672,-3.582648,-19.45787,-12.79377,0.001067912,-0.1257102,0.09433498,0,0.3,0,0.4107632,0.2701601,0.4107632
6.38234E+17,-10.38994,53.76987,49.00591,-58.37019,-35.695,64.97468,-1.460718,37.63891,21.80634,-20.57568,-6.763155,73.61761,0,0,0,-32.36559,43.44164,8.170759,-3.954562,-19.02352,-13.26825,0.001067912,-0.1257102,0.09433498,0,0.3,0,0.4210685,0.267898,0.4210685
6.38234E+17,-11.68574,53.18541,49.28608,-59.32237,-34.74281,66.21985,-2.026157,38.31688,21.75965,-25.99582,-9.985942,71.85973,0,0,0,-36.65696,43.1253,8.88187,-5.446914,-17.82008,-14.38604,0.001067912,-0.1257102,0.09433498,0,0.3,0,0.4248642,0.2656257,0.4248642
6.38234E+17,-13.31138,52.27366,49.56625,-60.05483,-33.57088,67.39177,-4.052313,39.13511,22.06317,-29.07212,-11.08462,70.24833,0,0,0,-42.15653,42.33556,9.826617,-10.84914,-16.0708,-15.20952,0.001067912,-0.1257102,0.09433498,0,0.3,0,0.4174588,0.2633742,0.4174588
6.38234E+17,-13.85326,51.94637,49.72968,-60.27456,-33.20466,67.68475,-4.947592,39.29876,22.27329,-29.73133,-10.79164,69.73561,0,0,0,-44.04264,42.15761,10.24275,-13.25892,-15.59118,-15.18644,0.001067912,-0.1257102,0.09433498,0,0.3,0,0.4143455,0.2622926,0.4143455
6.38234E+17,-15.14906,51.01124,50.12658,-61.00701,-31.813,68.56369,-8.010387,39.43903,23.41731,-31.04974,-7.935077,67.46501,0,0,0,-48.67047,41.50903,11.41868,-21.73664,-14.30509,-13.88897,0.001067912,-0.1257102,0.09433498,0,0.3,0,0.396144,0.2602764,0.396144
6.38234E+17,-16.42129,50.09949,50.3367,-61.9592,-30.49459,69.14965,-11.1203,39.46241,25.23839,-31.92868,-2.661425,63.0703,0,0,0,-53.20155,40.53677,12.16565,-30.82255,-12.51711,-11.54026,0.001067912,-0.1257102,0.09433498,0,0.3,0,0.369367,0.2585328,0.369367
6.38234E+17,-17.88201,49.14098,50.3834,-62.7649,-28.80995,69.44263,-13.9475,39.46241,27.52643,-32.14842,3.78415,58.30937,0,0,0,-58.32897,39.17523,12.43403,-39.66927,-10.15098,-8.621831,0.001067912,-0.1257102,0.09433498,0,0.3,0,0.3375271,0.257015,0.3375271
6.38234E+17,-18.37677,48.74355,50.4301,-63.05788,-28.0775,69.51588,-14.7721,39.46241,28.32023,-31.78219,6.127995,57.0642,0,0,0,-60.12961,38.65144,12.65125,-42.38011,-9.285823,-7.630831,0.001067912,-0.1257102,0.09433498,0,0.3,0,0.3271732,0.2563494,0.3271732
6.38234E+17,-19.48409,47.76167,50.64022,-63.57059,-26.4661,69.58913,-16.39773,39.48579,29.74442,-29.3651,11.98761,55.67254,0,0,0,-64.28861,37.50739,13.35581,-47.73085,-7.63526,-6.15079,0.001067912,-0.1257102,0.09433498,0,0.3,0,0.3092142,0.2551144,0.3092142
6.38234E+17,-20.63853,46.68627,50.85035,-64.15656,-24.78147,69.51588,-17.29301,39.46241,31.1686,-24.31118,17.92047,57.50367,0,0,0,-68.69307,36.18631,14.03249,-51.11898,-5.997165,-4.155316,0.001067912,-0.1257102,0.09433498,0,0.3,0,0.2935447,0.2539668,0.2935447
6.38234E+17,-21.79296,45.63425,50.99043,-64.81577,-23.31656,69.22289,-17.81133,39.46241,33.66676,-15.7415,23.92657,61.6054,0,0,0,-73.08559,34.74351,14.44211,-54.10343,-2.880492,0.04804087,0.001067912,-0.1257102,0.09433498,0,0.3,0,0.2661143,0.253021,0.2661143
6.38234E+17,-22.4762,44.95628,51.08382,-65.10874,-22.36438,68.63693,-18.21185,39.48579,35.65128,-9.149435,27.2226,64.82819,0,0,0,-75.74109,33.80254,14.72019,-56.45576,-0.2119748,3.241543,0.001067912,-0.1257102,0.09433498,0,0.3,0,0.243633,0.2526839,0.243633
6.38234E+17,-23.23012,44.20818,51.10716,-65.47498,-21.2657,67.53825,-19.13069,39.53254,38.52299,-0.4332596,30.15241,68.92992,0,0,0,-78.63887,32.60472,14.86216,-60.92459,3.901974,7.285417,0.001067912,-0.1257102,0.09433498,0,0.3,0,0.2067583,0.2523818,0.2067583
6.38234E+17,-24.1254,43.24968,51.10716,-65.98769,-19.72755,65.85361,-21.10972,39.55592,41.65152,9.674574,32.27652,73.98383,0,0,0,-82.12223,30.99271,15.01841,-68.9472,8.632193,10.24059,0.001067912,-0.1257102,0.09433498,0,0.3,0,0.1577787,0.2526421,0.1577787
6.38234E+17,-24.52592,42.73536,51.10716,-66.35391,-18.92185,64.97468,-22.31128,39.5793,42.56207,14.28902,32.93573,76.47417,0,0,0,-83.74086,30.11715,15.18248,-73.26073,10.09507,10.17797,0.001067912,-0.1257102,0.09433498,0,0.3,0,0.1383237,0.2530001,0.1383237
6.38234E+17,-25.35052,41.54307,51.10716,-67.01311,-17.45695,62.92381,-25.11492,39.64943,43.05236,23.15168,33.81467,82.04079,0,0,0,-87.17061,28.05953,15.6408,-82.21655,10.99623,7.044639,0.001067912,-0.1257102,0.09433498,0,0.3,0,0.1177847,0.254078,0.1177847
6.38234E+17,-26.15156,40.21051,50.96708,-67.67233,-16.13853,60.7997,-27.73007,39.55592,42.49202,31.86786,34.25414,87.09471,0,0,0,-90.53852,25.46106,16.04196,-89.75282,9.942941,2.38611,0.001067912,-0.1257102,0.09433498,0,0.3,0,0.1232222,0.2554018,0.1232222
6.38234E+17,-26.85836,38.78444,50.64022,-68.18504,-14.60039,58.5291,-29.61487,39.46241,42.02508,39.5586,33.88792,91.26969,0,0,0,-93.54275,22.31043,16.36545,-94.99071,9.044202,-1.237115,0.001067912,-0.1257102,0.09433498,0,0.3,0,0.1313357,0.2567931,0.1313357
6.38234E+17,-27.47091,37.26486,50.07989,-68.47802,-13.28197,56.33175,-30.95779,39.43903,42.00173,45.05199,32.93573,93.97977,0,0,0,-96.13335,18.52025,16.54955,-98.87813,8.965818,-3.514209,0.001067912,-0.1257102,0.09433498,0,0.3,0,0.1328672,0.2582691,0.1328672
6.38234E+17,-27.73007,36.42324,49.72968,-68.55127,-12.62277,55.30631,-31.66459,39.43903,42.00173,46.88312,32.34977,94.71221,0,0,0,-97.27096,16.32921,16.68782,-100.904,8.965818,-4.746477,0.001067912,-0.1257102,0.09433498,0,0.3,0,0.1360562,0.259055,0.1360562
6.38234E+17,-28.10703,34.99717,49.16934,-68.62451,-11.45084,53.47519,-33.17242,39.43903,42.00173,48.93398,31.17784,95.81089,0,0,0,-98.99947,12.64338,17.00477,-105.174,8.965818,-7.458283,0.001067912,-0.1257102,0.09433498,0,0.3,0,0.1508083,0.2606531,0.1508083
6.38234E+17,-28.48399,33.64123,48.49227,-68.55127,-10.05919,51.7173,-34.58602,39.43903,42.00173,49.73968,29.78619,96.83633,0,0,0,-100.5706,8.850822,17.00151,-109.1111,8.965818,-10.10183,0.001067912,-0.1257102,0.09433498,0,0.3,0,0.1677139,0.2622728,0.1677139
6.38234E+17,-28.64891,33.05678,48.11871,-68.40478,-9.473226,50.76511,-35.15146,39.43903,42.11847,49.66644,29.05373,97.34904,0,0,0,-101.185,7.065361,16.85999,-110.7836,9.147828,-11.02138,0.001067912,-0.1257102,0.09433498,0,0.3,0,0.17427,0.2630871,0.17427
6.38234E+17,-28.93163,31.86449,47.25487,-68.03855,-8.228058,48.27478,-36.09386,39.46241,42.79554,48.78749,27.80857,97.86176,0,0,0,-102.1634,3.237313,16.47739,-114.0208,10.25357,-11.95324,0.001067912,-0.1257102,0.09433498,0,0.3,0,0.1858247,0.2647748,0.1858247
6.38234E+17,-29.12011,30.8826,46.32097,-67.74557,-7.202625,45.19848,-36.75354,39.50917,43.68274,47.24934,26.85638,98.08149,0,0,0,-102.6256,-0.2978835,15.87956,-116.6726,11.75206,-12.12659,0.001067912,-0.1257102,0.09433498,0,0.3,0,0.196962,0.2665735,0.196962
6.38234E+17,-29.21435,30.4618,45.87738,-67.52583,-6.689909,43.66033,-37.03626,39.5793,44.21972,46.22392,26.49015,98.08149,0,0,0,-102.8229,-1.884157,15.52173,-117.9214,12.74533,-12.06892,0.001067912,-0.1257102,0.09433498,0,0.3,0,0.2032654,0.2675143,0.2032654
6.38234E+17,-29.30859,29.66694,45.06022,-67.08636,-5.737722,40.58403,-37.29542,39.81308,45.71395,44.02656,25.83095,98.15474,0,0,0,-102.926,-4.840961,14.99748,-119.9073,15.62157,-10.92304,0.001067912,-0.1257102,0.09433498,0,0.3,0,0.2170402,0.2694077,0.2170402
6.38234E+17,-29.37927,28.84871,44.33646,-66.5004,-5.078516,37.94721,-37.31898,39.95335,47.65177,41.68271,25.09849,98.00825,0,0,0,-103.0213,-7.687187,14.63803,-121.7208,19.15331,-8.678319,0.001067912,-0.1257102,0.09433498,0,0.3,0,0.2342176,0.2711922,0.2342176
6.38234E+17,-29.54419,27.72655,43.79947,-66.06093,-4.126328,35.60336,-37.31898,39.97673,49.16934,38.53317,24.58578,97.56878,0,0,0,-103.715,-10.85619,14.63625,-123.1209,21.83659,-6.841654,0.001067912,-0.1257102,0.09433498,0,0.3,0,0.2540007,0.2728856,0.2540007
6.38234E+17,-29.66199,26.83818,43.40257,-65.91444,-3.540367,34.2117,-37.31898,39.97673,49.9398,35.89634,24.51253,97.42229,0,0,0,-104.229,-13.33081,14.66487,-123.8262,23.20122,-5.916545,0.001067912,-0.1257102,0.09433498,0,0.3,0,0.268671,0.2744,0.268671
6.38234E+17,-29.73267,26.23034,43.21579,-65.98769,-3.027651,33.33276,-37.29542,39.97673,50.26667,34.2117,24.58578,96.76308,0,0,0,-104.6112,-14.89464,14.81026,-124.055,23.78486,-5.477474,0.001067912,-0.1257102,0.09433498,0,0.3,0,0.2772583,0.2750976,0.2772583
6.38234E+17,-29.77979,25.17833,42.58541,-65.91444,-2.148709,31.72137,-37.17762,39.97673,50.54683,30.69594,24.73227,95.44467,0,0,0,-104.7555,-18.0995,14.71308,-123.971,24.28733,-4.891643,0.001067912,-0.1257102,0.09433498,0,0.3,0,0.2923473,0.2763648,0.2923473
6.38234E+17,-29.77979,24.19644,41.69822,-65.62146,-1.196521,30.54945,-36.63574,39.85984,50.36005,27.32666,25.39147,94.8587,0,0,0,-104.4691,-21.56128,14.21263,-122.3586,23.74347,-3.80852,0.001067912,-0.1257102,0.09433498,0,0.3,0,0.3001871,0.2775029,0.3001871
6.38234E+17,-29.77979,23.09766,40.9978,-65.10874,-0.6838052,29.817,-35.7169,39.43903,49.37947,24.90957,26.78313,93.90652,0,0,0,-104.3707,-24.98073,14.04074,-119.2104,21.24446,-2.5544,0.001067912,-0.1257102,0.09433498,0,0.3,0,0.2961157,0.2785655,0.2961157
6.38234E+17,-29.77979,22.46645,40.76432,-64.74252,-0.4640697,29.59726,-35.15146,39.08836,48.32884,23.95738,27.95506,93.54029,0,0,0,-104.4492,-26.69083,14.17789,-116.9395,18.77124,-2.27917,0.001067912,-0.1257102,0.09433498,0,0.3,0,0.287995,0.2790952,0.287995
6.38234E+17,-29.77979,21.18065,40.50751,-64.01007,-0.02459868,29.52402,-34.16194,38.19999,45.55051,22.34599,30.95811,93.10082,0,0,0,-104.7765,-29.85814,14.74976,-112.3002,12.43237,-2.868888,0.001067912,-0.1257102,0.09433498,0,0.3,0,0.2673461,0.2802052,0.2673461
6.38234E+17,-29.77979,19.80134,40.39077,-63.27761,0.4148723,29.59726,-33.17242,36.98432,42.56207,20.73459,34.47387,92.95433,0,0,0,-105.2319,-33.04142,15.54565,-107.6354,5.354594,-3.692908,0.001067912,-0.1257102,0.09433498,0,0.3,0,0.2472548,0.2814601,0.2472548
6.38234E+17,-29.73267,18.63243,40.34408,-62.61841,0.8543434,29.74375,-32.37139,35.81541,40.78767,19.19645,37.40368,92.29513,0,0,0,-105.4837,-35.68069,16.33777,-104.5359,0.419152,-3.445872,0.001067912,-0.1257102,0.09433498,0,0.3,0,0.2364769,0.2821212,0.2364769
6.38234E+17,-29.68555,17.39338,40.34408,-61.88596,1.293814,29.817,-31.47611,34.59974,39.667,17.29207,40.11375,91.26969,0,0,0,-105.7734,-38.42305,17.19915,-101.7584,-3.577001,-2.13978,0.001067912,-0.1257102,0.09433498,0,0.3,0,0.22961,0.2834447,0.22961
6.38234E+17,-29.66199,15.82704,40.34408,-61.00701,1.806531,29.817,-29.96827,33.17367,38.52299,15.02147,42.97031,88.63287,0,0,0,-106.2128,-41.91631,18.14815,-97.24175,-8.011211,0.2932641,0.001067912,-0.1257102,0.09433498,0,0.3,0,0.2252326,0.2846159,0.2252326
6.38234E+17,-29.63843,15.07894,40.34408,-60.64079,1.953021,29.817,-29.09655,32.47232,37.93931,14.14253,44.14224,86.65524,0,0,0,-106.3655,-43.59449,18.59502,-94.57614,-10.22357,1.593856,0.001067912,-0.1257102,0.09433498,0,0.3,0,0.2245559,0.2851053,0.2245559
6.38234E+17,-29.56775,12.81126,40.36742,-59.76185,2.392492,30.03673,-26.62276,29.94748,35.4645,12.67763,46.85231,81.67458,0,0,0,-106.7828,-48.68122,19.86831,-86.44795,-18.69116,4.111455,0.001067912,-0.1257102,0.09433498,0,0.3,0,0.2256151,0.2862427,0.2256151
6.38234E+17,-29.54419,12.03977,40.36742,-59.46887,2.465737,30.03673,-25.93952,29.03573,34.41387,12.09166,47.8045,79.91669,0,0,0,-106.8959,-50.43469,20.24831,-83.96544,-21.93857,4.266909,0.001067912,-0.1257102,0.09433498,0,0.3,0,0.2278411,0.2864878,0.2278411
6.38234E+17,-29.54419,10.6137,40.36742,-58.8829,2.685472,30.18322,-24.97356,27.23561,32.56944,11.06623,50.00185,76.6939,0,0,0,-107.2173,-53.689,20.81541,-80.36615,-28.00163,4.203624,0.001067912,-0.1257102,0.09433498,0,0.3,0,0.2322663,0.2867133,0.2322663
6.38234E+17,-29.49707,9.187634,40.34408,-58.15046,2.905208,30.25646,-24.54948,25.24846,31.26199,9.528083,52.63868,73.91058,0,0,0,-107.3223,-56.9937,21.36417,-78.86325,-33.75832,4.304338,0.001067912,-0.1257102,0.09433498,0,0.3,0,0.2311498,0.2867028,0.2311498
6.38234E+17,-29.44995,8.556422,40.29738,-57.85748,2.978453,30.25646,-24.50236,24.38347,30.70166,8.429405,54.03033,72.66542,0,0,0,-107.2369,-58.51551,21.57751,-78.60796,-36.2569,4.12061,0.001067912,-0.1257102,0.09433498,0,0.3,0,0.2296817,0.2866463,0.2296817
6.38234E+17,-29.26147,7.41089,39.92382,-57.34475,3.124943,30.25646,-24.40812,23.65874,29.41755,5.353109,55.93471,71.05402,0,0,0,-106.4675,-61.71587,21.67221,-77.53904,-39.2945,2.519495,0.001067912,-0.1257102,0.09433498,0,0.3,0,0.2357996,0.2864698,0.2357996
6.38234E+17,-29.02587,6.63941,39.22341,-56.68555,3.271434,30.25646,-24.361,23.26131,28.6004,1.617605,56.8869,70.24833,0,0,0,-105.1821,-64.53643,21.20171,-76.86433,-41.0653,1.403515,0.001067912,-0.1257102,0.09433498,0,0.3,0,0.2385409,0.2861533,0.2385409
6.38234E+17,-28.86095,6.288737,38.84985,-56.24608,3.344679,30.25646,-24.31388,23.09766,28.50701,-0.4332596,57.17988,70.02859,0,0,0,-104.3545,-65.89497,20.99272,-76.70782,-41.51932,1.429307,0.001067912,-0.1257102,0.09433498,0,0.3,0,0.2383637,0.2859624,0.2383637
6.38234E+17,-28.48399,5.58739,38.07939,-55.66012,3.417924,30.18322,-24.21964,22.72361,28.34358,-4.534989,57.47286,69.73561,0,0,0,-102.5175,-68.6339,20.58954,-76.43026,-42.50227,1.559255,0.001067912,-0.1257102,0.09433498,0,0.3,0,0.2374004,0.2856239,0.2374004
6.38234E+17,-28.03635,5.026314,37.19219,-55.00091,3.63766,30.10997,-23.93692,22.18591,27.73655,-8.197248,57.61935,69.66236,0,0,0,-100.3264,-71.19502,20.04804,-75.27895,-44.32296,1.231492,0.001067912,-0.1257102,0.09433498,0,0.3,0,0.2359356,0.28546,0.2359356
6.38234E+17,-27.56516,4.488615,36.39838,-54.26846,3.78415,30.10997,-23.55996,21.62484,27.22291,-11.12705,57.69259,68.4172,0,0,0,-98.13705,-73.54871,19.64726,-73.93243,-46.08614,1.197503,0.001067912,-0.1257102,0.09433498,0,0.3,0,0.2343493,0.2854037,0.2343493
6.38234E+17,-27.306,4.184699,35.95479,-53.97548,3.857395,30.10997,-23.32436,21.29754,26.96609,-12.81169,57.69259,67.17203,0,0,0,-96.92794,-74.86343,19.39624,-73.13428,-47.0673,1.267363,0.001067912,-0.1257102,0.09433498,0,0.3,0,0.2334539,0.2853576,0.2334539
6.38234E+17,-26.74056,3.693756,35.11428,-53.09653,3.93064,30.03673,-22.90028,20.75984,26.42911,-15.59501,57.76584,64.90143,0,0,0,-94.38948,-77.14026,18.99213,-71.61713,-48.79689,1.189149,0.001067912,-0.1257102,0.09433498,0,0.3,0,0.2314891,0.2852273,0.2314891
6.38234E+17,-26.17512,3.436596,34.11036,-52.21759,4.077131,30.03673,-22.45264,20.2689,25.93881,-18.45157,57.69259,62.99706,0,0,0,-91.70424,-79.0648,18.22211,-70.05222,-50.37056,1.167185,0.001067912,-0.1257102,0.09433498,0,0.3,0,0.2275661,0.2850566,0.2275661
6.38234E+17,-25.58612,3.272949,33.12977,-51.4119,4.150376,30.03673,-21.69872,19.77796,25.6353,-21.45462,57.17988,61.53215,0,0,0,-88.97036,-80.70863,17.46099,-67.72514,-51.75141,1.846787,0.001067912,-0.1257102,0.09433498,0,0.3,0,0.224056,0.2848474,0.224056
6.38234E+17,-24.99712,3.156058,32.14919,-50.6062,4.150376,29.96349,-20.59141,19.05324,25.35513,-24.45767,56.22769,59.84751,0,0,0,-86.24992,-82.21115,16.63782,-64.41361,-53.62287,3.097711,0.001067912,-0.1257102,0.09433498,0,0.3,0,0.2200071,0.2845316,0.2200071
6.38234E+17,-24.7144,3.156058,31.63554,-50.09349,4.150376,30.03673,-19.97885,18.58567,25.21505,-26.06907,55.64173,58.96857,0,0,0,-84.91171,-82.84274,16.13915,-62.5962,-54.79216,3.829418,0.001067912,-0.1257102,0.09433498,0,0.3,0,0.2169838,0.2843384,0.2169838
6.38234E+17,-24.1254,3.156058,30.53822,-49.06805,4.223621,30.03673,-18.61237,17.41676,24.88819,-29.87782,54.17683,56.55148,0,0,0,-82.11677,-84.16139,15.00622,-58.52076,-57.70158,5.416831,0.001067912,-0.1257102,0.09433498,0,0.3,0,0.2104049,0.2838829,0.2104049
6.38234E+17,-23.55996,3.156058,29.27747,-47.82288,4.223621,30.03673,-17.22233,16.27123,24.23446,-33.39359,52.71193,53.91465,0,0,0,-79.28666,-85.6244,13.47623,-54.10726,-60.88568,6.201458,0.001067912,-0.1257102,0.09433498,0,0.3,0,0.2066297,0.2833451,0.2066297
6.38234E+17,-23.27724,3.156058,28.69379,-47.16368,4.223621,30.03673,-16.56265,15.80367,23.74417,-34.85849,51.97947,52.66949,0,0,0,-77.91891,-86.2827,12.77367,-51.88252,-62.39547,6.101723,0.001067912,-0.1257102,0.09433498,0,0.3,0,0.2062418,0.2830546,0.2062418
6.38234E+17,-22.8296,3.156058,27.66651,-45.91851,4.223621,30.10997,-15.33753,14.91529,22.55346,-37.71505,50.44132,49.81293,0,0,0,-75.68378,-87.41177,11.43454,-47.61163,-65.47861,5.241936,0.001067912,-0.1257102,0.09433498,0,0.3,0,0.2075703,0.2824346,0.2075703
6.38234E+17,-22.33484,3.156058,26.54584,-44.74659,4.150376,30.18322,-14.27734,14.12043,21.7363,-40.64486,48.17072,47.68882,0,0,0,-73.24621,-88.60017,9.933822,-44.07147,-67.98637,4.835466,0.001067912,-0.1257102,0.09433498,0,0.3,0,0.2073403,0.2817533,0.2073403
6.38234E+17,-21.79296,3.156058,25.33178,-43.35493,4.150376,30.10997,-13.61766,13.41909,21.64292,-43.57467,45.46065,46.22392,0,0,0,-70.61351,-89.83609,8.259263,-42.11854,-69.65209,5.512709,0.001067912,-0.1257102,0.09433498,0,0.3,0,0.2014563,0.2810709,0.2014563
6.38234E+17,-21.5338,3.179435,24.77145,-42.69572,4.223621,30.18322,-13.14646,13.16193,21.61957,-44.96632,44.14224,45.7112,0,0,0,-69.3792,-90.33398,7.475087,-40.70709,-70.25461,5.938004,0.001067912,-0.1257102,0.09433498,0,0.3,0,0.2016026,0.2807635,0.2016026
6.38234E+17,-21.01549,3.226192,23.76752,-41.5238,4.443357,30.10997,-11.92134,12.62423,21.45614,-46.72421,42.01813,44.75901,0,0,0,-67.01976,-91.1857,6.101497,-36.95598,-71.61413,6.695545,0.001067912,-0.1257102,0.09433498,0,0.3,0,0.2066026,0.2801904,0.2066026
6.38234E+17,-20.33225,3.436596,22.81028,-40.35188,4.736337,30.18322,-11.19098,12.39045,21.24601,-46.87069,40.84621,44.17305,0,0,0,-64.21384,-91.57765,4.942758,-34.65617,-72.32337,6.821168,0.001067912,-0.1257102,0.09433498,0,0.3,0,0.2035701,0.2796689,0.2035701
6.38234E+17,-20.00241,3.623622,22.41338,-39.76591,4.956073,30.18322,-11.09674,12.39045,21.24601,-46.79745,40.33349,44.02656,0,0,0,-62.91431,-91.49837,4.483061,-34.368,-72.32337,6.877933,0.001067912,-0.1257102,0.09433498,0,0.3,0,0.1987072,0.2794583,0.1987072
6.38234E+17,-19.34273,4.278211,21.71296,-39.03346,5.468789,30.18322,-10.83758,12.36707,21.22267,-47.09043,39.23481,43.80682,0,0,0,-60.3851,-90.59083,3.671423,-33.56774,-72.39619,6.993303,0.001067912,-0.1257102,0.09433498,0,0.3,0,0.1878545,0.279187,0.1878545
6.38234E+17,-18.18829,5.213339,20.63898,-38.08128,6.347731,28.93805,-10.15434,12.34369,21.08258,-47.31017,38.42912,43.66033,0,0,0,-56.12333,-89.32481,2.467748,-31.42292,-72.56699,7.093275,0.001067912,-0.1257102,0.09433498,0,0.3,0,0.1742175,0.2790158,0.1742175
6.38234E+17,-17.45793,5.797795,19.91522,-37.05584,6.933692,27.91262,-9.824504,12.34369,20.98919,-47.01719,38.13613,43.58709,0,0,0,-53.4282,-88.55461,1.537466,-30.3778,-72.64502,7.071368,0.001067912,-0.1257102,0.09433498,0,0.3,0,0.1646757,0.2789847,0.1646757
