zeyangz2/LSTM/data/srikar and zeyang_3.csv
Timestamp,Therapist joint angle 0,Therapist joint angle 1,Therapist joint angle 2,Therapist joint angle 3,Therapist joint angle 4,Therapist joint angle 5,Patient joint angle 0,Patient joint angle 1,Patient joint angle 2,Patient joint angle 3,Patient joint angle 4,Patient joint angle 5,Virtual joint angle 0,Virtual joint angle 1,Virtual joint angle 2,Therapist position x,Therapist position y,Therapist position z,Patient position x,Patient position y,Patient position z,Virtual position x,Virtual position y,Virtual position z,Assistive Force, Obstacle Force Magnitude, Therapist Constant Force, Patient Constant Force, Recovery Factor, Assistance Level
6.38255E+17,0,0,0,0,0,0,0,0,0,0,0,0,0,0,0,0,0,0,0,0,0,0,0,0,0,0.3,0,0,0,0
6.38255E+17,24.52592,-2.407955,0.2801672,-3.582802,45.60714,-82.02838,7.256468,-0.3039166,4.389286,9.747819,-63.16194,63.14355,0,0,0,55.57603,-115.601,-46.54559,18.13241,-110.3162,-25.94602,0.001067912,-0.1257102,0.09433498,0,0.3,0,0.11196,0,0.11196
6.38255E+17,24.52592,-2.407955,0.2801672,-3.582802,45.60714,-82.02838,7.256468,-0.3039166,4.389286,9.747819,-63.16194,63.0703,0,0,0,55.57603,-115.601,-46.54559,18.13241,-110.3162,-25.94602,0.001067912,-0.1257102,0.09433498,0,0.3,0,0.11196,0,0.11196
6.38255E+17,24.52592,-2.407955,0.2801672,-3.582802,45.60714,-82.02838,7.256468,-0.3039166,4.389286,9.747819,-63.16194,63.14355,0,0,0,55.57603,-115.601,-46.54559,18.13241,-110.3162,-25.94602,0.001067912,-0.1257102,0.09433498,0,0.3,0,0.11196,0,0.11196
6.38255E+17,24.52592,-2.407955,0.2801672,-3.582802,45.60714,-82.02838,7.256468,-0.3039166,4.389286,9.747819,-63.16194,63.14355,0,0,0,55.57603,-115.601,-46.54559,18.13241,-110.3162,-25.94602,0.001067912,-0.1257102,0.09433498,0,0.3,0,0.11196,0,0.11196
6.38255E+17,24.52592,-2.407955,0.2801672,-3.582802,45.60714,-82.02838,7.256468,-0.3039166,4.389286,9.747819,-63.16194,63.0703,0,0,0,55.57603,-115.601,-46.54559,18.13241,-110.3162,-25.94602,0.001067912,-0.1257102,0.09433498,0,0.3,0,0.11196,0,0.11196
6.38255E+17,24.52592,-2.407955,0.2801672,-3.509557,45.60714,-82.02838,7.256468,-0.3039166,4.389286,9.747819,-63.16194,63.14355,0,0,0,55.57603,-115.601,-46.54559,18.13241,-110.3162,-25.94602,0.001067912,-0.1257102,0.09433498,0,0.3,0,0.11196,8.86E-08,0.11196
6.38255E+17,24.52592,-2.407955,0.2801672,-3.582802,45.60714,-82.02838,7.256468,-0.3039166,4.365939,9.747819,-63.16194,63.0703,0,0,0,55.57603,-115.601,-46.54559,18.12557,-110.3204,-25.99977,0.001067912,-0.1257102,0.09433498,0,0.3,0,0.1119033,3.62E-05,0.1119033
6.38255E+17,24.52592,-2.407955,0.2801672,-3.582802,45.60714,-82.02838,7.280028,-0.3039166,4.365939,9.747819,-63.16194,63.14355,0,0,0,55.57603,-115.601,-46.54559,18.1841,-110.3204,-26.00723,0.001067912,-0.1257102,0.09433498,0,0.3,0,0.1117458,0.000178414,0.1117458
6.38255E+17,24.52592,-2.407955,0.2801672,-3.582802,45.60714,-82.02838,7.280028,-0.3039166,4.365939,9.747819,-63.16194,63.0703,0,0,0,55.57603,-115.601,-46.54559,18.1841,-110.3204,-26.00723,0.001067912,-0.1257102,0.09433498,0,0.3,0,0.1117253,0.000361524,0.1117253
6.38255E+17,24.52592,-2.407955,0.2801672,-3.582802,45.60714,-82.02838,7.280028,-0.3039166,4.365939,9.747819,-63.16194,63.14355,0,0,0,55.57603,-115.601,-46.54559,18.1841,-110.3204,-26.00723,0.001067912,-0.1257102,0.09433498,0,0.3,0,0.1117091,0.000506098,0.1117091
6.38255E+17,24.52592,-2.407955,0.2801672,-3.509557,45.60714,-82.02838,7.303588,-0.3039166,4.365939,9.747819,-63.16194,63.0703,0,0,0,55.57603,-115.601,-46.54559,18.24263,-110.3204,-26.01472,0.001067912,-0.1257102,0.09433498,0,0.3,0,0.111541,0.000743777,0.111541
6.38255E+17,24.52592,-2.407955,0.2801672,-3.582802,45.60714,-82.02838,7.327148,-0.3039166,4.365939,9.747819,-63.16194,63.0703,0,0,0,55.57603,-115.601,-46.54559,18.30116,-110.3204,-26.02224,0.001067912,-0.1257102,0.09433498,0,0.3,0,0.1113816,0.000903854,0.1113816
6.38255E+17,24.52592,-2.407955,0.2801672,-3.582802,45.60714,-82.02838,7.350708,-0.3039166,4.365939,9.747819,-63.16194,63.14355,0,0,0,55.57603,-115.601,-46.54559,18.35968,-110.3204,-26.02977,0.001067912,-0.1257102,0.09433498,0,0.3,0,0.1112031,0.001236676,0.1112031
6.38255E+17,24.52592,-2.407955,0.2801672,-3.509557,45.60714,-82.02838,7.374268,-0.3039166,4.365939,9.747819,-63.16194,63.0703,0,0,0,55.57603,-115.601,-46.54559,18.4182,-110.3204,-26.03733,0.001067912,-0.1257102,0.09433498,0,0.3,0,0.1110033,0.001760669,0.1110033
6.38255E+17,24.52592,-2.407955,0.2801672,-3.582802,45.60714,-82.02838,7.397828,-0.3039166,4.365939,9.747819,-63.16194,63.14355,0,0,0,55.57603,-115.601,-46.54559,18.47672,-110.3204,-26.04492,0.001067912,-0.1257102,0.09433498,0,0.3,0,0.110837,0.001985591,0.110837
6.38255E+17,24.52592,-2.407955,0.2801672,-3.582802,45.60714,-82.02838,7.468508,-0.3039166,4.365939,9.747819,-63.16194,63.14355,0,0,0,55.57603,-115.601,-46.54559,18.65225,-110.3204,-26.06782,0.001067912,-0.1257102,0.09433498,0,0.3,0,0.1103449,0.002601449,0.1103449
6.38255E+17,24.52592,-2.407955,0.2801672,-3.582802,45.60714,-82.02838,7.515628,-0.3039166,4.365939,9.747819,-63.16194,63.0703,0,0,0,55.57603,-115.601,-46.54559,18.76926,-110.3204,-26.08321,0.001067912,-0.1257102,0.09433498,0,0.3,0,0.1099855,0.003298364,0.1099855
6.38255E+17,24.52592,-2.407955,0.2801672,-3.582802,45.60714,-82.02838,7.539187,-0.3039166,4.365939,9.747819,-63.16194,63.0703,0,0,0,55.57603,-115.601,-46.54559,18.82775,-110.3204,-26.09094,0.001067912,-0.1257102,0.09433498,0,0.3,0,0.1097684,0.00398766,0.1097684
6.38255E+17,24.52592,-2.407955,0.2801672,-3.509557,45.60714,-82.02838,7.539187,-0.3039166,4.365939,9.747819,-63.16194,63.0703,0,0,0,55.57603,-115.601,-46.54559,18.82775,-110.3204,-26.09094,0.001067912,-0.1257102,0.09433498,0,0.3,0,0.109697,0.004635498,0.109697
6.38255E+17,24.52592,-2.407955,0.2801672,-3.582802,45.60714,-82.02838,7.586308,-0.3039166,4.365939,9.747819,-63.16194,63.0703,0,0,0,55.57603,-115.601,-46.54559,18.94474,-110.3204,-26.10647,0.001067912,-0.1257102,0.09433498,0,0.3,0,0.1093406,0.005314872,0.1093406
6.38255E+17,24.52592,-2.407955,0.2801672,-3.509557,45.60714,-82.02838,7.586308,-0.3039166,4.342592,9.747819,-63.16194,63.0703,0,0,0,55.57603,-115.601,-46.54559,18.93759,-110.3245,-26.16018,0.001067912,-0.1257102,0.09433498,0,0.3,0,0.1092506,0.00565673,0.1092506
6.38255E+17,24.52592,-2.407955,0.2801672,-3.509557,45.60714,-82.02838,7.633427,-0.3039166,4.342592,9.747819,-63.16194,63.0703,0,0,0,55.57603,-115.601,-46.54559,19.05452,-110.3245,-26.1758,0.001067912,-0.1257102,0.09433498,0,0.3,0,0.1088542,0.00670507,0.1088542
6.38255E+17,24.52592,-2.407955,0.2801672,-3.582802,45.60714,-82.02838,7.633427,-0.3039166,4.342592,9.747819,-63.23518,63.0703,0,0,0,55.57603,-115.601,-46.54559,19.05452,-110.3245,-26.1758,0.001067912,-0.1257102,0.09433498,0,0.3,0,0.1087821,0.007362918,0.1087821
6.38255E+17,24.52592,-2.407955,0.2801672,-3.582802,45.5339,-82.02838,7.656987,-0.3039166,4.342592,9.674574,-63.16194,63.0703,0,0,0,55.57603,-115.601,-46.54559,19.11298,-110.3245,-26.18365,0.001067912,-0.1257102,0.09433498,0,0.3,0,0.108605,0.007697954,0.108605
6.38255E+17,24.52592,-2.407955,0.2801672,-3.509557,45.60714,-82.02838,7.704108,-0.3039166,4.342592,9.674574,-63.16194,63.0703,0,0,0,55.57603,-115.601,-46.54559,19.22989,-110.3245,-26.19941,0.001067912,-0.1257102,0.09433498,0,0.3,0,0.1082468,0.008405942,0.1082468
6.38255E+17,24.52592,-2.407955,0.2801672,-3.582802,45.60714,-82.02838,7.798347,-0.3039166,4.319244,9.674574,-63.16194,63.0703,0,0,0,55.57603,-115.601,-46.54559,19.45632,-110.3286,-26.28492,0.001067912,-0.1257102,0.09433498,0,0.3,0,0.1075449,0.009220589,0.1075449
6.38255E+17,24.52592,-2.407955,0.2801672,-3.582802,45.60714,-82.02838,7.845467,-0.3039166,4.319244,9.674574,-63.16194,63.0703,0,0,0,55.57603,-115.601,-46.54559,19.57315,-110.3286,-26.30097,0.001067912,-0.1257102,0.09433498,0,0.3,0,0.1071689,0.01010442,0.1071689
6.38255E+17,24.52592,-2.407955,0.2801672,-3.582802,45.60714,-82.02838,7.892587,-0.3039166,4.295897,9.747819,-63.16194,63.0703,0,0,0,55.57603,-115.601,-46.54559,19.68252,-110.3327,-26.37078,0.001067912,-0.1257102,0.09433498,0,0.3,0,0.1067348,0.01104965,0.1067348
6.38255E+17,24.52592,-2.407955,0.2801672,-3.582802,45.60714,-82.02838,7.916147,-0.3039166,4.295897,9.674574,-63.16194,63.0703,0,0,0,55.57603,-115.601,-46.54559,19.7409,-110.3327,-26.37889,0.001067912,-0.1257102,0.09433498,0,0.3,0,0.1065425,0.01153546,0.1065425
6.38255E+17,24.52592,-2.407955,0.2801672,-3.509557,45.60714,-82.02838,7.986827,-0.3039166,4.27255,9.747819,-63.16194,63.0703,0,0,0,55.57603,-115.601,-46.54559,19.90849,-110.3367,-26.45701,0.001067912,-0.1257102,0.09433498,0,0.3,0,0.1059097,0.01304002,0.1059097
6.38255E+17,24.52592,-2.407955,0.2801672,-3.509557,45.60714,-82.10162,8.010387,-0.3039166,4.27255,9.747819,-63.16194,63.0703,0,0,0,55.57603,-115.601,-46.54559,19.96684,-110.3367,-26.46521,0.001067912,-0.1257102,0.09433498,0,0.3,0,0.1057151,0.01355321,0.1057151
6.38255E+17,24.52592,-2.407955,0.2801672,-3.509557,45.60714,-82.02838,8.057507,-0.3039166,4.249202,9.674574,-63.16194,63.0703,0,0,0,55.57603,-115.601,-46.54559,20.07592,-110.3408,-26.53533,0.001067912,-0.1257102,0.09433498,0,0.3,0,0.1052719,0.01460695,0.1052719
6.38255E+17,24.52592,-2.407955,0.2801672,-3.582802,45.60714,-82.02838,8.128186,-0.3039166,4.249202,9.747819,-63.16194,63.0703,0,0,0,55.57603,-115.601,-46.54559,20.25085,-110.3408,-26.5602,0.001067912,-0.1257102,0.09433498,0,0.3,0,0.1047359,0.01571491,0.1047359
6.38255E+17,24.52592,-2.407955,0.2801672,-3.582802,45.60714,-82.02838,8.222426,-0.3039166,4.225855,9.674574,-63.16194,63.0703,0,0,0,55.57603,-115.601,-46.54559,20.47629,-110.3448,-26.64734,0.001067912,-0.1257102,0.09433498,0,0.3,0,0.1040046,0.01687948,0.1040046
6.38255E+17,24.52592,-2.407955,0.2801672,-3.582802,45.60714,-82.02838,8.293106,-0.3039166,4.225855,9.674574,-63.16194,63.0703,0,0,0,55.57603,-115.601,-46.54559,20.65107,-110.3448,-26.6727,0.001067912,-0.1257102,0.09433498,0,0.3,0,0.1034575,0.01811438,0.1034575
6.38255E+17,24.52592,-2.407955,0.2801672,-3.582802,45.60714,-82.02838,8.410906,-0.3039166,4.202508,9.674574,-63.16194,63.0703,0,0,0,55.57603,-115.601,-46.54559,20.93439,-110.3488,-26.76907,0.001067912,-0.1257102,0.09433498,0,0.3,0,0.1025699,0.01947605,0.1025699
6.38255E+17,24.52592,-2.407955,0.2801672,-3.582802,45.60714,-82.02838,8.481586,-0.3039166,4.179161,9.674574,-63.08869,63.0703,0,0,0,55.57603,-115.601,-46.54559,21.10104,-110.3528,-26.8486,0.001067912,-0.1257102,0.09433498,0,0.3,0,0.102027,0.02020716,0.102027
6.38255E+17,24.52592,-2.407955,0.2801672,-3.582802,45.60714,-82.02838,8.717185,-0.3039166,4.132466,9.674574,-63.16194,63.0703,0,0,0,55.57603,-115.601,-46.54559,21.66628,-110.3606,-27.0437,0.001067912,-0.1257102,0.09433498,0,0.3,0,0.1002923,0.02263108,0.1002923
6.38255E+17,24.52592,-2.407955,0.2801672,-3.509557,45.60714,-82.02838,8.858545,-0.3039166,4.132466,9.747819,-63.16194,63.0703,0,0,0,55.57603,-115.601,-46.54559,22.01484,-110.3606,-27.09759,0.001067912,-0.1257102,0.09433498,0,0.3,0,0.09928127,0.02442878,0.09928127
6.38255E+17,24.52592,-2.407955,0.2801672,-3.582802,45.60714,-82.02838,8.952785,-0.3039166,4.109118,9.747819,-63.16194,63.0703,0,0,0,55.57603,-115.601,-46.54559,22.23871,-110.3645,-27.18753,0.001067912,-0.1257102,0.09433498,0,0.3,0,0.09858251,0.02539039,0.09858251
6.38255E+17,24.52592,-2.407955,0.2801672,-3.582802,45.60714,-82.02838,9.094145,-0.3039166,4.085772,9.674574,-63.16194,63.0703,0,0,0,55.57603,-115.601,-46.54559,22.57835,-110.3684,-27.29634,0.001067912,-0.1257102,0.09433498,0,0.3,0,0.09750547,0.02739787,0.09750547
6.38255E+17,24.52592,-2.407955,0.2801672,-3.582802,45.60714,-82.02838,9.235504,-0.3039166,4.062424,9.674574,-63.16194,63.0703,0,0,0,55.57603,-115.601,-46.54559,22.91759,-110.3723,-27.40598,0.001067912,-0.1257102,0.09433498,0,0.3,0,0.09632442,0.03049248,0.09632442
6.38255E+17,24.52592,-2.407955,0.2801672,-3.582802,45.60714,-82.02838,9.259066,-0.3039166,4.039077,9.747819,-63.08869,63.0703,0,0,0,55.57603,-115.601,-46.54559,22.96682,-110.3761,-27.46891,0.001067912,-0.1257102,0.09433498,0,0.3,0,0.09603498,0.03152736,0.09603498
6.38255E+17,24.52592,-2.407955,0.2801672,-3.582802,45.60714,-82.02838,9.282625,-0.3039166,4.039077,9.674574,-63.08869,63.0703,0,0,0,55.57603,-115.601,-46.54559,23.02475,-110.3761,-27.47836,0.001067912,-0.1257102,0.09433498,0,0.3,0,0.09569784,0.03355255,0.09569784
6.38255E+17,24.52592,-2.407955,0.2801672,-3.582802,45.60714,-82.02838,9.329745,-0.3039166,4.01573,9.674574,-63.16194,63.0703,0,0,0,55.57603,-115.601,-46.54559,23.13181,-110.3799,-27.55083,0.001067912,-0.1257102,0.09433498,0,0.3,0,0.09518006,0.03553238,0.09518006
6.38255E+17,24.52592,-2.407955,0.2801672,-3.509557,45.60714,-82.02838,9.353305,-0.3039166,4.01573,9.674574,-63.16194,63.0703,0,0,0,55.57603,-115.601,-46.54559,23.1897,-110.3799,-27.56036,0.001067912,-0.1257102,0.09433498,0,0.3,0,0.09485451,0.03745543,0.09485451
6.38255E+17,24.52592,-2.407955,0.2801672,-3.509557,45.60714,-82.10162,9.376864,-0.3039166,4.01573,9.747819,-63.16194,63.0703,0,0,0,55.57603,-115.601,-46.54559,23.24759,-110.3799,-27.56991,0.001067912,-0.1257102,0.09433498,0,0.3,0,0.09453386,0.03933454,0.09453386
6.38255E+17,24.52592,-2.407955,0.2801672,-3.509557,45.60714,-82.02838,9.376864,-0.3039166,4.01573,9.747819,-63.16194,63.0703,0,0,0,55.57603,-115.601,-46.54559,23.24759,-110.3799,-27.56991,0.001067912,-0.1257102,0.09433498,0,0.3,0,0.09444449,0.04024273,0.09444449
6.38255E+17,24.52592,-2.407955,0.2801672,-3.582802,45.60714,-82.10162,9.376864,-0.3039166,4.01573,9.674574,-63.16194,63.0703,0,0,0,55.57603,-115.601,-46.54559,23.24759,-110.3799,-27.56991,0.001067912,-0.1257102,0.09433498,0,0.3,0,0.09427157,0.04199995,0.09427157
6.38255E+17,24.52592,-2.407955,0.2801672,-3.582802,45.60714,-82.02838,9.400424,-0.3039166,3.992383,9.747819,-63.16194,63.14355,0,0,0,55.57603,-115.601,-46.54559,23.29663,-110.3837,-27.63295,0.001067912,-0.1257102,0.09433498,0,0.3,0,0.09391842,0.04371889,0.09391842
6.38255E+17,24.52592,-2.407955,0.2801672,-3.582802,45.60714,-82.02838,9.400424,-0.3039166,3.992383,9.674574,-63.08869,63.0703,0,0,0,55.57603,-115.601,-46.54559,23.29663,-110.3837,-27.63295,0.001067912,-0.1257102,0.09433498,0,0.3,0,0.09375663,0.04536626,0.09375663
6.38255E+17,24.52592,-2.407955,0.2801672,-3.582802,45.60714,-82.02838,9.400424,-0.3039166,3.992383,9.674574,-63.16194,63.0703,0,0,0,55.57603,-115.601,-46.54559,23.29663,-110.3837,-27.63295,0.001067912,-0.1257102,0.09433498,0,0.3,0,0.09360144,0.04694638,0.09360144
6.38255E+17,24.54948,-2.407955,0.2801672,-3.509557,45.60714,-82.02838,9.400424,-0.3039166,3.992383,9.674574,-63.16194,63.0703,0,0,0,55.62611,-115.601,-46.56845,23.29663,-110.3837,-27.63295,0.001067912,-0.1257102,0.09433498,0,0.3,0,0.09358788,0.04845077,0.09358788
6.38255E+17,24.8322,-2.407955,0.2801672,-4.681479,45.60714,-82.10162,9.400424,-0.3039166,3.992383,9.674574,-63.16194,63.0703,0,0,0,56.22635,-115.601,-46.84442,23.29663,-110.3837,-27.63295,0.001067912,-0.1257102,0.09433498,0,0.3,0,0.09507437,0.04969843,0.09507437
6.38255E+17,24.95,-2.407955,0.3035145,-6.219628,45.60714,-80.78321,9.400424,-0.3039166,3.992383,9.674574,-63.16194,63.0703,0,0,0,56.49896,-115.6007,-46.91101,23.29663,-110.3837,-27.63295,0.001067912,-0.1257102,0.09433498,0,0.3,0,0.09563291,0.050693,0.09563291
6.38255E+17,24.92644,-2.407955,0.350209,-6.952079,45.60714,-78.80559,9.400424,-0.3039166,3.992383,9.747819,-63.16194,63.0703,0,0,0,56.49482,-115.6001,-46.78923,23.29663,-110.3837,-27.63295,0.001067912,-0.1257102,0.09433498,0,0.3,0,0.0954259,0.05117881,0.0954259
6.38255E+17,24.85576,-2.384577,0.5136398,-8.709964,45.5339,-74.70387,9.400424,-0.3039166,3.992383,9.674574,-63.16194,63.0703,0,0,0,56.50566,-115.5429,-46.37245,23.29663,-110.3837,-27.63295,0.001067912,-0.1257102,0.09433498,0,0.3,0,0.09482456,0.05218215,0.09482456
6.38255E+17,24.40812,-2.384577,0.6537234,-10.17487,45.60714,-72.5065,9.400424,-0.3039166,3.992383,9.674574,-63.16194,63.14355,0,0,0,55.68568,-115.5396,-45.63783,23.29663,-110.3837,-27.63295,0.001067912,-0.1257102,0.09433498,0,0.3,0,0.09200685,0.05417137,0.09200685
6.38255E+17,24.0076,-2.361199,1.073974,-10.17487,45.60714,-72.28677,9.400424,-0.3039166,3.992383,9.674574,-63.16194,63.14355,0,0,0,55.22533,-115.4705,-44.35614,23.29663,-110.3837,-27.63295,0.001067912,-0.1257102,0.09433498,0,0.3,0,0.08934416,0.05596562,0.08934416
6.38255E+17,23.74844,-2.361199,1.260752,-9.808641,45.60714,-72.5065,9.400424,-0.3039166,3.992383,9.674574,-63.16194,63.0703,0,0,0,54.83895,-115.4616,-43.7098,23.29663,-110.3837,-27.63295,0.001067912,-0.1257102,0.09433498,0,0.3,0,0.0876107,0.05785013,0.0876107
6.38255E+17,23.23012,-2.361199,1.494225,-9.076189,45.60714,-73.09246,9.400424,-0.3039166,3.992383,9.747819,-63.16194,63.0703,0,0,0,53.92344,-115.4485,-42.71962,23.29663,-110.3837,-27.63295,0.001067912,-0.1257102,0.09433498,0,0.3,0,0.08433937,0.06016119,0.08433937
6.38255E+17,22.73536,-2.314442,1.657656,-8.563474,45.60714,-73.45869,9.400424,-0.3039166,3.992383,9.674574,-63.16194,63.0703,0,0,0,52.98527,-115.3294,-41.9039,23.29663,-110.3837,-27.63295,0.001067912,-0.1257102,0.09433498,0,0.3,0,0.0811606,0.06286646,0.0811606
6.38255E+17,22.49976,-2.197551,1.867781,-8.490229,45.60714,-73.53194,9.400424,-0.3039166,3.992383,9.747819,-63.16194,63.0703,0,0,0,52.65604,-115.0425,-41.2256,23.29663,-110.3837,-27.63295,0.001067912,-0.1257102,0.09433498,0,0.3,0,0.07951621,0.0643627,0.07951621
6.38255E+17,22.28772,-1.917013,2.124601,-8.416983,45.60714,-73.67843,9.400424,-0.3039166,3.992383,9.747819,-63.16194,63.0703,0,0,0,52.42066,-114.3691,-40.45718,23.29663,-110.3837,-27.63295,0.001067912,-0.1257102,0.09433498,0,0.3,0,0.07775838,0.06747512,0.07775838
6.38255E+17,22.02856,-1.239045,2.264685,-8.709964,45.60714,-73.67843,9.400424,-0.3039166,3.992383,9.747819,-63.16194,63.14355,0,0,0,51.98013,-112.7794,-39.87909,23.29663,-110.3837,-27.63295,0.001067912,-0.1257102,0.09433498,0,0.3,0,0.07557464,0.07074832,0.07557464
6.38255E+17,21.91076,-0.9818845,2.264685,-8.929699,45.60714,-73.75167,9.400424,-0.3039166,3.992383,9.747819,-63.16194,63.0703,0,0,0,51.72021,-112.181,-39.76173,23.29663,-110.3837,-27.63295,0.001067912,-0.1257102,0.09433498,0,0.3,0,0.0746534,0.07244503,0.0746534
6.38255E+17,21.86364,-1.192288,2.264685,-8.124002,45.60714,-73.67843,9.400424,-0.3039166,3.992383,9.747819,-63.16194,63.14355,0,0,0,51.61098,-112.6706,-39.72786,23.29663,-110.3837,-27.63295,0.001067912,-0.1257102,0.09433498,0,0.3,0,0.07405747,0.07743054,0.07405747
6.38255E+17,21.86364,-1.402692,2.288032,-7.025325,45.60714,-73.67843,9.400424,-0.3039166,3.992383,9.747819,-63.16194,63.14355,0,0,0,51.62708,-113.158,-39.68776,23.29663,-110.3837,-27.63295,0.001067912,-0.1257102,0.09433498,0,0.3,0,0.07402249,0.07902963,0.07402249
6.38255E+17,21.86364,-1.800122,2.311379,-3.802537,45.60714,-73.67843,9.400424,-0.3039166,3.992383,9.747819,-63.16194,63.0703,0,0,0,51.63767,-114.0804,-39.66137,23.29663,-110.3837,-27.63295,0.001067912,-0.1257102,0.09433498,0,0.3,0,0.07400218,0.08212743,0.07400218
6.38255E+17,21.86364,-1.8235,2.288032,0.5189275,45.60714,-73.97141,9.400424,-0.3039166,3.992383,9.747819,-63.16194,63.0703,0,0,0,51.61681,-114.137,-39.71335,23.29663,-110.3837,-27.63295,0.001067912,-0.1257102,0.09433498,0,0.3,0,0.07377981,0.08512007,0.07377981
6.38255E+17,21.86364,-1.729987,2.288032,7.550464,45.60714,-74.9236,9.400424,-0.3039166,3.992383,9.747819,-63.16194,63.0703,0,0,0,51.61932,-113.9194,-39.70709,23.29663,-110.3837,-27.63295,0.001067912,-0.1257102,0.09433498,0,0.3,0,0.07348417,0.08802999,0.07348417
6.38255E+17,21.86364,-1.636474,2.288032,12.16491,45.60714,-75.21658,9.400424,-0.3039166,3.992383,9.747819,-63.23518,63.0703,0,0,0,51.6217,-113.7019,-39.70116,23.29663,-110.3837,-27.63295,0.001067912,-0.1257102,0.09433498,0,0.3,0,0.07319872,0.09086265,0.07319872
6.38255E+17,21.86364,-1.589718,2.288032,14.65524,45.60714,-75.50956,9.400424,-0.3039166,3.992383,9.747819,-63.16194,63.0703,0,0,0,51.62284,-113.5931,-39.69831,23.29663,-110.3837,-27.63295,0.001067912,-0.1257102,0.09433498,0,0.3,0,0.07305969,0.09225143,0.07305969
6.38255E+17,21.86364,-1.309179,2.358074,18.61049,45.5339,-76.242,9.400424,-0.3039166,3.992383,9.674574,-63.16194,63.0703,0,0,0,51.68965,-112.9338,-39.53182,23.29663,-110.3837,-27.63295,0.001067912,-0.1257102,0.09433498,0,0.3,0,0.07268754,0.09498531,0.07268754
6.38255E+17,21.86364,-0.350673,3.151881,20.73459,45.60714,-77.1942,9.400424,-0.3039166,3.992383,9.674574,-63.16194,63.0703,0,0,0,52.38889,-110.6144,-37.78921,23.29663,-110.3837,-27.63295,0.001067912,-0.1257102,0.09433498,0,0.3,0,0.07218881,0.09897944,0.07218881
6.38255E+17,21.91076,-0.1870256,3.525437,21.10082,45.5339,-77.48718,9.400424,-0.3039166,3.992383,9.747819,-63.16194,63.14355,0,0,0,52.8208,-110.1829,-37.02544,23.29663,-110.3837,-27.63295,0.001067912,-0.1257102,0.09433498,0,0.3,0,0.07247978,0.1002488,0.07247978
6.38255E+17,21.93432,0.1870256,4.132466,21.32055,45.60714,-78.43936,9.400424,-0.3039166,3.992383,9.674574,-63.16194,63.14355,0,0,0,53.40135,-109.218,-35.73957,23.29663,-110.3837,-27.63295,0.001067912,-0.1257102,0.09433498,0,0.3,0,0.07278726,0.1026892,0.07278726
6.38255E+17,22.05212,1.052019,4.646106,20.95433,45.60714,-75.28983,9.400424,-0.3039166,3.992383,9.747819,-63.16194,63.0703,0,0,0,54.11322,-107.1135,-34.76509,23.29663,-110.3837,-27.63295,0.001067912,-0.1257102,0.09433498,0,0.3,0,0.07400555,0.104909,0.07400555
6.38255E+17,22.05212,1.542961,5.486608,18.61049,45.60714,-69.13722,9.400424,-0.3039166,3.992383,9.747819,-63.16194,63.14355,0,0,0,54.83508,-105.7984,-32.98309,23.29663,-110.3837,-27.63295,0.001067912,-0.1257102,0.09433498,0,0.3,0,0.07504179,0.1068749,0.07504179
6.38255E+17,22.05212,1.542961,5.766775,16.19339,45.60714,-67.89206,9.494664,-0.3039166,4.062424,9.674574,-63.16194,62.85057,0,0,0,55.07872,-105.7345,-32.38165,23.55487,-110.3723,-27.51108,0.001067912,-0.1257102,0.09433498,0,0.3,0,0.07469095,0.1087695,0.07469095
6.38255E+17,22.05212,1.613096,6.513887,12.09166,45.60714,-68.25829,9.141265,-0.1870256,4.062424,5.865825,-62.20975,60.43347,0,0,0,55.72612,-105.3853,-30.78345,22.68592,-110.1002,-27.36732,0.001067912,-0.1257102,0.09433498,0,0.3,0,0.07759668,0.1104173,0.07759668
6.38255E+17,22.05212,1.729987,6.980833,9.967555,45.60714,-68.55127,8.952785,0.0233782,4.062424,3.66847,-60.96458,58.89533,0,0,0,56.12834,-104.9857,-29.79053,22.22213,-109.6105,-27.29277,0.001067912,-0.1257102,0.09433498,0,0.3,0,0.07930516,0.1110198,0.07930516
6.38255E+17,22.14636,3.085923,7.587861,4.693902,45.60714,-70.01617,8.717185,-0.3039166,4.155813,-6.366118,-54.73874,61.01944,0,0,0,56.83447,-101.6536,-28.70784,21.67449,-110.3567,-26.99014,0.001067912,-0.1257102,0.09433498,0,0.3,0,0.08371053,0.1121137,0.08371053
6.38255E+17,22.14636,3.763891,7.587861,3.448734,45.60714,-71.11485,8.834986,-0.3272949,4.319244,-9.149435,-52.17516,62.19136,0,0,0,56.79894,-100.0786,-28.79515,22.0233,-110.383,-26.66047,0.001067912,-0.1257102,0.09433498,0,0.3,0,0.08384841,0.112393,0.08384841
6.38255E+17,22.14636,5.447122,7.611208,1.178134,45.60714,-73.09246,9.329745,-0.3039166,5.253135,-12.88494,-46.31554,63.72951,0,0,0,56.70067,-96.16662,-29.0366,23.59716,-110.1472,-24.71835,0.001067912,-0.1257102,0.09433498,0,0.3,0,0.08347128,0.1129733,0.08347128
6.38255E+17,22.14636,7.083596,7.611208,-0.2867693,45.60714,-75.43631,9.895184,-0.3039166,6.443846,-13.25116,-40.8954,64.38871,0,0,0,56.54398,-92.38077,-29.42158,25.4872,-109.8649,-22.24244,0.001067912,-0.1257102,0.09433498,0,0.3,0,0.08379386,0.1135323,0.08379386
6.38255E+17,22.16992,9.725332,8.148195,-0.6529952,45.60714,-78.87884,10.31926,-0.2805384,7.074222,-11.34679,-33.49764,66.95229,0,0,0,56.72918,-86.12763,-29.13053,26.82895,-109.6378,-21.00145,0.001067912,-0.1257102,0.09433498,0,0.3,0,0.08963969,0.1135964,0.08963969
6.38255E+17,22.19348,11.08127,8.801919,-0.3600145,45.60714,-79.97752,10.34282,-0.2805384,7.050874,-10.10162,-29.32266,69.73561,0,0,0,57.13961,-82.79955,-28.28813,26.87985,-109.6445,-21.06554,0.001067912,-0.1257102,0.09433498,0,0.3,0,0.09476459,0.1129946,0.09476459
6.38255E+17,22.19348,13.18531,9.759157,0.6654179,45.5339,-81.95513,10.34282,0.04675641,6.887444,-7.904267,-22.36438,73.10489,0,0,0,57.58136,-77.65299,-27.2053,26.81235,-108.9289,-21.43544,0.001067912,-0.1257102,0.09433498,0,0.3,0,0.1022231,0.1115221,0.1022231
6.38255E+17,22.19348,14.09706,10.13271,1.324624,45.60714,-83.20029,10.34282,0.2104038,6.887444,-6.952079,-18.92185,74.86278,0,0,0,57.71579,-75.44071,-26.87577,26.81219,-108.548,-21.43628,0.001067912,-0.1257102,0.09433498,0,0.3,0,0.1054921,0.1105114,0.1054921
6.38255E+17,22.21704,15.85042,11.65029,3.81496,45.5339,-86.86256,10.34282,0.3740513,7.00418,-2.99684,-7.12938,78.45178,0,0,0,58.68671,-70.8313,-24.6648,26.86027,-108.1343,-21.17287,0.001067912,-0.1257102,0.09433498,0,0.3,0,0.1141893,0.1065977,0.1141893
6.38255E+17,22.2406,16.0842,12.32736,4.767147,45.60714,-87.59501,10.34282,0.3740513,7.00418,-1.898163,-4.272818,79.69696,0,0,0,59.27256,-69.98087,-23.40073,26.86027,-108.1343,-21.17287,0.001067912,-0.1257102,0.09433498,0,0.3,0,0.1166058,0.1050351,0.1166058
6.38255E+17,22.3584,16.57515,14.87221,7.403974,45.60714,-88.76694,10.34282,0.3740513,6.840749,0.2259469,2.392492,82.77325,0,0,0,61.63795,-67.49176,-18.49642,26.79247,-108.1801,-21.54433,0.001067912,-0.1257102,0.09433498,0,0.3,0,0.1253804,0.1012633,0.1253804
6.38255E+17,22.3584,17.01933,18.30426,10.99299,45.60714,-89.86562,10.34282,0.3740513,6.046942,1.910586,8.03237,85.70306,0,0,0,64.43594,-64.22198,-11.69398,26.46288,-108.3875,-23.35032,0.001067912,-0.1257102,0.09433498,0,0.3,0,0.1395783,0.09623634,0.1395783
6.38255E+17,22.19348,17.08947,21.94643,14.94823,45.60714,-89.3529,10.36638,0.3740513,3.945688,2.862773,12.42708,89.65829,0,0,0,66.97264,-61.14977,-4.185183,25.64589,-108.8134,-28.15329,0.001067912,-0.1257102,0.09433498,0,0.3,0,0.1597564,0.08950097,0.1597564
6.38255E+17,21.98145,17.11284,23.32392,16.26664,45.60714,-87.37527,10.36638,0.3740513,2.614894,3.082508,14.11172,90.46399,0,0,0,67.46621,-59.86395,-1.209444,25.08949,-108.9906,-31.19496,0.001067912,-0.1257102,0.09433498,0,0.3,0,0.1706576,0.08164161,0.1706576
6.38255E+17,21.69872,17.25311,25.65865,17.21883,45.60714,-84.73845,10.36638,0.3740513,1.470878,3.448734,15.94285,90.97672,0,0,0,68.43314,-57.29959,3.626024,24.61069,-109.0855,-33.81237,0.001067912,-0.1257102,0.09433498,0,0.3,0,0.1868755,0.07239082,0.1868755
6.38255E+17,21.67517,17.44014,26.89605,17.29207,45.60714,-84.07924,10.36638,0.3740513,0.9805852,3.741715,16.60205,91.19645,0,0,0,69.26823,-55.60913,5.933234,24.4054,-109.1099,-34.93459,0.001067912,-0.1257102,0.09433498,0,0.3,0,0.1962062,0.06722149,0.1962062
6.38255E+17,21.69872,18.09473,28.97396,17.29207,45.60714,-83.49328,10.36638,0.3740513,0.793807,4.547412,17.62749,91.41618,0,0,0,70.74761,-51.89287,9.442418,24.32719,-109.1166,-35.36215,0.001067912,-0.1257102,0.09433498,0,0.3,0,0.2116582,0.05601133,0.2116582
6.38255E+17,21.72228,19.09999,30.58492,17.07234,45.60714,-83.34679,10.36638,0.3740513,0.7471125,5.206618,18.50643,91.48943,0,0,0,71.74893,-47.81332,11.74319,24.30764,-109.1181,-35.46904,0.001067912,-0.1257102,0.09433498,0,0.3,0,0.2256508,0.04378825,0.2256508
6.38255E+17,21.81652,20.15201,32.24257,16.92585,45.60714,-83.27354,10.4135,0.3974294,0.7471125,5.279863,19.09239,91.19645,0,0,0,72.96301,-43.49635,13.91807,24.41684,-109.0637,-35.48944,0.001067912,-0.1257102,0.09433498,0,0.3,0,0.2403325,0.03084727,0.2403325
6.38255E+17,21.8872,20.71309,33.24651,16.92585,45.5339,-83.27354,10.4135,0.5610769,0.7471125,5.060128,19.38537,90.90347,0,0,0,73.75046,-41.00885,15.22848,24.41627,-108.6828,-35.49257,0.001067912,-0.1257102,0.09433498,0,0.3,0,0.2484506,0.02401712,0.2484506
6.38255E+17,21.95788,21.81186,34.78743,17.36532,45.5339,-83.34679,10.57842,1.285801,0.7471125,4.181186,19.31213,90.53724,0,0,0,74.74159,-36.61941,17.03416,24.79359,-106.9963,-35.59012,0.001067912,-0.1257102,0.09433498,0,0.3,0,0.2601827,0.009982881,0.2601827
6.38255E+17,21.95788,23.14442,36.09487,18.02452,45.60714,-83.34679,10.86114,2.104038,1.167363,3.155754,18.87265,89.21883,0,0,0,75.2252,-31.98925,18.23368,25.62204,-105.0765,-34.80896,0.001067912,-0.1257102,0.09433498,0,0.3,0,0.2678851,0,0.2678851
6.38255E+17,21.95788,24.2432,37.12215,18.53724,45.60714,-83.34679,10.95538,3.506731,2.381421,2.130321,17.99371,86.21577,0,0,0,75.55859,-28.22179,19.06059,26.34801,-101.7284,-32.23544,0.001067912,-0.1257102,0.09433498,0,0.3,0,0.2658643,0,0.2658643
6.38255E+17,21.95788,24.61725,37.51905,18.83022,45.60714,-83.42004,10.95538,4.488615,3.362006,1.617605,17.33451,84.23816,0,0,0,75.69865,-26.86912,19.40798,26.7509,-99.33439,-30.15407,0.001067912,-0.1257102,0.09433498,0,0.3,0,0.261342,0,0.261342
6.38255E+17,22.005,25.01468,37.89261,19.19645,45.60714,-83.42004,10.95538,6.873192,6.023595,0.1527017,15.35689,80.28292,0,0,0,75.9653,-25.49782,19.62346,27.81969,-93.30544,-24.63264,0.001067912,-0.1257102,0.09433498,0,0.3,0,0.2449315,0,0.2449315
6.38255E+17,22.2406,25.06143,37.89261,19.56267,45.60714,-83.49328,10.95538,9.444795,8.661836,-1.165711,12.57357,77.42635,0,0,0,76.72018,-25.39923,19.26688,28.81553,-86.5967,-19.48814,0.001067912,-0.1257102,0.09433498,0,0.3,0,0.2257953,0,0.2257953
6.38255E+17,22.45264,25.06143,37.86926,19.85565,45.60714,-83.49328,10.95538,11.08127,10.17941,-1.824918,10.88893,75.96145,0,0,0,77.3976,-25.43259,18.94203,29.34873,-82.27094,-16.73359,0.001067912,-0.1257102,0.09433498,0,0.3,0,0.2145912,0,0.2145912
6.38255E+17,22.61756,25.03806,37.79922,20.22188,45.5339,-83.63977,10.95538,12.2268,11.04326,-2.337634,9.717009,75.00926,0,0,0,77.89572,-25.58187,18.6209,29.62194,-79.28961,-15.32222,0.001067912,-0.1257102,0.09433498,0,0.3,0,0.2074633,0,0.2074633
6.38255E+17,22.97096,25.03806,37.6358,20.88108,45.5339,-84.006,11.16742,14.42435,12.53748,-3.289821,7.519653,71.93297,0,0,0,78.93004,-25.81457,17.85986,30.61907,-73.60248,-13.2496,0.001067912,-0.1257102,0.09433498,0,0.3,0,0.1943129,0,0.1943129
6.38255E+17,23.27724,25.01468,37.61245,21.3938,45.60714,-84.44547,12.08626,16.50501,14.26518,-4.388499,5.395544,65.3409,0,0,0,79.9164,-25.89705,17.41688,33.65097,-68.00361,-11.19839,0.001067912,-0.1257102,0.09433498,0,0.3,0,0.1788582,0,0.1788582
6.38255E+17,23.58352,25.01468,37.65914,21.68678,45.60714,-84.73845,13.07578,18.07135,16.15631,-4.315253,3.271434,59.77427,0,0,0,80.94272,-25.83068,17.0659,37.07563,-63.36818,-8.721298,0.001067912,-0.1257102,0.09433498,0,0.3,0,0.1644048,0,0.1644048
6.38255E+17,23.79556,25.01468,37.75253,21.76003,45.60714,-84.88493,13.54698,18.93634,17.11355,-4.095518,2.099511,57.21069,0,0,0,81.69773,-25.69775,16.92242,38.7375,-60.82132,-7.577523,0.001067912,-0.1257102,0.09433498,0,0.3,0,0.157713,0,0.157713
6.38255E+17,24.21964,25.01468,38.28952,21.76003,45.60714,-85.4709,14.46582,20.29228,18.74786,-3.436311,-0.02459868,53.76817,0,0,0,83.47069,-24.92795,17.21056,41.95004,-56.67772,-5.741058,0.001067912,-0.1257102,0.09433498,0,0.3,0,0.1484231,0,0.1484231
6.38255E+17,24.57304,25.03806,39.05998,21.61354,45.60714,-87.0823,15.17262,21.15727,20.102,-2.70386,-1.709238,51.42432,0,0,0,85.18622,-23.75811,17.94439,44.54417,-53.74671,-4.089941,0.001067912,-0.1257102,0.09433498,0,0.3,0,0.143274,0,0.143274
6.38255E+17,24.95,25.06143,39.76039,21.24731,45.60714,-89.49938,15.76161,22.11578,21.29271,-1.898163,-3.100896,50.10591,0,0,0,86.93159,-22.67389,18.50096,46.71113,-50.69366,-2.853251,0.001067912,-0.1257102,0.09433498,0,0.3,0,0.139016,0,0.139016
6.38255E+17,25.39764,25.06143,40.5542,20.88108,45.60714,-91.76999,16.37417,23.02753,22.41338,-1.092466,-4.272818,49.4467,0,0,0,88.99435,-21.48247,19.09161,48.9306,-47.76338,-1.820965,0.001067912,-0.1257102,0.09433498,0,0.3,0,0.1359262,0,0.1359262
6.38255E+17,26.05732,25.06143,41.95504,20.80784,45.60714,-94.99277,17.36369,24.28995,23.76752,-0.4332596,-5.884212,48.49451,0,0,0,92.22318,-19.33266,20.25643,52.3125,-43.83624,-1.049144,0.001067912,-0.1257102,0.09433498,0,0.3,0,0.1337728,0,0.1337728
6.38255E+17,26.52852,25.08481,43.26248,21.46704,45.60714,-98.87477,18.61237,25.83291,25.1917,0.4456824,-7.715342,46.3704,0,0,0,94.76111,-17.22338,21.47473,56.42318,-39.20988,-0.8115681,0.001067912,-0.1257102,0.09433498,0,0.3,0,0.1286903,0,0.1286903
6.38255E+17,26.5992,25.2017,44.35981,22.1995,45.60714,-102.0243,20.02597,27.49277,26.8727,1.397869,-9.766206,43.36735,0,0,0,95.76862,-15.20911,22.90221,61.14927,-34.04069,-0.5803825,0.001067912,-0.1257102,0.09433498,0,0.3,0,0.1192763,0,0.1192763
6.38255E+17,26.5992,25.27184,44.75671,22.41923,45.60714,-102.9765,20.56785,28.00709,27.52643,1.764095,-10.49866,42.48841,0,0,0,96.03217,-14.41332,23.42853,63.01281,-32.28588,-0.4210608,0.001067912,-0.1257102,0.09433498,0,0.3,0,0.1156491,0,0.1156491
6.38255E+17,26.5992,25.57575,45.83068,23.15168,45.60714,-105.1739,22.05212,29.15262,29.27747,2.936018,-12.25654,40.87702,0,0,0,96.68349,-11.99802,24.72925,68.20849,-28.00628,0.03074859,0.001067912,-0.1257102,0.09433498,0,0.3,0,0.1064765,0,0.1064765
6.38255E+17,26.5992,26.04332,46.88131,24.10387,45.60714,-106.5655,23.4186,30.15788,30.98182,4.547412,-13.6482,39.92483,0,0,0,97.22698,-9.248924,25.8146,73.10793,-23.98207,0.4420805,0.001067912,-0.1257102,0.09433498,0,0.3,0,0.09875071,0,0.09875071
6.38255E+17,26.57564,26.90831,48.30549,25.56878,45.60714,-108.7629,24.92644,31.28004,33.05973,6.744767,-15.25959,39.19238,0,0,0,97.74563,-4.999503,27.05101,78.6899,-19.17278,0.9682377,0.001067912,-0.1257102,0.09433498,0,0.3,0,0.09171455,0,0.09171455
6.38255E+17,26.57564,27.37588,48.60901,26.22798,45.60714,-109.715,25.86884,31.79436,34.01696,7.623709,-16.21178,38.89939,0,0,0,97.73312,-3.502424,27.02599,82.0011,-16.92168,0.7586097,0.001067912,-0.1257102,0.09433498,0,0.3,0,0.08691736,0,0.08691736
6.38255E+17,26.57564,27.96033,49.82306,27.18017,45.60714,-111.3264,27.56516,32.30868,35.06759,9.308348,-17.38371,37.72747,0,0,0,98.27625,-0.1582751,28.11176,87.6092,-14.52066,-0.5205343,0.001067912,-0.1257102,0.09433498,0,0.3,0,0.08778119,0,0.08778119
6.38255E+17,26.57564,28.17073,50.52348,27.47315,45.60714,-112.1321,28.43687,32.4957,35.48784,10.33378,-17.74993,36.77529,0,0,0,98.64027,1.525758,28.83945,90.42153,-13.58826,-1.375799,0.001067912,-0.1257102,0.09433498,0,0.3,0,0.09040162,0,0.09040162
6.38255E+17,26.81124,28.49803,53.46524,28.71832,45.60714,-116.4536,31.35831,33.26719,37.05211,14.50875,-18.40914,32.38057,0,0,0,101.1885,7.590451,31.87163,99.83427,-9.926668,-4.527272,0.001067912,-0.1257102,0.09433498,0,0.3,0,0.1050852,0,0.1050852
6.38255E+17,27.23532,28.56816,55.02951,29.30428,45.60714,-118.358,32.70123,33.40745,37.72918,16.63286,-18.55563,29.74375,0,0,0,103.6055,10.68834,32.93918,104.2257,-8.697025,-6.009425,0.001067912,-0.1257102,0.09433498,0,0.3,0,0.1131275,0,0.1131275
6.38255E+17,27.63584,28.61492,56.05679,29.67051,45.60714,-120.7751,33.45514,33.47759,38.17278,17.80479,-18.62887,28.05911,0,0,0,105.6133,12.75527,33.36227,106.752,-7.925891,-6.790708,0.001067912,-0.1257102,0.09433498,0,0.3,0,0.117469,0,0.117469
6.38255E+17,28.41331,28.80194,57.83118,30.54945,45.60714,-127.8066,34.68026,33.66461,38.94324,19.85565,-18.55563,25.935,0,0,0,109.313,16.59818,33.70787,110.8427,-6.445529,-8.15492,0.001067912,-0.1257102,0.09433498,0,0.3,0,0.1243074,0,0.1243074
6.38255E+17,29.07299,29.24613,60.2126,32.23409,45.5339,-135.6438,35.92894,33.68799,39.59696,21.76003,-18.77536,23.88414,0,0,0,112.7745,22.25376,34.49072,114.9808,-5.437198,-9.679078,0.001067912,-0.1257102,0.09433498,0,0.3,0,0.1356649,0,0.1356649
6.38255E+17,29.42639,29.80721,60.39938,33.69899,45.60714,-141.357,36.98914,33.61786,40.08725,23.22493,-18.84861,22.27274,0,0,0,113.8131,23.76763,33.4183,118.4785,-4.841999,-11.06164,0.001067912,-0.1257102,0.09433498,0,0.3,0,0.1380387,0,0.1380387
6.38255E+17,29.68555,30.53193,62.17377,34.65118,45.60714,-142.1627,37.9551,33.45421,40.36742,24.39685,-18.70212,21.24731,0,0,0,115.2873,28.84761,33.88859,121.613,-4.738356,-12.57288,0.001067912,-0.1257102,0.09433498,0,0.3,0,0.1499617,0,0.1499617
6.38255E+17,29.77979,31.37355,62.54733,34.94416,45.60714,-142.3092,38.92105,33.31394,40.81102,25.1293,-18.40914,20.88108,0,0,0,115.3197,31.29762,33.17435,124.7641,-4.339223,-13.84442,0.001067912,-0.1257102,0.09433498,0,0.3,0,0.1553474,0,0.1553474
6.38255E+17,29.77979,32.72948,62.54733,35.0174,45.60714,-142.3092,40.31109,33.31394,41.76826,26.52096,-17.96966,20.66135,0,0,0,114.4879,33.97232,31.72082,129.5583,-2.869143,-15.63998,0.001067912,-0.1257102,0.09433498,0,0.3,0,0.1608527,0,0.1608527
6.38255E+17,29.75623,33.36069,62.94423,34.94416,45.60714,-142.3092,41.08857,33.33732,42.2819,27.47315,-17.74993,20.36837,0,0,0,114.218,36.02496,31.43967,132.1826,-2.023386,-16.76526,0.001067912,-0.1257102,0.09433498,0,0.3,0,0.1663617,0,0.1663617
6.38255E+17,29.68555,34.17893,64.812,34.57793,45.60714,-142.3824,42.03097,33.61786,43.05236,28.79156,-17.31046,19.85565,0,0,0,114.3951,41.51088,32.32347,135.2995,-0.2634946,-18.24795,0.001067912,-0.1257102,0.09433498,0,0.3,0,0.1789956,0,0.1789956
6.38255E+17,29.63843,34.6465,65.76924,34.28495,45.60714,-142.4556,42.50217,33.8984,43.58934,29.52402,-17.16397,19.56267,0,0,0,114.3864,44.4325,32.69238,136.8985,1.136791,-18.96287,0.001067912,-0.1257102,0.09433498,0,0.3,0,0.184757,0,0.184757
6.38255E+17,29.49707,36.58689,67.87051,33.62574,45.60714,-142.6021,43.60949,34.97379,45.2937,31.72137,-17.5302,18.24426,0,0,0,113.5429,52.59898,32.36039,140.737,5.978331,-20.61061,0.001067912,-0.1257102,0.09433498,0,0.3,0,0.1966213,0,0.1966213
6.38255E+17,29.44995,37.2181,68.26741,33.33276,45.60714,-142.4556,43.84509,35.37122,45.83068,32.23409,-17.74993,17.6583,0,0,0,113.1138,54.63063,31.986,141.5803,7.62678,-20.94377,0.001067912,-0.1257102,0.09433498,0,0.3,0,0.1983728,0,0.1983728
6.38255E+17,29.42639,38.59741,69.13126,32.89329,45.60714,-142.5289,44.26917,36.44662,47.18483,33.40601,-18.48238,16.41313,0,0,0,112.4212,59.03659,30.95078,143.1569,11.9403,-21.49363,0.001067912,-0.1257102,0.09433498,0,0.3,0,0.1999324,0,0.1999324
6.38255E+17,29.42639,39.5793,69.85503,32.60031,45.60714,-142.5289,44.50476,37.4285,48.49227,34.50468,-19.21483,15.3877,0,0,0,112.0032,62.38804,30.20978,144.2286,16.0224,-21.60629,0.001067912,-0.1257102,0.09433498,0,0.3,0,0.1992549,0,0.1992549
6.38255E+17,29.42639,40.00011,70.15854,32.52707,45.60714,-142.5289,44.57545,37.9662,49.146,35.0174,-19.58106,14.87498,0,0,0,111.8139,63.80442,29.87423,144.5756,18.15771,-21.61582,0.001067912,-0.1257102,0.09433498,0,0.3,0,0.1981496,0,0.1981496
6.38255E+17,29.33215,40.8651,70.76556,32.52707,45.60714,-142.5289,44.62257,39.06498,50.50013,35.89634,-20.31351,13.99604,0,0,0,111.0796,66.66822,29.33153,145.0058,22.56656,-21.42106,0.001067912,-0.1257102,0.09433498,0,0.3,0,0.195809,0,0.195809
6.38255E+17,29.14367,42.05739,71.39594,32.7468,45.60714,-142.5289,44.62257,40.07024,51.97101,36.70204,-21.33894,12.82412,0,0,0,109.7656,70.1356,28.50665,145.4645,27.03928,-20.95626,0.001067912,-0.1257102,0.09433498,0,0.3,0,0.1941886,0,0.1941886
6.38255E+17,29.02587,42.66522,71.62941,32.89329,45.60714,-142.5289,44.62257,40.49105,52.60139,36.99502,-21.77841,12.3114,0,0,0,108.9818,71.69624,28.04909,145.6501,28.94705,-20.76817,0.001067912,-0.1257102,0.09433498,0,0.3,0,0.1937862,0,0.1937862
6.38255E+17,28.74315,44.13805,72.00297,33.47925,45.60714,-142.6021,44.55189,41.35604,54.04892,37.72747,-22.95034,11.06623,0,0,0,107.0092,75.0127,26.7573,145.9545,33.17014,-20.09447,0.001067912,-0.1257102,0.09433498,0,0.3,0,0.1921648,0,0.1921648
6.38255E+17,28.24839,45.77452,72.25979,33.84548,45.60714,-142.6021,44.43409,42.29117,55.56649,38.38668,-24.342,9.381593,0,0,0,104.1336,78.27672,25.46508,146.0583,37.67833,-19.37754,0.001067912,-0.1257102,0.09433498,0,0.3,0,0.1913567,0,0.1913567
6.38255E+17,27.82431,47.0837,72.32983,33.99197,45.60714,-142.6021,44.29272,42.99252,56.61712,38.75291,-25.44067,8.06318,0,0,0,101.689,80.5321,24.32204,145.8707,40.9084,-18.83273,0.001067912,-0.1257102,0.09433498,0,0.3,0,0.1907841,0,0.1907841
6.38255E+17,27.56516,47.83181,72.32983,33.99197,45.60714,-142.5289,44.19849,43.38995,57.17745,38.97264,-26.02663,7.403974,0,0,0,100.2228,81.70934,23.64282,145.6798,42.67522,-18.53626,0.001067912,-0.1257102,0.09433498,0,0.3,0,0.1905123,0,0.1905123
6.38255E+17,26.88192,49.37476,72.32983,33.77223,45.60714,-142.1627,43.93933,44.32507,58.53159,39.33887,-27.34505,5.865825,0,0,0,96.70826,84.08393,22.4216,145.1179,46.91296,-17.75724,0.001067912,-0.1257102,0.09433498,0,0.3,0,0.1899871,0,0.1899871
6.38255E+17,25.98664,50.54368,72.32983,33.18628,45.60714,-142.1627,43.65661,45.11993,59.65226,39.70509,-28.37048,4.693902,0,0,0,92.80308,85.8341,22.03719,144.3992,50.4652,-17.01553,0.001067912,-0.1257102,0.09433498,0,0.3,0,0.1917355,0,0.1917355
6.38255E+17,24.90288,51.33854,72.32983,32.08759,45.60714,-140.771,43.23253,45.91479,60.88967,40.07132,-29.83538,3.66847,0,0,0,88.58061,86.99978,22.4555,143.3493,54.26226,-15.87202,0.001067912,-0.1257102,0.09433498,0,0.3,0,0.1935273,0,0.1935273
6.38255E+17,23.86624,52.08664,72.32983,30.84243,45.60714,-136.0101,42.69065,46.7564,62.15042,40.21781,-31.08055,2.789528,0,0,0,84.56117,88.07859,22.77708,141.8888,58.19378,-14.53619,0.001067912,-0.1257102,0.09433498,0,0.3,0,0.1940764,0,0.1940764
6.38255E+17,22.85316,53.16203,72.32983,29.96349,45.60714,-130.8829,42.05453,47.66816,63.52791,40.3643,-32.17923,2.203566,0,0,0,80.39626,89.59791,22.40948,140.1096,62.48757,-13.04005,0.001067912,-0.1257102,0.09433498,0,0.3,0,0.1938234,0,0.1938234
6.38255E+17,21.67517,55.31283,72.32983,29.23104,45.60714,-127.8066,40.87653,49.04747,65.37234,40.51079,-34.0836,1.251379,0,0,0,74.95739,92.52324,20.24752,136.5287,68.49341,-10.60649,0.001067912,-0.1257102,0.09433498,0,0.3,0,0.1896472,0,0.1896472
6.38255E+17,21.0626,56.92593,72.32983,29.23104,45.60714,-127.2206,40.07549,49.84233,66.28289,40.51079,-35.25552,0.6654179,0,0,0,71.8167,94.61607,18.12962,133.9638,71.62955,-9.124701,0.001067912,-0.1257102,0.09433498,0,0.3,0,0.1862848,0,0.1862848
6.38255E+17,20.68565,58.21173,72.32983,29.45077,45.60714,-127.2939,39.41582,50.42678,66.93661,40.29105,-36.28096,0.3724372,0,0,0,69.69606,96.2209,16.23512,131.8423,73.8979,-7.932856,0.001067912,-0.1257102,0.09433498,0,0.3,0,0.1828257,0,0.1828257
6.38255E+17,19.76681,60.83008,72.32983,30.18322,45.60714,-127.6601,38.0729,51.45543,68.08063,39.85158,-38.03884,0.006211365,0,0,0,64.9511,99.31164,12.38706,127.5283,77.86643,-5.548635,0.001067912,-0.1257102,0.09433498,0,0.3,0,0.1781994,0,0.1781994
6.38255E+17,18.37677,63.79912,72.32983,30.91567,45.60714,-127.6601,36.5415,52.41393,68.99117,39.11913,-39.94322,0.1527017,0,0,0,58.61871,102.5218,8.103184,122.5479,81.21405,-2.986689,0.001067912,-0.1257102,0.09433498,0,0.3,0,0.177562,0,0.177562
6.38255E+17,16.86893,66.37072,72.32983,31.35514,45.60714,-127.7334,35.0101,53.18541,69.64489,38.02045,-41.7011,0.299192,0,0,0,52.38026,105.043,4.390441,117.5726,83.72305,-0.5019673,0.001067912,-0.1257102,0.09433498,0,0.3,0,0.1787869,0,0.1787869
6.38255E+17,15.95009,67.65652,72.32983,31.42839,45.60714,-127.7334,34.11483,53.58284,69.9484,37.21476,-42.58004,0.5921727,0,0,0,48.84641,106.2116,2.559368,114.656,84.93768,0.9019087,0.001067912,-0.1257102,0.09433498,0,0.3,0,0.1798748,0,0.1798748
6.38255E+17,14.37158,69.90083,72.32983,31.50163,45.60714,-127.6601,32.3007,54.26081,70.43871,35.16389,-44.19143,1.69085,0,0,0,42.91135,108.1022,-0.8764408,108.7657,86.94048,3.695637,0.001067912,-0.1257102,0.09433498,0,0.3,0,0.1802368,0,0.1802368
6.38255E+17,13.19358,71.79446,72.32983,31.35514,45.60714,-127.5869,30.62795,54.75175,70.83561,32.60031,-45.5831,3.66847,0,0,0,38.50909,109.5481,-4.082862,103.3793,88.4754,6.260329,0.001067912,-0.1257102,0.09433498,0,0.3,0,0.1793657,0,0.1793657
6.38255E+17,12.25118,73.64133,72.35318,31.2819,45.60714,-127.6601,28.90807,55.17256,71.27921,29.37753,-47.12124,6.891257,0,0,0,34.93474,110.8768,-7.466323,97.86648,90.0142,8.875803,0.001067912,-0.1257102,0.09433498,0,0.3,0,0.1775386,0,0.1775386
6.38255E+17,11.89778,74.45957,72.37653,31.2819,45.60714,-127.6601,28.08347,55.38297,71.48933,27.61964,-47.7072,8.575896,0,0,0,33.56765,111.4518,-9.0295,95.18982,90.75658,10.04852,0.001067912,-0.1257102,0.09433498,0,0.3,0,0.1761403,0,0.1761403
6.38255E+17,11.28522,75.90903,72.42323,31.35514,45.60714,-128.0263,26.4814,55.78039,71.95628,24.17712,-48.95237,12.3114,0,0,0,31.23068,112.418,-11.84565,89.9767,92.31134,12.26217,0.001067912,-0.1257102,0.09433498,0,0.3,0,0.1731796,0,0.1731796
6.38255E+17,10.74334,77.40523,72.46991,31.2819,45.60714,-129.6377,24.87932,56.17782,72.49326,20.36837,-50.05105,16.77936,0,0,0,29.12367,113.3253,-14.85387,84.72997,94.01897,14.35776,0.001067912,-0.1257102,0.09433498,0,0.3,0,0.1708521,0,0.1708521
6.38255E+17,10.50774,78.80792,72.46991,30.98892,45.60714,-130.004,23.20656,56.64539,73.17033,15.75392,-51.00323,21.76003,0,0,0,27.90969,113.9981,-17.8763,79.18653,96.12659,16.34759,0.001067912,-0.1257102,0.09433498,0,0.3,0,0.1668864,0,0.1668864
6.38255E+17,10.50774,79.55603,72.46991,30.84243,45.60714,-130.1505,22.005,57.08957,73.70732,12.3114,-51.73569,25.86176,0,0,0,27.5978,114.3248,-19.55779,75.10519,97.88956,17.49513,0.001067912,-0.1257102,0.09433498,0,0.3,0,0.1623697,0,0.1623697
6.38255E+17,10.48418,79.9067,72.46991,30.76918,45.60714,-130.2969,21.34533,57.32335,74.01083,10.33378,-52.10191,27.98586,0,0,0,27.39049,114.4703,-20.33613,72.86551,98.86281,18.10442,0.001067912,-0.1257102,0.09433498,0,0.3,0,0.1600479,0,0.1600479
6.38255E+17,10.46062,80.79507,72.46991,30.84243,45.60714,-130.8096,20.02597,57.93119,74.64121,5.572844,-52.90761,32.7468,0,0,0,26.95954,114.8169,-22.32933,68.27964,101.0328,18.98256,0.001067912,-0.1257102,0.09433498,0,0.3,0,0.1560871,0,0.1560871
6.38255E+17,10.46062,82.05749,72.46991,30.91567,45.60714,-136.4495,18.77729,58.63254,75.31828,0.738663,-53.49357,37.50774,0,0,0,26.43206,115.2549,-25.18631,63.86562,103.413,19.49806,0.001067912,-0.1257102,0.09433498,0,0.3,0,0.1546551,0,0.1546551
6.38255E+17,10.50774,83.31992,72.46991,30.91567,45.60714,-141.6499,17.78777,59.47415,76.04205,-4.022273,-54.00629,42.19543,0,0,0,26.01833,115.6288,-28.07343,60.22613,106.0524,19.37007,0.001067912,-0.1257102,0.09433498,0,0.3,0,0.1540984,0,0.1540984
6.38255E+17,10.57842,84.48882,72.46991,30.98892,45.60714,-142.1627,17.05741,60.40928,76.74246,-7.831022,-54.44576,45.93093,0,0,0,25.69475,115.9177,-30.76475,57.38836,108.7269,18.68833,0.001067912,-0.1257102,0.09433498,0,0.3,0,0.1538576,0,0.1538576
6.38255E+17,10.6491,85.3772,72.46991,30.91567,45.60714,-142.2359,16.49197,61.29765,77.53627,-11.34679,-54.88523,49.37346,0,0,0,25.48388,116.1003,-32.82058,55.14386,111.535,17.90838,0.001067912,-0.1257102,0.09433498,0,0.3,0,0.1532453,0,0.1532453
6.38255E+17,10.6491,86.28895,72.46991,30.32971,45.60714,-140.6245,16.11501,62.37305,78.65694,-15.59501,-55.61768,53.1822,0,0,0,25.09278,116.2545,-34.9005,53.45412,115.2685,16.6642,0.001067912,-0.1257102,0.09433498,0,0.3,0,0.1530306,0,0.1530306
6.38255E+17,10.71978,86.82665,72.46991,29.30428,45.60714,-134.4719,15.99721,63.14453,79.40405,-17.86561,-56.20364,55.15982,0,0,0,25.02504,116.3296,-36.15893,52.72486,117.7974,15.55721,0.001067912,-0.1257102,0.09433498,0,0.3,0,0.1525824,0,0.1525824
6.38255E+17,10.71978,86.9903,72.30648,28.57183,45.60714,-129.711,15.92653,63.56533,79.84765,-19.11078,-56.56987,56.18526,0,0,0,24.93289,115.9876,-36.64569,52.30877,119.2522,14.95911,0.001067912,-0.1257102,0.09433498,0,0.3,0,0.15212,0,0.15212
6.38255E+17,10.60198,87.38773,71.20916,26.08149,45.60714,-117.6255,15.85585,64.47708,80.73485,-21.45462,-57.22908,58.01638,0,0,0,24.34499,113.6075,-38.2886,51.65655,122.2169,13.52348,0.001067912,-0.1257102,0.09433498,0,0.3,0,0.1539177,0,0.1539177
6.38255E+17,10.5313,88.32285,70.69552,21.24731,45.60714,-109.2023,15.83229,65.73951,82.08898,-24.60417,-58.32775,60.43347,0,0,0,23.71571,112.5589,-40.78046,50.98304,126.5698,11.43341,0.001067912,-0.1257102,0.09433498,0,0.3,0,0.1574257,0,0.1574257
6.38255E+17,10.5313,88.65015,70.69552,19.70916,45.60714,-108.6164,15.83229,66.20708,82.53259,-25.6296,-58.69398,61.31242,0,0,0,23.57654,112.5791,-41.52911,50.74957,128.036,10.61009,0.001067912,-0.1257102,0.09433498,0,0.3,0,0.1580618,0,0.1580618
6.38255E+17,10.55486,88.95406,70.74222,16.99909,45.60714,-111.0335,15.83229,67.04869,83.37309,-27.31424,-59.42643,62.70407,0,0,0,23.50572,112.6964,-42.19875,50.3245,130.7545,9.111159,0.001067912,-0.1257102,0.09433498,0,0.3,0,0.1576819,0,0.1576819
6.38255E+17,10.79046,88.97744,71.09243,14.94823,45.60714,-116.3071,15.85585,67.82017,84.14355,-29.29186,-60.01239,64.09573,0,0,0,24.06395,113.4677,-42.08815,49.99771,133.226,7.683011,0.001067912,-0.1257102,0.09433498,0,0.3,0,0.1546971,0,0.1546971
6.38255E+17,11.42658,89.0242,72.1664,14.21577,45.60714,-125.6825,15.99721,68.68517,85.03074,-31.19623,-60.81809,65.63388,0,0,0,25.59876,115.8417,-41.6976,49.97023,136.0275,5.948889,0.001067912,-0.1257102,0.09433498,0,0.3,0,0.1487151,0,0.1487151
6.38255E+17,11.68574,89.07095,73.40381,14.80174,45.60714,-133.9592,16.11501,69.15273,85.47434,-31.92868,-61.25756,66.29308,0,0,0,26.32196,118.5944,-41.08658,50.07036,137.4478,4.952396,0.001067912,-0.1257102,0.09433498,0,0.3,0,0.1433311,0,0.1433311
6.38255E+17,11.7093,89.11771,75.6218,16.8526,45.60714,-141.8697,16.30349,69.73718,86.03468,-32.73438,-61.91676,66.87905,0,0,0,26.63193,123.5705,-39.85431,50.30974,139.226,3.656973,0.001067912,-0.1257102,0.09433498,0,0.3,0,0.135074,0,0.135074
6.38255E+17,11.63862,89.21123,76.78916,18.39075,45.60714,-142.3092,16.39773,69.99434,86.2915,-32.95412,-62.1365,67.09879,0,0,0,26.56018,126.2122,-39.40021,50.44524,140.0284,3.073281,0.001067912,-0.1257102,0.09433498,0,0.3,0,0.1316889,0,0.1316889
6.38255E+17,10.10722,89.0242,78.65694,22.12625,45.60714,-142.5289,16.70401,70.74244,86.78179,-33.32034,-62.57597,67.46501,0,0,0,23.34314,130.453,-37.39801,50.90934,141.7523,1.296488,0.001067912,-0.1257102,0.09433498,0,0.3,0,0.1269704,0,0.1269704
6.38255E+17,9.824504,89.00082,79.21727,22.93195,45.60714,-142.5289,16.77469,70.97623,86.87518,-33.39359,-62.72246,67.46501,0,0,0,22.74867,131.7319,-36.98425,50.97369,142.1478,0.7529206,0.001067912,-0.1257102,0.09433498,0,0.3,0,0.1254816,0,0.1254816
6.38255E+17,9.282625,88.97744,80.19785,24.32361,45.60714,-142.5289,16.93961,71.53731,87.15534,-33.46683,-62.9422,67.53825,0,0,0,21.57982,133.9764,-36.31886,51.10982,143.2186,-0.5449615,0.001067912,-0.1257102,0.09433498,0,0.3,0,0.1229778,0,0.1229778
6.38255E+17,9.141265,88.97744,81.20179,25.71527,45.60714,-142.5289,17.05741,72.14513,87.43552,-33.46683,-63.01544,67.53825,0,0,0,21.31399,136.2822,-35.89322,51.06945,144.3108,-1.90606,0.001067912,-0.1257102,0.09433498,0,0.3,0,0.1192879,0,0.1192879
6.38255E+17,9.141265,88.97744,83.18631,27.91262,45.60714,-142.5289,17.22233,72.93999,87.8791,-33.61332,-63.16194,67.6115,0,0,0,21.41365,140.858,-35.27391,51.03832,145.8973,-3.699042,0.001067912,-0.1257102,0.09433498,0,0.3,0,0.113331,0,0.113331
6.38255E+17,9.141265,89.04758,84.33032,29.15779,45.60714,-142.5289,17.22233,73.45432,88.18262,-33.75981,-63.16194,67.6115,0,0,0,21.43371,143.5075,-35.14924,50.70622,146.9493,-4.770395,0.001067912,-0.1257102,0.09433498,0,0.3,0,0.110051,0,0.110051
6.38255E+17,9.188385,89.25798,85.91794,30.40295,45.60714,-142.3092,17.22233,74.15565,88.55618,-34.19928,-63.23518,67.75799,0,0,0,21.51521,147.1963,-35.34024,50.24943,148.2736,-6.244009,0.001067912,-0.1257102,0.09433498,0,0.3,0,0.106359,0,0.106359
6.38255E+17,9.259066,89.39825,86.82848,30.76918,45.60714,-142.0162,17.22233,74.48296,88.813,-34.63876,-63.16194,68.05097,0,0,0,21.64832,149.315,-35.55677,50.03635,149.0771,-6.931413,0.001067912,-0.1257102,0.09433498,0,0.3,0,0.1048206,0,0.1048206
6.38255E+17,9.683144,89.79568,89.53677,30.03673,45.60714,-137.6947,17.12809,75.37133,89.74689,-37.71505,-63.23518,70.10184,0,0,0,22.50864,155.621,-36.43537,49.19086,151.7881,-8.731124,0.001067912,-0.1257102,0.09433498,0,0.3,0,0.1005013,0,0.1005013
6.38255E+17,9.965863,90.05284,90.37727,29.52402,45.60714,-135.4973,17.01029,75.60511,90.12045,-39.32644,-63.16194,71.27377,0,0,0,23.05596,157.578,-37.13608,48.70878,152.7938,-9.133063,0.001067912,-0.1257102,0.09433498,0,0.3,0,0.09952005,0,0.09952005
6.38255E+17,10.31926,90.5204,92.75869,28.86481,45.60714,-130.4434,16.65689,76.02592,90.9843,-44.16063,-63.16194,75.15575,0,0,0,23.64274,163.1126,-38.50057,47.44808,155.0443,-9.763908,0.001067912,-0.1257102,0.09433498,0,0.3,0,0.09926376,0,0.09926376
6.38255E+17,10.34282,90.75419,95.49032,28.93805,45.60714,-126.7812,16.06789,76.49348,91.96488,-52.43733,-63.23518,82.26054,0,0,0,23.51636,169.4471,-39.49532,45.50652,157.5841,-10.35673,0.001067912,-0.1257102,0.09433498,0,0.3,0,0.09979913,0,0.09979913
6.38255E+17,10.34282,91.05811,99.34261,30.40295,45.60714,-126.0487,14.74854,77.12469,93.20229,-66.86663,-62.9422,94.27274,0,0,0,23.18164,178.325,-41.32937,41.45947,160.7963,-10.85955,0.001067912,-0.1257102,0.09433498,0,0.3,0,0.103012,0,0.103012
6.38255E+17,10.36638,91.05811,99.99634,32.08759,45.60714,-126.7812,14.0653,77.42861,93.9027,-73.82492,-62.50273,99.91262,0,0,0,23.18789,179.8249,-41.59029,39.3863,162.5791,-11.14363,0.001067912,-0.1257102,0.09433498,0,0.3,0,0.1002536,0,0.1002536
6.38255E+17,10.4135,90.91783,99.97299,31.64813,45.60714,-120.5553,13.09934,77.70914,95.02338,-83.63977,-61.62378,107.4569,0,0,0,23.35283,179.777,-41.2791,36.53996,165.32,-11.32068,0.001067912,-0.1257102,0.09433498,0,0.3,0,0.0930354,0,0.0930354
6.38255E+17,10.55486,90.96459,99.97299,30.54945,45.60714,-116.3804,12.58102,77.77929,95.67709,-88.03448,-61.11107,110.9726,0,0,0,23.64634,179.7752,-41.44407,35.05229,166.8694,-11.2907,0.001067912,-0.1257102,0.09433498,0,0.3,0,0.09028701,0,0.09028701
6.38255E+17,10.8847,91.33864,99.97299,25.86176,45.5339,-105.1006,11.40302,78.01306,97.59158,-101.0721,-59.49968,121.3002,0,0,0,24.21215,179.7577,-42.43703,31.60902,171.4092,-11.62937,0.001067912,-0.1257102,0.09433498,0,0.3,0,0.08518808,0,0.08518808
6.38255E+17,11.02606,91.57243,99.97299,23.81089,45.60714,-101.6581,10.97894,78.17671,98.50211,-105.9063,-58.91372,125.0357,0,0,0,24.4187,179.7439,-43.03103,30.32071,173.5861,-12.05679,0.001067912,-0.1257102,0.09433498,0,0.3,0,0.08353066,0,0.08353066
6.38255E+17,11.1203,91.61918,99.97299,22.78546,45.60714,-99.9002,10.71978,78.24685,99.08579,-108.8361,-58.54749,127.6725,0,0,0,24.60381,179.7408,-43.1781,29.54511,174.962,-12.2823,0.001067912,-0.1257102,0.09433498,0,0.3,0,0.08229338,0,0.08229338
6.38255E+17,11.33234,91.73607,99.97299,21.02757,45.60714,-96.67741,10.4135,78.34035,100.3465,-115.3549,-57.74179,133.0927,0,0,0,25.01344,179.7329,-43.53665,28.58239,177.8982,-12.82324,0.001067912,-0.1257102,0.09433498,0,0.3,0,0.08053356,0,0.08053356
6.38255E+17,11.61506,91.85296,99.97299,19.85565,45.60714,-94.84628,10.38994,78.45725,101.584,-122.7527,-57.00934,139.172,0,0,0,25.57427,179.7243,-43.92794,28.37158,180.7802,-13.61244,0.001067912,-0.1257102,0.09433498,0,0.3,0,0.07920276,0,0.07920276
6.38255E+17,11.80354,91.96985,99.97299,19.41618,45.5339,-94.26032,10.38994,78.6209,102.6813,-129.5645,-56.35013,144.0795,0,0,0,25.9278,179.7153,-44.2789,28.20746,183.3527,-14.50755,0.001067912,-0.1257102,0.09433498,0,0.3,0,0.07820605,0,0.07820605
6.38255E+17,11.87422,92.03999,99.97299,19.19645,45.60714,-94.11383,10.43706,78.8313,103.5918,-135.4241,-55.76417,144.8119,0,0,0,26.04727,179.7096,-44.47062,28.15972,185.5122,-15.47676,0.001067912,-0.1257102,0.09433498,0,0.3,0,0.07707483,0,0.07707483
6.38255E+17,11.89778,92.06336,99.97299,19.04996,45.60714,-94.11383,10.55486,79.11184,104.3623,-140.4048,-55.17821,144.8852,0,0,0,26.087,179.7076,-44.53454,28.27724,187.3772,-16.59078,0.001067912,-0.1257102,0.09433498,0,0.3,0,0.07555553,0,0.07555553
6.38255E+17,12.0627,92.11012,99.97299,19.1232,45.5339,-94.04059,10.55486,79.50927,105.1094,-143.7008,-54.59225,144.7387,0,0,0,26.42055,179.7037,-44.71649,28.02973,189.2303,-17.91913,0.001067912,-0.1257102,0.09433498,0,0.3,0,0.07406331,0,0.07406331
6.38255E+17,12.20406,92.15688,99.97299,19.26969,45.60714,-94.04059,10.57842,79.71967,105.5997,-144.946,-54.29927,144.8852,0,0,0,26.70251,179.6996,-44.88834,27.94769,190.419,-18.70117,0.001067912,-0.1257102,0.09433498,0,0.3,0,0.07364124,0,0.07364124
6.38255E+17,12.55746,92.22701,99.97299,19.48943,45.60714,-94.04059,10.60198,79.93008,106.2534,-146.4841,-53.78655,144.8852,0,0,0,27.42805,179.6934,-45.2146,27.84373,191.9686,-19.59681,0.001067912,-0.1257102,0.09433498,0,0.3,0,0.07386585,0,0.07386585
6.38255E+17,12.86374,92.2504,99.97299,19.70916,45.60714,-94.11383,10.60198,80.02359,106.627,-147.1433,-53.49357,144.8852,0,0,0,28.07378,179.6912,-45.41598,27.75903,192.8403,-20.04932,0.001067912,-0.1257102,0.09433498,0,0.3,0,0.074292,0,0.074292
6.38255E+17,14.51294,92.2504,99.97299,20.95433,45.60714,-94.91953,10.62554,80.32751,107.6776,-149.4872,-52.61463,144.7387,0,0,0,31.60018,179.6912,-46.27486,27.55853,195.2974,-21.45451,0.001067912,-0.1257102,0.09433498,0,0.3,0,0.07695027,0,0.07695027
6.38255E+17,15.17262,92.2504,99.97299,21.54029,45.60714,-96.09145,10.62554,80.42102,107.9344,-150.1464,-52.39489,144.8852,0,0,0,33.00358,179.6912,-46.64678,27.48526,195.9029,-21.84506,0.001067912,-0.1257102,0.09433498,0,0.3,0,0.07836298,0,0.07836298
6.38255E+17,17.10453,92.2504,99.97299,23.73765,45.60714,-101.3651,10.62554,80.8652,108.1679,-151.2451,-51.88218,144.8119,0,0,0,37.08767,179.6912,-47.82857,27.26613,196.5876,-23.01309,0.001067912,-0.1257102,0.09433498,0,0.3,0,0.08212704,0,0.08212704
6.38255E+17,19.27205,92.20364,99.97299,26.88719,45.60714,-108.2501,10.69622,81.61331,108.1679,-151.4648,-51.5892,144.8119,0,0,0,41.6553,179.6955,-49.21486,27.12601,196.8528,-24.73775,0.001067912,-0.1257102,0.09433498,0,0.3,0,0.08641253,0,0.08641253
6.38255E+17,20.45005,92.06336,99.97299,29.08454,45.60714,-112.2786,10.69622,82.10425,108.1679,-151.4648,-51.51595,144.8119,0,0,0,44.20972,179.7076,-49.79073,26.91608,197.0146,-25.84919,0.001067912,-0.1257102,0.09433498,0,0.3,0,0.08900208,0,0.08900208
6.38255E+17,22.66468,91.57243,99.97299,33.84548,45.60714,-119.6764,10.69622,82.96925,108.1679,-151.3916,-51.44271,144.8119,0,0,0,49.19826,179.7439,-50.53384,26.5456,197.2761,-27.81062,0.001067912,-0.1257102,0.09433498,0,0.3,0,0.09506433,0,0.09506433
6.38255E+17,24.54948,91.12823,99.94965,38.60641,45.60714,-127.5136,10.69622,83.48357,108.1679,-151.1718,-51.36946,144.8119,0,0,0,53.47992,179.7147,-51.26708,26.32498,197.4173,-28.97863,0.001067912,-0.1257102,0.09433498,0,0.3,0,0.1022811,0,0.1022811
6.38255E+17,26.03376,90.91783,99.94965,43.4406,45.60714,-136.0833,10.67266,83.9745,108.1679,-150.8056,-51.36946,144.8119,0,0,0,56.70962,179.7234,-52.2517,26.05732,197.5421,-30.08395,0.001067912,-0.1257102,0.09433498,0,0.3,0,0.1087185,0,0.1087185
6.38255E+17,26.55208,90.89445,99.94965,45.7112,45.60714,-139.6723,10.60198,84.25504,108.1679,-150.7323,-51.29622,144.7387,0,0,0,57.78188,179.7243,-52.72079,25.76724,197.6091,-30.69031,0.001067912,-0.1257102,0.09433498,0,0.3,0,0.1112285,0,0.1112285
6.38255E+17,27.47091,90.89445,99.94965,50.39889,45.60714,-142.2359,10.2957,84.90964,108.1679,-149.8534,-51.29622,144.7387,0,0,0,59.62868,179.7243,-53.66225,24.75993,197.7529,-32.04679,0.001067912,-0.1257102,0.09433498,0,0.3,0,0.1165104,0,0.1165104
6.38255E+17,28.22483,90.8477,99.94965,53.47519,45.60714,-142.3092,10.27214,85.49409,108.1679,-149.4872,-51.36946,144.8119,0,0,0,61.18404,179.726,-54.36091,24.46217,197.8667,-33.37038,0.001067912,-0.1257102,0.09433498,0,0.3,0,0.1196617,0,0.1196617
6.38255E+17,28.79027,90.80094,99.94965,55.15982,45.60714,-142.3092,10.31926,85.89153,108.1445,-149.5604,-51.29622,144.8119,0,0,0,62.35838,179.7275,-54.8749,24.41097,197.8845,-34.28133,0.001067912,-0.1257102,0.09433498,0,0.3,0,0.1217782,0,0.1217782
6.38255E+17,29.68555,90.47365,99.9263,58.08963,45.60714,-142.4556,10.83758,86.61625,108.1445,-150.2196,-51.36946,144.8119,0,0,0,64.50567,179.6825,-55.19322,25.30633,197.9947,-36.16072,0.001067912,-0.1257102,0.09433498,0,0.3,0,0.122894,0,0.122894
6.38255E+17,30.22743,90.09959,99.9263,60.28699,45.60714,-142.5289,11.68574,87.10719,108.1212,-151.7578,-51.36946,144.8119,0,0,0,66.01122,179.6868,-55.05615,27.03264,198.0056,-37.6505,0.001067912,-0.1257102,0.09433498,0,0.3,0,0.1207774,0,0.1207774
6.38255E+17,30.79287,89.70216,99.9263,61.97163,45.60714,-142.5289,12.84018,87.50462,107.9578,-153.6622,-51.66244,144.8852,0,0,0,67.59959,179.6852,-54.91854,29.48125,197.6875,-39.00767,0.001067912,-0.1257102,0.09433498,0,0.3,0,0.1171514,0,0.1171514
6.38255E+17,31.54679,89.11771,99.90295,63.43653,45.60714,-142.5289,14.48938,88.04231,107.4675,-156.8117,-52.39489,144.8119,0,0,0,69.8028,179.6177,-54.65069,32.9655,196.6491,-40.7843,0.001067912,-0.1257102,0.09433498,0,0.3,0,0.1115073,0,0.1115073
6.38255E+17,32.23003,88.46312,99.90295,64.53521,45.60714,-142.6021,15.78517,88.39299,107.0005,-157.1779,-53.20059,144.8119,0,0,0,71.96597,179.5855,-54.20269,35.70752,195.6365,-42.03756,0.001067912,-0.1257102,0.09433498,0,0.3,0,0.1078388,0,0.1078388
6.38255E+17,33.07819,87.57475,99.90295,65.85361,45.60714,-142.6021,17.81133,88.4865,105.9732,-157.2512,-54.15278,144.8119,0,0,0,74.77554,179.5141,-53.54905,40.29206,193.3498,-42.94014,0.001067912,-0.1257102,0.09433498,0,0.3,0,0.1004653,0,0.1004653
6.38255E+17,33.78498,86.87341,99.90295,66.58607,45.60714,-142.6021,19.17781,88.34623,104.9693,-157.2512,-55.25146,144.8119,0,0,0,77.09261,179.435,-53.12512,43.58323,191.089,-43.03975,0.001067912,-0.1257102,0.09433498,0,0.3,0,0.09589764,0,0.09589764
6.38255E+17,34.20906,86.40585,99.90295,67.02554,45.60714,-142.6021,20.00241,88.20596,104.2922,-157.2512,-56.05715,144.8852,0,0,0,78.55408,179.3712,-52.80049,45.62989,189.5544,-42.9993,0.001067912,-0.1257102,0.09433498,0,0.3,0,0.0931571,0,0.0931571
6.38255E+17,35.2457,85.35382,99.90295,67.75799,45.60714,-142.6021,21.60448,87.55138,103.0315,-156.299,-58.25451,144.8119,0,0,0,82.04102,179.1953,-52.24616,49.93232,186.6469,-42.26418,0.001067912,-0.1257102,0.09433498,0,0.3,0,0.08954477,0,0.08954477
6.38255E+17,36.6593,84.02126,99.90295,68.78342,45.60714,-142.6021,23.23012,86.59286,101.5139,-153.3692,-61.25756,144.8852,0,0,0,86.72398,178.9082,-51.82821,54.66399,183.0817,-40.9943,0.001067912,-0.1257102,0.09433498,0,0.3,0,0.08865332,0,0.08865332
6.38255E+17,37.08338,83.60046,99.90295,69.07641,45.60714,-142.6021,23.44216,86.31233,101.1404,-152.71,-61.91676,144.8852,0,0,0,88.17114,178.8026,-51.69653,55.46212,182.1889,-40.44292,0.001067912,-0.1257102,0.09433498,0,0.3,0,0.09036602,0,0.09036602
6.38255E+17,38.16714,82.43155,99.90295,69.66236,45.60714,-142.6021,23.8898,85.47071,100.2298,-146.4841,-62.79571,144.9584,0,0,0,92.03042,178.4718,-51.26207,57.41006,179.9661,-38.73454,0.001067912,-0.1257102,0.09433498,0,0.3,0,0.0958036,0,0.0958036
6.38255E+17,39.41582,80.9821,99.90295,69.95535,45.60714,-142.6021,24.2432,84.55896,99.29593,-137.6947,-63.08869,142.9808,0,0,0,96.67961,177.9852,-50.71653,59.22778,177.6397,-36.82752,0.001067912,-0.1257102,0.09433498,0,0.3,0,0.103859,0,0.103859
6.38255E+17,41.11213,78.73779,99.90295,70.10184,45.60714,-142.6021,24.64372,83.17965,97.66161,-117.4058,-63.23518,126.8668,0,0,0,103.5001,177.0657,-49.75628,61.71045,173.5349,-33.83396,0.001067912,-0.1257102,0.09433498,0,0.3,0,0.1166344,0,0.1166344
6.38255E+17,41.84249,77.52213,99.90295,70.17509,45.60714,-142.6021,24.90288,82.66533,96.82111,-105.9063,-63.30842,117.6379,0,0,0,106.8504,176.4837,-49.02251,62.92229,171.4468,-32.81336,0.001067912,-0.1257102,0.09433498,0,0.3,0,0.1224428,0,0.1224428
6.38255E+17,42.92625,75.41808,99.87961,69.95535,45.60714,-142.6021,25.539,81.70683,95.28019,-85.10468,-63.30842,100.5718,0,0,0,112.337,175.2846,-47.57202,65.53896,167.5773,-31.18507,0.001067912,-0.1257102,0.09433498,0,0.3,0,0.1304669,0,0.1304669
6.38255E+17,43.93933,72.8231,99.87961,69.44263,45.60714,-142.6021,26.05732,80.60804,93.73927,-69.21047,-63.16194,87.16796,0,0,0,118.4854,173.6322,-45.39447,68.01093,163.609,-29.26023,0.001067912,-0.1257102,0.09433498,0,0.3,0,0.1402181,0,0.1402181
6.38255E+17,45.14088,69.48002,99.87961,68.34396,45.60714,-142.6021,26.99972,79.11184,91.52129,-54.12197,-62.35624,74.27681,0,0,0,126.2565,171.1189,-42.71291,71.95308,157.8396,-27.1324,0.001067912,-0.1257102,0.09433498,0,0.3,0,0.1508885,0,0.1508885
6.38255E+17,45.94193,67.18896,99.87961,67.31852,45.60714,-142.6021,28.13059,77.94293,89.74689,-41.96327,-61.25756,63.58302,0,0,0,131.5616,169.1505,-41.04451,76.00475,153.1692,-26.18851,0.001067912,-0.1257102,0.09433498,0,0.3,0,0.1551889,0,0.1551889
6.38255E+17,46.38956,65.94991,99.87961,66.73256,45.60714,-142.6021,28.83739,77.3351,88.813,-35.00498,-60.52511,57.43042,0,0,0,134.4679,168.0038,-40.25123,78.40595,150.693,-25.95031,0.001067912,-0.1257102,0.09433498,0,0.3,0,0.1570176,0,0.1570176
6.38255E+17,47.40264,63.56533,99.87961,65.78037,45.60714,-142.6021,30.27455,76.16618,86.75844,-21.89409,-58.62074,45.93093,0,0,0,140.4068,165.6373,-39.25129,83.19461,145.2916,-25.8342,0.001067912,-0.1257102,0.09433498,0,0.3,0,0.1616857,0,0.1616857
6.38255E+17,49.24032,60.26901,99.87961,64.46196,45.60714,-142.4556,33.29023,74.59985,85.10078,-7.391551,-55.83742,32.01435,0,0,0,149.6007,162.0262,-39.4017,92.36285,140.5235,-27.68871,0.001067912,-0.1257102,0.09433498,0,0.3,0,0.1618641,0,0.1618641
6.38255E+17,49.97068,58.9832,99.87961,63.876,45.60714,-142.3092,34.44466,74.20242,84.9607,-1.458692,-54.88523,25.935,0,0,0,153.2092,160.5131,-39.65857,95.66599,139.95,-28.86672,0.001067912,-0.1257102,0.09433498,0,0.3,0,0.1613367,0,0.1613367
6.38255E+17,51.078,57.18309,99.87961,62.92381,45.60714,-142.3092,36.56506,73.75823,84.91401,9.088613,-53.56682,14.06928,0,0,0,158.4341,158.2982,-40.40926,101.3475,139.5564,-31.71143,0.001067912,-0.1257102,0.09433498,0,0.3,0,0.1578478,0,0.1578478
6.38255E+17,51.54919,56.62201,99.87961,62.63083,45.60714,-142.3824,37.4839,73.52444,84.91401,13.1171,-53.12735,9.381593,0,0,0,160.3377,157.5851,-41.03626,103.8433,139.4032,-32.93994,0.001067912,-0.1257102,0.09433498,0,0.3,0,0.1557343,0,0.1557343
6.38255E+17,53.52823,54.61148,99.87961,62.26461,45.60714,-142.4556,40.64093,72.72959,84.93735,28.05911,-50.49052,-8.197248,0,0,0,167.7439,154.9427,-44.35389,112.2993,138.9203,-37.51743,0.001067912,-0.1257102,0.09433498,0,0.3,0,0.1511036,0,0.1511036
6.38255E+17,54.16435,53.46595,99.87961,62.33785,45.60714,-142.3092,41.79537,72.47243,84.9607,32.67356,-49.3186,-14.05686,0,0,0,170.8596,153.3771,-44.96045,115.2963,138.7955,-39.37716,0.001067912,-0.1257102,0.09433498,0,0.3,0,0.1500604,0,0.1500604
6.38255E+17,54.80047,51.57232,99.87961,62.48434,45.60714,-142.3092,43.32677,72.02824,85.05409,37.72747,-47.63396,-19.84323,0,0,0,175.0768,150.6955,-44.84907,119.3904,138.6969,-41.77449,0.001067912,-0.1257102,0.09433498,0,0.3,0,0.1483229,0,0.1483229
6.38255E+17,55.03607,50.7307,99.87961,62.48434,45.5339,-142.3092,43.96289,71.81784,85.10078,39.48536,-46.9015,-21.82085,0,0,0,176.8333,149.4668,-44.69582,121.118,138.6532,-42.76599,0.001067912,-0.1257102,0.09433498,0,0.3,0,0.1476483,0,0.1476483
6.38255E+17,55.55439,48.34613,99.87961,62.48434,45.60714,-142.3092,45.47073,71.30352,85.17083,43.14762,-44.99713,-25.92258,0,0,0,181.4266,145.8656,-43.91235,125.2,138.437,-45.1905,0.001067912,-0.1257102,0.09433498,0,0.3,0,0.147497,0,0.147497
6.38255E+17,55.97847,45.65763,99.87961,62.33785,45.60714,-142.3092,46.76653,70.97623,85.17083,46.00418,-43.31249,-29.14537,0,0,0,186.1353,141.5987,-42.69833,128.4783,138.1908,-47.55951,0.001067912,-0.1257102,0.09433498,0,0.3,0,0.1507009,0,0.1507009
6.38255E+17,56.28475,42.96914,99.87961,62.11811,45.60714,-142.3092,47.92096,70.5788,85.17083,47.9818,-41.84759,-31.56245,0,0,0,190.44,137.1219,-41.26907,131.5341,137.8862,-49.58721,0.001067912,-0.1257102,0.09433498,0,0.3,0,0.1546875,0,0.1546875
6.38255E+17,56.35543,39.76632,99.87961,61.75189,45.60714,-142.0162,49.16964,69.92421,85.17083,49.81293,-40.30944,-34.12604,0,0,0,194.6973,131.5284,-38.77502,135.1758,137.3715,-51.54428,0.001067912,-0.1257102,0.09433498,0,0.3,0,0.1590043,0,0.1590043
6.38255E+17,56.35543,35.86216,99.87961,60.7997,45.60714,-142.0894,50.489,69.01246,85.17083,51.42432,-38.69805,-36.61637,0,0,0,199.3341,124.3514,-35.68907,139.3626,136.6272,-53.42338,0.001067912,-0.1257102,0.09433498,0,0.3,0,0.1657036,0,0.1657036
6.38255E+17,56.35543,34.34258,99.0391,59.99401,45.60714,-142.0894,51.31359,68.428,85.12413,52.30326,-37.67262,-37.86154,0,0,0,201.2948,119.5285,-34.38422,141.9843,136.0253,-54.6544,0.001067912,-0.1257102,0.09433498,0,0.3,0,0.1685144,0,0.1685144
6.38255E+17,56.35543,33.85164,98.50211,59.55453,45.60714,-142.1627,51.73767,68.07733,85.10078,52.88922,-37.23314,-38.52075,0,0,0,201.9867,117.3471,-33.92376,143.4136,135.6687,-55.24184,0.001067912,-0.1257102,0.09433498,0,0.3,0,0.168919,0,0.168919
6.38255E+17,56.35543,32.79962,97.40479,59.18831,45.60714,-142.0894,52.72719,66.95518,85.00739,53.91465,-35.91473,-39.69267,0,0,0,203.4007,112.772,-32.9827,147.2509,134.4534,-56.28531,0.001067912,-0.1257102,0.09433498,0,0.3,0,0.1678139,0,0.1678139
6.38255E+17,56.33187,30.8826,95.51366,59.62778,45.60714,-142.0894,53.92875,65.29533,84.82062,55.01333,-34.23009,-40.57161,0,0,0,205.716,104.6087,-31.31974,152.3925,132.4569,-57.34056,0.001067912,-0.1257102,0.09433498,0,0.3,0,0.1704141,0,0.1704141
6.38255E+17,56.33187,30.15788,94.7899,59.70102,45.5339,-142.0894,54.28215,64.75762,84.72723,55.23307,-33.71738,-40.86459,0,0,0,206.5548,101.478,-30.76101,153.9793,131.7121,-57.6319,0.001067912,-0.1257102,0.09433498,0,0.3,0,0.172471,0,0.172471
6.38255E+17,56.30831,28.49803,93.10889,59.70102,45.60714,-142.2359,55.05963,63.42507,84.30698,55.74578,-32.76519,-41.08433,0,0,0,208.2967,94.20718,-29.47701,157.6776,129.3834,-58.18731,0.001067912,-0.1257102,0.09433498,0,0.3,0,0.1767988,0,0.1767988
6.38255E+17,56.30831,26.72129,91.26447,59.26155,45.5339,-142.2359,55.17743,62.09251,83.74664,55.96552,-31.88625,-41.08433,0,0,0,210.0274,86.25361,-28.3231,160.056,126.6668,-57.01468,0.001067912,-0.1257102,0.09433498,0,0.3,0,0.1829924,0,0.1829924
6.38255E+17,56.30831,24.28995,88.78965,58.38261,45.5339,-142.3824,55.17743,60.61968,82.95284,55.96552,-30.93406,-40.79135,0,0,0,212.0569,75.38737,-26.97004,162.3499,123.1886,-55.41903,0.001067912,-0.1257102,0.09433498,0,0.3,0,0.1939588,0,0.1939588
6.38255E+17,56.30831,23.05091,87.55225,57.86989,45.60714,-142.2359,55.15387,59.82482,82.29912,55.81903,-30.42134,-40.13214,0,0,0,212.9437,69.86788,-26.37881,163.4609,120.761,-54.54642,0.001067912,-0.1257102,0.09433498,0,0.3,0,0.1985568,0,0.1985568
6.38255E+17,56.30831,21.25079,85.70781,56.99095,45.5339,-141.8697,55.13031,58.28186,81.22514,55.30631,-29.68889,-38.74048,0,0,0,214.048,61.70254,-25.64254,165.6471,116.4406,-52.92321,0.001067912,-0.1257102,0.09433498,0,0.3,0,0.2027858,0,0.2027858
6.38255E+17,56.30831,19.5208,83.93343,56.33175,45.60714,-140.5513,55.13031,56.31809,79.84765,54.35413,-29.02968,-36.68962,0,0,0,214.9048,53.8158,-25.07134,168.37,110.8093,-51.02582,0.001067912,-0.1257102,0.09433498,0,0.3,0,0.2028564,0,0.2028564
6.38255E+17,56.30831,17.65055,81.92556,55.67254,45.60714,-138.1342,55.13031,54.35432,78.1433,53.25545,-28.15074,-33.75981,0,0,0,215.5805,45.05285,-24.62085,170.8329,104.3164,-49.30961,0.001067912,-0.1257102,0.09433498,0,0.3,0,0.2034663,0,0.2034663
6.38255E+17,56.33187,16.22447,80.47802,55.15982,45.5339,-136.4495,55.13031,52.97501,76.81251,52.37651,-27.34505,-31.78219,0,0,0,216.0154,38.54862,-24.45914,172.4036,99.39078,-48.2151,0.001067912,-0.1257102,0.09433498,0,0.3,0,0.2041969,0,0.2041969
6.38255E+17,56.33187,15.40624,79.66087,54.86684,45.60714,-135.6438,55.13031,52.06326,75.92531,51.79055,-26.75908,-30.39053,0,0,0,216.1744,34.84303,-24.35324,173.3859,96.09288,-47.53059,0.001067912,-0.1257102,0.09433498,0,0.3,0,0.2033922,0,0.2033922
6.38255E+17,56.35543,13.69963,77.83979,54.06115,45.5339,-134.6184,55.13031,50.14624,74.10422,50.69187,-25.66041,-27.60722,0,0,0,216.3761,26.84187,-24.34729,175.3357,89.19746,-46.17196,0.001067912,-0.1257102,0.09433498,0,0.3,0,0.2022133,0,0.2022133
6.38255E+17,56.44967,12.41383,76.64907,53.32869,45.60714,-132.9338,55.13031,48.34613,72.35318,49.59319,-24.48849,-24.8239,0,0,0,216.6662,21.22392,-24.6679,176.9747,82.56069,-45.02987,0.001067912,-0.1257102,0.09433498,0,0.3,0,0.1971929,0,0.1971929
6.38255E+17,56.44967,12.34369,76.509,53.69492,45.60714,-132.0548,55.13031,46.59276,70.78891,48.49451,-23.46305,-22.04058,0,0,0,216.6323,20.74735,-24.69038,178.4976,76.34841,-43.96866,0.001067912,-0.1257102,0.09433498,0,0.3,0,0.1823225,0,0.1823225
6.38255E+17,56.40255,12.13329,76.29887,54.94009,45.60714,-132.4211,55.13031,44.95628,69.17795,47.39584,-22.43762,-19.25727,0,0,0,216.5048,19.79345,-24.51845,179.6839,70.16923,-43.14201,0.001067912,-0.1257102,0.09433498,0,0.3,0,0.1693063,0,0.1693063
6.38255E+17,56.35543,11.99302,76.15878,55.89228,45.60714,-132.5675,55.13031,43.50684,67.82381,46.5169,-21.63192,-16.76693,0,0,0,216.3786,19.15754,-24.34564,180.6669,64.81985,-42.45704,0.001067912,-0.1257102,0.09433498,0,0.3,0,0.1579036,0,0.1579036
6.38255E+17,56.30831,11.85275,75.87862,57.13744,45.60714,-133.5197,55.13031,41.8236,66.53971,45.49146,-20.75298,-14.05686,0,0,0,216.1851,18.20538,-24.21772,181.8942,59.18463,-41.60182,0.001067912,-0.1257102,0.09433498,0,0.3,0,0.1460953,0,0.1460953
6.38255E+17,56.26119,11.73586,75.71518,57.94314,45.60714,-134.7649,55.13031,40.8651,65.81594,44.97874,-20.38675,-12.44547,0,0,0,216.0352,17.57033,-24.06093,182.5451,55.96888,-41.1483,0.001067912,-0.1257102,0.09433498,0,0.3,0,0.1397246,0,0.1397246
6.38255E+17,56.23763,11.64235,75.59845,58.60235,45.60714,-135.7903,55.13031,40.25727,65.349,44.68576,-20.16702,-11.49328,0,0,0,215.9565,17.09398,-23.98501,182.9312,53.90459,-40.87922,0.001067912,-0.1257102,0.09433498,0,0.3,0,0.135876,0,0.135876
6.38255E+17,56.04915,11.50208,75.41167,59.99401,45.60714,-137.475,55.15387,39.06498,64.60188,44.0998,-19.72755,-10.02838,0,0,0,215.4445,16.35328,-23.29957,183.8335,50.19281,-40.36278,0.001067912,-0.1257102,0.09433498,0,0.3,0,0.1283127,0,0.1283127
6.38255E+17,55.71931,11.33843,75.24824,61.16593,45.60714,-138.2074,55.15387,37.91945,63.80808,43.58709,-19.36132,-8.929699,0,0,0,214.5886,15.61198,-22.0735,184.5355,46.4427,-39.874,0.001067912,-0.1257102,0.09433498,0,0.3,0,0.1211327,0,0.1211327
6.38255E+17,55.34235,11.19816,75.10815,61.97163,45.60714,-138.5737,55.15387,36.8908,63.15435,42.92788,-18.9951,-7.904267,0,0,0,213.6055,14.97663,-20.67601,185.1715,43.1796,-39.43124,0.001067912,-0.1257102,0.09433498,0,0.3,0,0.1149794,0,0.1149794
6.38255E+17,55.13031,11.12803,75.03811,62.33785,45.60714,-138.6469,55.15387,36.32973,62.80414,42.6349,-18.77536,-7.318305,0,0,0,213.049,14.65897,-19.89245,185.5067,41.40528,-39.19785,0.001067912,-0.1257102,0.09433498,0,0.3,0,0.1117287,0,0.1117287
6.38255E+17,54.70623,10.96438,74.89803,62.77732,45.60714,-138.7201,55.15387,35.37122,62.15042,42.12218,-18.40914,-6.219628,0,0,0,211.9349,13.97028,-18.32632,186.002,38.24783,-38.85305,0.001067912,-0.1257102,0.09433498,0,0.3,0,0.1066717,0,0.1066717
6.38255E+17,54.25859,10.80073,74.71125,63.29004,45.60714,-138.6469,55.15387,34.3192,61.56674,41.53622,-17.89642,-4.97446,0,0,0,210.7222,13.17675,-16.69967,186.6242,35.04054,-38.41982,0.001067912,-0.1257102,0.09433498,0,0.3,0,0.1017163,0,0.1017163
6.38255E+17,53.95231,10.68384,74.59451,63.65627,45.60714,-138.6469,55.15387,33.54772,61.23988,41.31649,-17.38371,-4.168763,0,0,0,209.8914,12.64746,-15.58788,187.148,32.88288,-38.05517,0.001067912,-0.1257102,0.09433498,0,0.3,0,0.09837193,0,0.09837193
6.38255E+17,53.64603,10.56695,74.47778,63.94925,45.60714,-138.6469,55.15387,32.77624,60.95971,41.09675,-17.01748,-3.216576,0,0,0,209.0539,12.11822,-14.48129,187.6954,30.80894,-37.67405,0.001067912,-0.1257102,0.09433498,0,0.3,0,0.0952974,0,0.0952974
6.38255E+17,53.22195,10.37992,74.291,64.24223,45.60714,-138.6469,55.15387,31.67747,60.58615,41.02351,-16.50476,-1.678428,0,0,0,207.8789,11.27153,-12.96087,188.4662,27.88693,-37.13741,0.001067912,-0.1257102,0.09433498,0,0.3,0,0.09146055,0,0.09146055
6.38255E+17,53.00991,10.26303,74.17426,64.38871,45.60714,-138.6469,55.15387,31.09301,60.37603,40.95026,-16.28502,-0.8727306,0,0,0,207.2824,10.74241,-12.20771,188.8498,26.30014,-36.87032,0.001067912,-0.1257102,0.09433498,0,0.3,0,0.08969236,0,0.08969236
6.38255E+17,52.256,9.88898,73.82405,64.68169,45.60714,-138.7201,55.15387,29.40978,59.69896,41.02351,-15.62582,1.251379,0,0,0,205.1527,9.101778,-9.53811,189.8236,21.55099,-36.19235,0.001067912,-0.1257102,0.09433498,0,0.3,0,0.08624843,0,0.08624843
6.38255E+17,51.97327,9.748712,73.63728,64.82819,45.60714,-138.6469,55.15387,28.84871,59.48883,41.17,-15.47933,1.764095,0,0,0,204.3145,8.3628,-8.568471,190.1422,19.98853,-35.97058,0.001067912,-0.1257102,0.09433498,0,0.3,0,0.08571678,0,0.08571678
6.38255E+17,51.45495,9.49155,72.72674,64.90143,45.60714,-138.5737,55.15387,27.5629,59.09193,41.60947,-14.96661,3.228999,0,0,0,202.4594,5.744169,-7.046472,190.9158,16.55715,-35.43198,0.001067912,-0.1257102,0.09433498,0,0.3,0,0.08448653,0,0.08448653
6.38255E+17,50.93663,8.883718,71.39594,64.46196,45.60714,-136.9623,55.15387,26.25372,58.67168,42.12218,-14.30741,5.206618,0,0,0,200.4266,1.401006,-5.680383,191.6326,13.00278,-34.93292,0.001067912,-0.1257102,0.09433498,0,0.3,0,0.08495465,0,0.08495465
6.38255E+17,50.1356,7.878454,70.32196,63.50977,45.60714,-134.0325,55.13031,24.87441,58.11135,43.00113,-13.20873,7.91669,0,0,0,197.7655,-3.274962,-3.201004,192.1535,8.996259,-34.45294,0.001067912,-0.1257102,0.09433498,0,0.3,0,0.08850554,0,0.08850554
6.38255E+17,49.73508,7.317377,69.76163,62.99706,45.60714,-131.6154,55.13031,24.17306,57.90122,43.51384,-12.62277,9.161857,0,0,0,196.3983,-5.795133,-1.998704,192.4967,7.096447,-34.21373,0.001067912,-0.1257102,0.09433498,0,0.3,0,0.09078518,0,0.09078518
6.38255E+17,49.1932,6.405628,68.78104,62.26461,45.60714,-128.7588,55.13031,23.00415,57.5977,44.39278,-11.89032,11.21272,0,0,0,194.3968,-10.03637,-0.5109276,193.0807,4.005877,-33.80685,0.001067912,-0.1257102,0.09433498,0,0.3,0,0.09401561,0,0.09401561
6.38255E+17,48.93404,6.008198,68.33745,62.04487,45.60714,-127.7334,55.13031,22.4197,57.43428,44.83226,-11.52409,12.23815,0,0,0,193.4265,-11.9169,0.1844242,193.344,2.430244,-33.62338,0.001067912,-0.1257102,0.09433498,0,0.3,0,0.09548817,0,0.09548817
6.38255E+17,47.99164,4.722397,67.05334,60.65321,45.60714,-122.6062,55.08319,20.57282,56.85059,46.44365,-10.42541,16.19339,0,0,0,189.9935,-17.66123,2.771137,193.9203,-2.710139,-32.98475,0.001067912,-0.1257102,0.09433498,0,0.3,0,0.1012812,0,0.1012812
6.38255E+17,47.7796,4.488615,66.81988,60.28699,45.60714,-120.9948,55.03607,20.22215,56.68716,46.80988,-10.13243,17.07234,0,0,0,189.2336,-18.70353,3.359402,193.8712,-3.793283,-32.78176,0.001067912,-0.1257102,0.09433498,0,0.3,0,0.1023623,0,0.1023623
6.38255E+17,47.26128,4.067808,65.93268,59.62778,45.60714,-117.6988,54.96539,19.1935,56.31361,47.90855,-9.399981,19.78241,0,0,0,187.1185,-21.57198,4.552269,193.9719,-6.772069,-32.35472,0.001067912,-0.1257102,0.09433498,0,0.3,0,0.1049103,0,0.1049103
6.38255E+17,46.74296,3.834026,64.67193,59.04182,45.60714,-114.1098,54.96539,18.0246,56.05679,48.64101,-8.740773,22.05301,0,0,0,184.6812,-24.7806,5.42346,194.4104,-9.846919,-32.04731,0.001067912,-0.1257102,0.09433498,0,0.3,0,0.1078837,0,0.1078837
6.38255E+17,46.27176,3.740513,62.94423,58.30937,45.60714,-109.4221,54.91827,17.06609,55.77662,49.30021,-8.081567,24.4701,0,0,0,181.9738,-28.60579,5.719552,194.5495,-12.51399,-31.71098,0.001067912,-0.1257102,0.09433498,0,0.3,0,0.1108631,0,0.1108631
6.38255E+17,45.94193,3.459974,61.26323,57.50367,45.60714,-104.8076,54.82403,16.36474,55.44976,49.73968,-7.642097,26.37447,0,0,0,179.6827,-32.71503,5.519906,194.357,-14.70511,-31.36822,0.001067912,-0.1257102,0.09433498,0,0.3,0,0.1133441,0,0.1133441
6.38255E+17,45.5414,2.782006,59.53553,56.55148,45.60714,-100.5594,54.63555,15.78029,54.98281,50.03266,-7.12938,28.35209,0,0,0,177.1066,-37.78669,5.4408,193.7069,-16.90476,-30.87048,0.001067912,-0.1257102,0.09433498,0,0.3,0,0.1171482,0,0.1171482
6.38255E+17,45.16444,2.010525,57.87787,55.74578,45.60714,-96.75066,54.49419,15.17245,54.49252,50.10591,-6.909645,29.74375,0,0,0,174.5916,-42.87729,5.242307,193.1381,-19.19986,-30.55635,0.001067912,-0.1257102,0.09433498,0,0.3,0,0.121566,0,0.121566
6.38255E+17,44.69325,0.7481025,56.29026,54.42737,45.60714,-93.38138,54.28215,14.35422,53.72206,49.95942,-6.616664,31.20865,0,0,0,171.7957,-48.91629,5.295202,192.1673,-22.494,-30.17296,0.001067912,-0.1257102,0.09433498,0,0.3,0,0.126605,0,0.126605
6.38255E+17,44.29272,-0.04675641,55.28632,53.62167,45.60714,-92.13622,54.09367,13.76976,53.13838,49.81293,-6.396928,32.08759,0,0,0,169.6682,-52.69841,5.55964,191.3239,-24.90451,-29.82239,0.001067912,-0.1257102,0.09433498,0,0.3,0,0.1298272,0,0.1298272
6.38255E+17,43.96289,-0.4675641,54.37578,52.96247,45.5339,-91.47701,53.95231,13.39571,52.74147,49.59319,-6.323683,32.52707,0,0,0,167.8138,-55.41012,5.651742,190.6967,-26.48788,-29.55806,0.001067912,-0.1257102,0.09433498,0,0.3,0,0.1325708,0,0.1325708
6.38255E+17,43.35033,-0.8416153,52.32122,51.49756,45.60714,-90.89104,53.66959,12.62423,51.92432,49.08047,-6.030703,33.33276,0,0,0,163.9778,-60.11674,5.35309,189.3989,-29.74275,-29.06782,0.001067912,-0.1257102,0.09433498,0,0.3,0,0.1364346,0,0.1364346
6.38255E+17,42.43149,-0.9117499,49.70633,49.37346,45.5339,-90.67131,53.19839,11.38519,50.50013,48.05504,-5.517986,34.57793,0,0,0,158.5864,-65.01009,5.132707,187.0648,-35.14698,-28.39947,0.001067912,-0.1257102,0.09433498,0,0.3,0,0.1382464,0,0.1382464
6.38255E+17,42.05453,-0.9117499,48.67905,48.78749,45.60714,-89.86562,53.00991,10.89424,49.9865,47.54232,-5.298251,35.09065,0,0,0,156.395,-66.81976,5.012172,186.1691,-37.18708,-28.11203,0.001067912,-0.1257102,0.09433498,0,0.3,0,0.1390891,0,0.1390891
6.38255E+17,41.18281,-0.9117499,46.78792,48.05504,45.60714,-86.42309,52.63295,10.02925,49.16934,46.80988,-5.00527,35.89634,0,0,0,151.7903,-70.07676,5.14361,184.5528,-40.61462,-27.41681,0.001067912,-0.1257102,0.09433498,0,0.3,0,0.1424455,0,0.1424455
6.38255E+17,40.16973,-0.9117499,44.82675,47.54232,45.60714,-81.36917,52.23243,9.304525,48.46893,46.07742,-4.785534,36.77529,0,0,0,146.6468,-73.34929,5.369074,182.9386,-43.50428,-26.61408,0.001067912,-0.1257102,0.09433498,0,0.3,0,0.147783,0,0.147783
6.38255E+17,38.75614,-0.9117499,42.04842,47.10286,45.60714,-73.60519,51.64344,8.392776,47.60507,45.19848,-4.492554,37.80072,0,0,0,139.3776,-77.79483,5.272774,180.6737,-47.09597,-25.37267,0.001067912,-0.1257102,0.09433498,0,0.3,0,0.1557166,0,0.1557166
6.38255E+17,38.04934,-0.9117499,40.32073,46.95637,45.60714,-69.28372,51.26648,7.878454,47.04474,44.68576,-4.346064,38.31343,0,0,0,135.3601,-80.44253,4.595893,179.1717,-49.23974,-24.6342,0.001067912,-0.1257102,0.09433498,0,0.3,0,0.159163,0,0.159163
6.38255E+17,37.69594,-0.9117499,39.29345,46.88312,45.60714,-66.72014,51.00732,7.55116,46.69453,44.31954,-4.199574,38.67966,0,0,0,133.1678,-81.97317,3.974204,178.1662,-50.58943,-24.11153,0.001067912,-0.1257102,0.09433498,0,0.3,0,0.1602453,0,0.1602453
6.38255E+17,37.08338,-0.9117499,37.42567,46.80988,45.60714,-62.32543,50.41832,6.966705,45.99411,43.58709,-4.053083,39.41211,0,0,0,129.2626,-84.67081,2.668869,175.9392,-53.11819,-22.89515,0.001067912,-0.1257102,0.09433498,0,0.3,0,0.1608598,0,0.1608598
6.38255E+17,36.61218,-0.9117499,34.95086,46.88312,45.60714,-56.97853,49.47592,6.24198,44.94349,42.12218,-3.906592,40.51079,0,0,0,125.0795,-88.0714,-0.005035043,172.3671,-56.5368,-21.0093,0.001067912,-0.1257102,0.09433498,0,0.3,0,0.1575463,0,0.1575463
6.38255E+17,36.56506,-0.9117499,34.29713,46.80988,45.60714,-55.80661,49.16964,6.054955,44.66332,41.68271,-3.833347,40.87702,0,0,0,124.1952,-88.93588,-0.9078187,171.2622,-57.42907,-20.36201,0.001067912,-0.1257102,0.09433498,0,0.3,0,0.1557061,0,0.1557061
6.38255E+17,36.37658,-0.9117499,33.19981,46.88312,45.60714,-53.82899,48.41572,5.564013,44.03294,40.65728,-3.686857,41.75596,0,0,0,122.3843,-90.35468,-2.209879,168.6019,-59.59137,-18.74094,0.001067912,-0.1257102,0.09433498,0,0.3,0,0.1506144,0,0.1506144
6.38255E+17,35.90538,-0.9117499,32.63948,47.02961,45.60714,-52.29084,47.75604,5.189961,43.566,39.85158,-3.613612,42.48841,0,0,0,120.3718,-91.06342,-2.09573,166.3479,-61.21029,-17.28218,0.001067912,-0.1257102,0.09433498,0,0.3,0,0.147895,0,0.147895
6.38255E+17,34.93942,-0.9117499,31.54216,47.32259,45.60714,-49.94699,46.8372,4.699019,43.07571,38.97264,-3.540367,43.66033,0,0,0,116.3128,-92.42019,-1.863756,163.3703,-63.13154,-15.13457,0.001067912,-0.1257102,0.09433498,0,0.3,0,0.1481851,0,0.1481851
6.38255E+17,34.37398,-0.9117499,30.81839,47.24934,45.60714,-48.55533,46.27176,4.511993,42.79554,38.53317,-3.467122,44.17305,0,0,0,113.8505,-93.2923,-1.913493,161.5306,-64.00958,-13.83563,0.001067912,-0.1257102,0.09433498,0,0.3,0,0.1487466,0,0.1487466
6.38255E+17,33.64362,-0.9117499,29.58099,47.24934,45.60714,-46.28474,45.40005,4.348346,42.32859,37.65423,-3.613612,44.97874,0,0,0,110.3407,-94.74091,-2.547885,158.6122,-65.1244,-11.9374,0.001067912,-0.1257102,0.09433498,0,0.3,0,0.1492553,0,0.1492553
6.38255E+17,33.31378,-0.9117499,28.81053,47.24934,45.60714,-45.03957,44.90529,4.278211,42.09512,37.21476,-3.760103,45.41821,0,0,0,108.5247,-95.61561,-3.22355,156.9802,-65.65225,-10.84997,0.001067912,-0.1257102,0.09433498,0,0.3,0,0.1494469,0,0.1494469
6.38255E+17,32.27715,-0.9117499,26.49915,47.24934,45.5339,-41.81678,43.30321,4.137942,41.37135,35.45687,-4.346064,46.59014,0,0,0,102.9751,-98.1123,-5.315538,151.6697,-67.09913,-7.42006,0.001067912,-0.1257102,0.09433498,0,0.3,0,0.1502029,0,0.1502029
6.38255E+17,31.90019,-0.9117499,25.82208,47.24934,45.60714,-40.86459,42.87913,4.091186,41.23127,34.94416,-4.492554,46.80988,0,0,0,101.1528,-98.80705,-5.842346,150.3131,-67.42285,-6.475643,0.001067912,-0.1257102,0.09433498,0,0.3,0,0.1516516,0,0.1516516
6.38255E+17,31.12271,-0.9117499,24.39789,47.02961,45.5339,-38.81373,41.88961,3.997673,40.90441,33.84548,-4.785534,47.32259,0,0,0,97.38715,-100.2136,-7.054059,147.1225,-68.13972,-4.319489,0.001067912,-0.1257102,0.09433498,0,0.3,0,0.1540336,0,0.1540336
6.38255E+17,30.32167,-1.052019,22.85697,46.95637,45.60714,-36.68962,40.82941,3.974295,40.50751,32.60031,-5.00527,47.76206,0,0,0,93.46109,-101.9773,-8.549289,143.6069,-68.79645,-2.152378,0.001067912,-0.1257102,0.09433498,0,0.3,0,0.1572192,0,0.1572192
6.38255E+17,29.30859,-1.542961,19.68175,46.88312,45.60714,-33.97955,39.32158,3.950917,39.99387,30.62269,-5.371496,48.34802,0,0,0,87.23776,-105.8001,-12.94874,138.6081,-69.62314,0.8659836,0.001067912,-0.1257102,0.09433498,0,0.3,0,0.1672616,0,0.1672616
6.38255E+17,28.81383,-1.846878,17.58049,46.88312,45.60714,-32.51464,38.5441,3.927538,39.73705,29.67051,-5.517986,48.64101,0,0,0,83.64915,-108.0694,-16.27974,136.0157,-70.06055,2.375295,0.001067912,-0.1257102,0.09433498,0,0.3,0,0.175089,0,0.175089
6.38255E+17,27.98923,-2.314442,14.17179,46.88312,45.60714,-30.31729,37.3661,3.927538,39.38684,28.13236,-5.664476,49.22696,0,0,0,77.85279,-111.3268,-21.8638,132.0957,-70.57968,4.636079,0.001067912,-0.1257102,0.09433498,0,0.3,0,0.1893698,0,0.1893698
6.38255E+17,27.04683,-2.407955,11.32342,46.88312,45.5339,-28.41291,36.1881,3.927538,39.03663,26.66745,-5.810967,49.66644,0,0,0,72.48904,-113.0069,-26.36929,128.1386,-71.09496,6.80551,0.001067912,-0.1257102,0.09433498,0,0.3,0,0.2006225,0,0.2006225
6.38255E+17,25.7746,-2.407955,9.058739,46.80988,45.60714,-26.14231,34.70382,3.927538,38.70977,24.90957,-6.030703,50.03266,0,0,0,67.06316,-113.9394,-29.46607,123.2214,-71.5724,9.578966,0.001067912,-0.1257102,0.09433498,0,0.3,0,0.2091866,0,0.2091866
6.38255E+17,25.27984,-2.407955,8.545099,46.73663,45.60714,-25.11688,34.20906,3.927538,38.61638,24.32361,-6.030703,50.17915,0,0,0,65.3569,-114.1223,-29.96037,121.585,-71.70819,10.496,0.001067912,-0.1257102,0.09433498,0,0.3,0,0.2111814,0,0.2111814
6.38255E+17,24.2432,-2.407955,7.77464,46.95637,45.60714,-21.82085,32.70123,3.927538,38.3829,22.71221,-6.250438,50.98485,0,0,0,62.11366,-114.3768,-30.41907,116.607,-72.04645,13.27557,0.001067912,-0.1257102,0.09433498,0,0.3,0,0.2123519,0,0.2123519
6.38255E+17,23.48928,-2.407955,7.237653,47.61557,45.60714,-18.67131,31.33475,3.927538,38.26617,21.24731,-6.470173,51.7173,0,0,0,59.79953,-114.5401,-30.75011,112.1318,-72.21493,15.82262,0.001067912,-0.1257102,0.09433498,0,0.3,0,0.2128049,0,0.2128049
6.38255E+17,22.49976,-2.407955,6.093637,48.86074,45.60714,-13.61739,29.40283,3.927538,38.21947,18.90347,-6.909645,52.74273,0,0,0,56.40232,-114.8492,-32.18116,105.8173,-72.2822,19.42375,0.001067912,-0.1257102,0.09433498,0,0.3,0,0.2162358,0,0.2162358
6.38255E+17,21.93432,-2.407955,5.46326,49.37346,45.60714,-11.63977,28.69603,3.927538,38.21947,17.95128,-7.12938,53.10896,0,0,0,54.51052,-114.9969,-32.98519,103.4929,-72.2822,20.71479,0.001067912,-0.1257102,0.09433498,0,0.3,0,0.2191957,0,0.2191957
6.38255E+17,20.73277,-2.407955,4.576064,49.88617,45.60714,-8.709964,27.49447,3.927538,38.21947,16.26664,-7.495606,53.76817,0,0,0,50.93182,-115.1775,-33.7956,99.50556,-72.2822,22.84343,0.001067912,-0.1257102,0.09433498,0,0.3,0,0.2237722,0,0.2237722
6.38255E+17,19.08357,-2.407955,4.132466,50.17915,45.60714,-5.633667,26.2458,3.927538,38.21947,14.50875,-7.788587,54.35413,0,0,0,46.70168,-115.2559,-33.35839,95.31548,-72.2822,24.96643,0.001067912,-0.1257102,0.09433498,0,0.3,0,0.226839,0,0.226839
6.38255E+17,17.24589,-2.407955,3.665521,50.17915,45.60714,-1.678428,24.90288,3.927538,38.24282,12.45789,-8.154812,54.94009,0,0,0,42.0273,-115.3298,-32.96569,90.77667,-72.24857,27.18588,0.001067912,-0.1257102,0.09433498,0,0.3,0,0.230371,0,0.230371
6.38255E+17,16.06789,-2.407955,3.198575,49.95942,45.5339,1.251379,23.98404,3.927538,38.24282,11.13948,-8.301303,55.30631,0,0,0,38.93487,-115.3949,-33.17273,87.62937,-72.24857,28.61644,0.001067912,-0.1257102,0.09433498,0,0.3,0,0.2332862,0,0.2332862
6.38255E+17,15.40822,-2.407955,2.941756,49.81293,45.60714,2.789528,23.37148,3.927538,38.24282,10.40703,-8.374548,55.52605,0,0,0,37.21737,-115.4269,-33.30883,85.51861,-72.24857,29.54202,0.001067912,-0.1257102,0.09433498,0,0.3,0,0.2346866,0,0.2346866
6.38255E+17,14.51294,-2.407955,2.638241,49.4467,45.60714,5.133373,22.38196,3.927538,38.24282,9.088613,-8.447793,55.89228,0,0,0,34.926,-115.4613,-33.42684,82.08836,-72.24857,30.98937,0.001067912,-0.1257102,0.09433498,0,0.3,0,0.2360289,0,0.2360289
6.38255E+17,13.57054,-2.407955,2.404768,49.37346,45.60714,7.110993,20.85056,3.927538,38.24282,7.037747,-8.521038,56.55148,0,0,0,32.57479,-115.4852,-33.39835,76.73174,-72.24857,33.11197,0.001067912,-0.1257102,0.09433498,0,0.3,0,0.2360546,0,0.2360546
6.38255E+17,13.19358,-2.407955,2.334727,49.37346,45.60714,7.477218,20.26157,3.927538,38.24282,6.305296,-8.521038,56.84446,0,0,0,31.64905,-115.4919,-33.34554,74.6567,-72.24857,33.89011,0.001067912,-0.1257102,0.09433498,0,0.3,0,0.2360175,0,0.2360175
6.38255E+17,12.32186,-2.407955,2.288032,49.37346,45.60714,7.843444,19.15425,3.927538,38.21947,4.913638,-8.521038,57.43042,0,0,0,29.56828,-115.4963,-32.98575,70.72044,-72.2822,35.25477,0.001067912,-0.1257102,0.09433498,0,0.3,0,0.2356944,0,0.2356944
6.38255E+17,11.07318,-2.407955,2.288032,49.22696,45.60714,8.136425,18.09405,3.950917,38.24282,3.448734,-8.521038,57.94314,0,0,0,26.61143,-115.4963,-32.37355,66.95315,-72.19429,36.56547,0.001067912,-0.1257102,0.09433498,0,0.3,0,0.2362298,0,0.2362298
6.38255E+17,8.528707,-2.384577,2.21799,48.27478,45.5339,8.942122,16.84537,3.974295,38.28952,1.397869,-8.594284,58.38261,0,0,0,20.52471,-115.4483,-31.48504,62.4954,-72.07271,38.05391,0.001067912,-0.1257102,0.09433498,0,0.3,0,0.2394069,0,0.2394069
6.38255E+17,6.926629,-2.291064,2.147949,47.02961,45.60714,9.821064,16.11501,3.997673,38.28952,0.07945653,-8.594284,58.74884,0,0,0,16.67166,-115.2371,-31.11761,59.85828,-72.01842,38.83012,0.001067912,-0.1257102,0.09433498,0,0.3,0,0.241473,0,0.241473
6.38255E+17,6.36119,-2.127417,2.077907,46.29716,45.60714,10.62676,15.71449,3.997673,38.31286,-0.6529952,-8.594284,58.82208,0,0,0,15.30013,-114.8625,-31.10707,58.42011,-71.98475,39.28453,0.001067912,-0.1257102,0.09433498,0,0.3,0,0.2418533,0,0.2418533
6.38255E+17,6.05491,-1.332558,2.031212,45.34497,45.60714,13.19034,14.93702,4.021051,38.31286,-2.044653,-8.521038,59.11506,0,0,0,14.56071,-113.0173,-31.07971,55.59633,-71.93047,40.05445,0.001067912,-0.1257102,0.09433498,0,0.3,0,0.2387491,0,0.2387491
6.38255E+17,6.502549,0.1636474,2.031212,46.3704,45.60714,17.51181,13.85326,4.021051,38.31286,-3.656047,-8.301303,59.55453,0,0,0,15.63674,-109.5353,-31.16236,51.64462,-71.93047,41.06873,0.001067912,-0.1257102,0.09433498,0,0.3,0,0.2315026,0,0.2315026
6.38255E+17,6.667469,0.5143204,2.031212,46.80988,45.60714,18.75698,13.54698,4.021051,38.31286,-4.095518,-8.301303,59.70102,0,0,0,16.03099,-108.7192,-31.21274,50.52442,-71.93047,41.3418,0.001067912,-0.1257102,0.09433498,0,0.3,0,0.2297342,0,0.2297342
6.38255E+17,6.761709,1.16891,2.031212,47.39584,45.60714,20.95433,12.84018,4.044429,38.31286,-4.901215,-8.081567,59.92076,0,0,0,16.2539,-107.1959,-31.26151,47.93304,-71.8762,41.94537,0.001067912,-0.1257102,0.09433498,0,0.3,0,0.2268162,0,0.2268162
6.38255E+17,6.643909,1.636474,2.031212,47.61557,45.60714,22.05301,12.0627,4.114563,38.31286,-5.853402,-7.935077,60.14049,0,0,0,15.96893,-106.108,-31.25484,45.07267,-71.71338,42.56506,0.001067912,-0.1257102,0.09433498,0,0.3,0,0.2248571,0,0.2248571
6.38255E+17,6.314069,2.267686,2.031212,47.1761,45.60714,22.93195,11.0025,4.231455,38.40625,-7.391551,-7.788587,60.50672,0,0,0,15.17394,-104.6398,-31.21493,41.19117,-71.30716,43.5108,0.001067912,-0.1257102,0.09433498,0,0.3,0,0.2232353,0,0.2232353
6.38255E+17,6.14915,2.805384,2.031212,46.44365,45.60714,23.81089,10.34282,4.324967,38.49964,-8.270493,-7.715342,60.7997,0,0,0,14.77322,-103.3896,-31.22688,38.77686,-70.95496,44.12248,0.001067912,-0.1257102,0.09433498,0,0.3,0,0.2222309,0,0.2222309
6.38255E+17,6.12559,3.530109,2.031212,45.05199,45.60714,24.83632,9.541784,4.488615,38.63972,-9.36917,-7.642097,61.09268,0,0,0,14.70688,-101.7054,-31.31349,35.84005,-70.37195,44.86634,0.001067912,-0.1257102,0.09433498,0,0.3,0,0.2211035,0,0.2211035
6.38255E+17,6.12559,3.717134,2.031212,44.31954,45.60714,25.20255,9.211945,4.535372,38.66307,-9.808641,-7.568851,61.31242,0,0,0,14.70395,-101.271,-31.34085,34.61744,-70.22952,45.10257,0.001067912,-0.1257102,0.09433498,0,0.3,0,0.2206743,0,0.2206743
6.38255E+17,6.12559,3.90416,2.007865,39.99807,45.5339,25.56878,8.269547,4.792531,38.66307,-11.27355,-7.495606,61.6054,0,0,0,14.69507,-100.8386,-31.4236,31.09506,-69.63299,45.5949,0.001067912,-0.1257102,0.09433498,0,0.3,0,0.2202279,0,0.2202279
6.38255E+17,6.12559,3.90416,1.914476,38.75291,45.60714,25.27579,8.010387,4.886045,38.66307,-11.63977,-7.422361,61.67865,0,0,0,14.67189,-100.8461,-31.63959,30.12447,-69.41612,45.71518,0.001067912,-0.1257102,0.09433498,0,0.3,0,0.2207763,0,0.2207763
6.38255E+17,6.12559,3.880782,0.9805852,35.89634,45.60714,23.07844,7.421387,5.189961,38.66307,-12.51871,-7.202625,61.75189,0,0,0,14.44042,-100.9553,-33.79633,27.91431,-68.71152,45.95195,0.001067912,-0.1257102,0.09433498,0,0.3,0,0.2263791,0,0.2263791
6.38255E+17,5.88999,3.880782,-0.04669453,34.43144,45.60714,20.66135,6.903069,5.564013,38.66307,-13.25116,-7.056135,61.75189,0,0,0,13.64168,-100.9747,-36.11624,25.96474,-67.84479,46.11471,0.001067912,-0.1257102,0.09433498,0,0.3,0,0.2327164,0,0.2327164
6.38255E+17,5.65439,3.880782,-0.4902926,34.43144,45.60714,19.48943,6.643909,5.821173,38.66307,-13.61739,-6.98289,61.75189,0,0,0,12.9961,-100.9699,-37.08866,24.98754,-67.24923,46.17099,0.001067912,-0.1257102,0.09433498,0,0.3,0,0.2356272,0,0.2356272
6.38255E+17,4.853352,3.90416,-1.400836,35.38363,45.60714,18.24426,6.314069,6.358871,38.52299,-14.20335,-6.763155,61.82513,0,0,0,10.98018,-100.8806,-39.03476,23.70956,-66.20823,45.92604,0.001067912,-0.1257102,0.09433498,0,0.3,0,0.2408694,0,0.2408694
6.38255E+17,3.062795,4.021051,-2.381421,36.4823,45.60714,19.56267,6.00779,7.177108,38.19613,-14.86256,-6.616664,61.82513,0,0,0,6.811351,-100.5339,-41.05127,22.47787,-64.78926,45.23329,0.001067912,-0.1257102,0.09433498,0,0.3,0,0.2462208,0,0.2462208
6.38255E+17,0.6832389,4.067808,-3.805604,36.6288,45.60714,23.51791,5.748631,8.158993,37.86926,-15.44852,-6.396928,61.89838,0,0,0,1.480585,-100.2465,-44.1954,21.421,-62.99319,44.4332,0.001067912,-0.1257102,0.09433498,0,0.3,0,0.2552832,0,0.2552832
6.38255E+17,-0.8481586,4.091186,-4.622759,36.11608,45.60714,25.64202,5.630831,8.743448,37.72918,-15.66825,-6.323683,61.89838,0,0,0,-1.809811,-100.0525,-46.10052,20.93859,-61.84753,44.02147,0.001067912,-0.1257102,0.09433498,0,0.3,0,0.2612849,0,0.2612849
6.38255E+17,-4.429273,4.114563,-5.72008,32.60031,45.60714,29.08454,5.442351,10.16952,37.28558,-16.25422,-5.957458,61.82513,0,0,0,-9.24544,-99.76802,-48.99203,20.11046,-59.20229,42.73105,0.001067912,-0.1257102,0.09433498,0,0.3,0,0.2717027,0,0.2717027
6.38255E+17,-6.832388,4.114563,-5.906858,28.86481,45.5339,30.62269,5.371671,11.1514,36.81864,-16.5472,-5.957458,61.75189,0,0,0,-14.19054,-99.72398,-49.91406,19.72929,-57.61135,41.4713,0.001067912,-0.1257102,0.09433498,0,0.3,0,0.2760817,0,0.2760817
6.38255E+17,-9.400424,4.208076,-6.046942,24.03063,45.60714,32.23409,5.348111,12.41383,36.2583,-16.76693,-5.957458,61.82513,0,0,0,-19.42735,-99.47297,-51.0043,19.48943,-55.51158,39.83881,0.001067912,-0.1257102,0.09433498,0,0.3,0,0.2812281,0,0.2812281
6.38255E+17,-10.6491,4.348346,-6.140331,21.3938,45.60714,32.89329,5.348111,13.09179,35.93144,-16.84018,-5.884212,61.75189,0,0,0,-21.93547,-99.12434,-51.69186,19.39967,-54.42078,38.87998,0.001067912,-0.1257102,0.09433498,0,0.3,0,0.2837488,0,0.2837488
6.38255E+17,-14.23022,5.166583,-6.350456,12.82412,45.60714,34.57793,5.442351,15.07894,34.83412,-16.98667,-5.737722,61.67865,0,0,0,-29.02096,-97.17336,-53.9141,19.43626,-51.41395,35.65459,0.001067912,-0.1257102,0.09433498,0,0.3,0,0.2902766,0,0.2902766
6.38255E+17,-15.31397,5.610769,-6.350456,9.528083,45.60714,34.94416,5.465911,15.71015,34.50726,-16.98667,-5.737722,61.6054,0,0,0,-31.15457,-96.14413,-54.57711,19.4234,-50.43034,34.63556,0.001067912,-0.1257102,0.09433498,0,0.3,0,0.2919278,0,0.2919278
6.38255E+17,-16.93961,6.63941,-6.397151,3.741715,45.60714,35.38363,5.465911,16.90244,33.87688,-17.05991,-5.444741,61.23917,0,0,0,-34.26375,-93.75171,-55.8544,19.2336,-48.59156,32.65197,0.001067912,-0.1257102,0.09433498,0,0.3,0,0.2934061,0,0.2934061
6.38255E+17,-18.30609,7.901833,-6.583929,-2.410879,45.60714,35.53012,5.418791,18.07135,33.15312,-16.98667,-5.00527,60.87295,0,0,0,-36.68427,-90.78809,-57.46657,18.85846,-46.92691,30.45576,0.001067912,-0.1257102,0.09433498,0,0.3,0,0.2934562,0,0.2934562
6.38255E+17,-19.31917,9.49155,-6.583929,-8.929699,45.5339,34.87091,5.112512,19.49742,32.12584,-17.35289,-4.419309,60.06725,0,0,0,-38.45395,-87.13085,-58.66042,17.52082,-45.07425,27.48397,0.001067912,-0.1257102,0.09433498,0,0.3,0,0.2886209,0,0.2886209
6.38255E+17,-19.50765,10.49681,-6.560582,-12.22573,45.60714,33.99197,4.853352,20.33904,31.49546,-17.57263,-3.906592,59.55453,0,0,0,-38.69701,-84.83295,-59.11936,16.47291,-44.00602,25.65401,0.001067912,-0.1257102,0.09433498,0,0.3,0,0.2835917,0,0.2835917
6.38255E+17,-19.55477,11.61897,-6.560582,-15.37527,45.60714,32.89329,4.382153,21.32092,30.74835,-18.08535,-3.174141,59.04182,0,0,0,-38.61916,-82.26979,-59.62325,14.70106,-42.76889,23.48849,0.001067912,-0.1257102,0.09433498,0,0.3,0,0.2765174,0,0.2765174
6.38255E+17,-19.55477,12.2268,-6.560582,-16.69369,45.60714,32.23409,4.052313,21.81186,30.30475,-18.45157,-2.73467,58.60235,0,0,0,-38.52134,-80.88565,-59.89865,13.50392,-42.23068,22.26389,0.001067912,-0.1257102,0.09433498,0,0.3,0,0.2720887,0,0.2720887
6.38255E+17,-19.55477,14.09706,-6.49054,-19.84323,45.60714,29.67051,2.944995,22.77037,29.27747,-19.76999,-1.635992,57.50367,0,0,0,-38.24382,-76.66588,-60.67998,9.667684,-41.35447,19.57206,0.001067912,-0.1257102,0.09433498,0,0.3,0,0.2597763,0,0.2597763
6.38255E+17,-19.55477,14.63475,-6.443846,-20.64893,45.60714,29.08454,2.544476,23.02753,29.02065,-20.20946,-1.269767,57.28393,0,0,0,-38.17604,-75.46582,-60.87081,8.320297,-41.09426,18.88089,0.001067912,-0.1257102,0.09433498,0,0.3,0,0.2561184,0,0.2561184
6.38255E+17,-19.55477,15.85042,-6.210372,-22.04058,45.60714,27.83937,1.814117,23.56523,28.46032,-21.23489,-0.6838052,56.84446,0,0,0,-38.10783,-72.79594,-61.06282,5.881156,-40.57193,17.33417,0.001067912,-0.1257102,0.09433498,0,0.3,0,0.2482899,0,0.2482899
6.38255E+17,-19.55477,17.20636,-5.953553,-22.84628,45.60714,27.18017,0.9423984,24.14968,27.97002,-22.48005,-0.02459868,56.2585,0,0,0,-38.00628,-69.83395,-61.34874,3.029932,-39.8674,15.84668,0.001067912,-0.1257102,0.09433498,0,0.3,0,0.2402869,0,0.2402869
6.38255E+17,-19.55477,17.93108,-5.860164,-23.06602,45.60714,26.88719,0.5183191,24.43022,27.82994,-22.99277,0.1951368,56.11201,0,0,0,-37.90823,-68.24828,-61.62477,1.661479,-39.42483,15.30737,0.001067912,-0.1257102,0.09433498,0,0.3,0,0.2370868,0,0.2370868
6.38255E+17,-19.62545,19.28702,-5.743428,-23.21251,45.60714,26.59421,-0.4711992,25.01468,27.73655,-24.09145,0.5613627,55.81903,0,0,0,-37.79242,-65.28501,-62.36554,-1.504179,-38.29057,14.54751,0.001067912,-0.1257102,0.09433498,0,0.3,0,0.2319858,0,0.2319858
